Fujifilm XTrans III/Acros+G.3dl
#Created by: Affinity Photo (Serif Europe Ltd.)
0 128 256 384 512 639 767 895 1023
16 16 16
53 53 53
204 204 204
570 570 571
846 846 846
1095 1095 1095
1363 1363 1363
1650 1650 1650
1926 1926 1927
72 72 72
161 161 161
347 347 347
591 591 591
931 931 931
1200 1200 1200
1461 1461 1461
1720 1720 1720
1962 1962 1962
438 438 438
500 500 500
664 664 664
897 897 897
1186 1186 1186
1488 1488 1488
1781 1781 1781
2070 2071 2071
2262 2262 2262
653 653 653
955 955 955
1121 1121 1121
1339 1339 1339
1578 1578 1578
1827 1827 1827
2081 2081 2081
2352 2352 2352
2582 2582 2582
1245 1245 1245
1292 1292 1292
1754 1754 1754
1820 1820 1820
2012 2012 2012
2203 2203 2203
2405 2405 2405
2635 2635 2635
2825 2825 2825
927 927 927
1754 1754 1754
1987 1987 1987
2050 2050 2050
2385 2385 2385
2558 2558 2558
2727 2727 2727
2912 2912 2912
3100 3100 3100
1754 1754 1754
1881 1881 1881
1987 1987 1987
2288 2288 2288
2619 2619 2619
2859 2859 2859
2998 2998 2998
3169 3169 3169
3361 3361 3361
1881 1881 1881
2212 2212 2212
2212 2212 2212
2656 2656 2656
2803 2803 2803
3031 3031 3031
3132 3132 3132
3534 3534 3534
3484 3484 3484
1881 1881 1881
2212 2212 2212
2212 2212 2212
2656 2656 2656
2803 2803 2803
3031 3031 3031
3534 3534 3534
3534 3534 3534
3534 3534 3534
41 41 40
64 64 64
346 346 346
672 672 672
931 931 931
1181 1181 1181
1441 1440 1441
1720 1720 1720
1977 1976 1977
151 151 151
214 214 214
387 387 387
662 662 662
1053 1053 1053
1365 1365 1365
1660 1660 1660
1958 1958 1958
2069 2069 2070
451 451 451
480 480 480
671 671 671
945 945 945
1294 1294 1294
1658 1658 1658
1974 1974 1974
2272 2272 2272
2302 2302 2302
954 954 954
1008 1008 1008
1143 1143 1143
1373 1373 1373
1642 1642 1642
1937 1937 1937
2215 2215 2215
2495 2495 2495
2685 2685 2685
1245 1245 1245
1656 1656 1656
1699 1699 1699
1839 1839 1839
2048 2048 2048
2257 2257 2257
2482 2482 2482
2731 2731 2731
2909 2909 2909
1245 1245 1245
1881 1881 1881
1937 1937 1937
2264 2264 2264
2415 2415 2415
2598 2598 2598
2771 2771 2771
2956 2956 2956
3164 3164 3164
1245 1245 1245
1881 1881 1881
2656 2656 2656
2656 2656 2656
2577 2577 2577
2882 2882 2882
3022 3022 3022
3200 3200 3200
3421 3421 3421
1656 1656 1656
1881 1881 1881
2153 2153 2153
2656 2656 2656
2775 2775 2775
3038 3038 3038
3161 3161 3161
3332 3332 3332
3529 3529 3529
1656 1656 1656
1881 1881 1881
2153 2153 2153
2656 2656 2656
2775 2775 2775
3038 3038 3038
3368 3368 3368
3427 3427 3427
3529 3529 3529
119 119 119
271 271 271
593 593 593
807 807 807
1069 1069 1069
1312 1312 1312
1572 1572 1572
1841 1841 1841
2077 2077 2077
239 239 239
343 343 343
518 518 518
812 812 812
1190 1190 1190
1486 1486 1486
1768 1768 1768
2061 2061 2061
2194 2194 2194
509 509 509
602 602 602
784 784 784
1067 1067 1067
1405 1405 1405
1749 1749 1749
2053 2053 2053
2339 2339 2339
2567 2567 2567
1095 1095 1095
1123 1123 1123
1262 1262 1262
1487 1487 1487
1744 1744 1744
2019 2019 2019
2283 2283 2283
2549 2549 2549
2878 2878 2878
1594 1594 1594
1648 1648 1648
1780 1780 1780
1931 1931 1931
2128 2128 2128
2328 2328 2328
2538 2538 2538
2778 2778 2778
3056 3056 3056
1594 1594 1594
1896 1896 1896
2213 2213 2213
2342 2342 2342
2489 2489 2489
2656 2656 2656
2818 2818 2818
2997 2997 2997
3260 3260 3260
1594 1594 1594
2429 2429 2429
2429 2429 2429
2700 2700 2700
2802 2802 2802
2926 2926 2926
3079 3079 3079
3234 3234 3234
3452 3452 3452
2429 2429 2429
2429 2429 2429
2706 2706 2706
2955 2955 2955
2970 2970 2970
3073 3073 3073
3349 3349 3349
3491 3491 3491
3577 3577 3577
2429 2429 2429
2706 2706 2706
2706 2706 2706
2955 2955 2955
2970 2970 2970
3349 3349 3349
3349 3349 3349
3491 3491 3491
3491 3491 3491
390 390 390
357 357 357
805 805 805
979 979 979
1271 1271 1271
1512 1512 1512
1753 1753 1753
2006 2006 2006
2220 2220 2220
496 496 496
560 560 560
730 730 730
1016 1016 1016
1369 1369 1369
1652 1652 1652
1933 1933 1933
2218 2218 2218
2331 2330 2331
767 767 767
800 800 800
971 971 971
1240 1240 1240
1565 1565 1565
1889 1889 1889
2169 2169 2169
2445 2445 2445
2672 2672 2672
1280 1280 1280
1296 1296 1296
1430 1430 1430
1636 1636 1636
1889 1889 1889
2141 2141 2141
2384 2384 2384
2647 2647 2647
2953 2953 2953
1800 1800 1800
1812 1812 1812
1918 1918 1918
2061 2061 2061
2245 2245 2245
2432 2432 2432
2641 2641 2641
2857 2857 2857
3128 3128 3128
1985 1985 1985
2036 2036 2036
2325 2325 2325
2452 2452 2452
2591 2591 2591
2751 2751 2751
2895 2895 2895
3072 3072 3072
3323 3323 3323
2277 2277 2277
2563 2563 2563
2750 2750 2750
2779 2779 2779
2882 2882 2882
3012 3012 3012
3151 3151 3151
3303 3303 3303
3514 3514 3514
2563 2563 2563
2563 2563 2563
2750 2750 2750
2955 2955 2955
3022 3022 3022
3156 3156 3156
3527 3527 3527
3526 3526 3526
3633 3633 3633
2563 2563 2563
2750 2750 2750
2750 2750 2750
2955 2955 2955
3022 3022 3022
3156 3156 3156
3527 3527 3527
3526 3526 3526
3526 3526 3526
555 555 555
811 811 811
1017 1017 1017
1296 1296 1296
1483 1483 1483
1737 1737 1737
1972 1972 1972
2207 2207 2207
2398 2398 2398
745 745 745
811 811 811
927 927 927
1207 1207 1207
1560 1560 1560
1835 1835 1835
2119 2119 2119
2398 2398 2398
2496 2496 2496
994 994 994
1031 1031 1031
1161 1161 1161
1426 1426 1426
1736 1736 1736
2035 2035 2035
2303 2303 2303
2576 2576 2576
2794 2794 2794
1368 1368 1368
1472 1472 1472
1597 1597 1597
1803 1803 1803
2044 2044 2044
2275 2275 2275
2514 2514 2514
2763 2763 2763
3048 3048 3048
1906 1906 1906
1967 1967 1967
2066 2066 2066
2205 2205 2205
2370 2370 2370
2558 2558 2558
2755 2755 2755
2952 2952 2952
3207 3207 3207
2437 2437 2437
2431 2431 2431
2467 2467 2467
2583 2583 2583
2712 2712 2712
2854 2854 2854
2994 2994 2994
3163 3163 3163
3407 3407 3407
2431 2431 2431
2697 2697 2697
2846 2846 2846
2888 2888 2888
2991 2991 2991
3111 3111 3111
3243 3243 3243
3385 3385 3385
3592 3592 3592
2697 2697 2697
2697 2697 2697
2846 2846 2846
3089 3089 3089
3155 3155 3155
3256 3256 3256
3535 3535 3535
3637 3637 3637
3617 3617 3617
2697 2697 2697
2697 2697 2697
2846 2846 2846
3089 3089 3089
3155 3155 3155
3535 3535 3535
3535 3535 3535
3637 3637 3637
3703 3703 3703
1019 1019 1019
1174 1174 1174
1159 1159 1159
1398 1398 1398
1684 1684 1684
1948 1948 1948
2197 2197 2197
2438 2438 2438
2593 2593 2593
1019 1019 1019
1077 1077 1077
1179 1179 1179
1394 1394 1394
1738 1738 1738
2012 2012 2012
2304 2304 2304
2584 2584 2584
2686 2685 2686
1265 1265 1265
1279 1279 1279
1387 1387 1387
1596 1596 1596
1902 1902 1902
2178 2178 2178
2442 2442 2442
2716 2716 2716
2911 2911 2911
1584 1584 1584
1671 1671 1671
1761 1761 1761
1948 1948 1948
2179 2179 2179
2408 2408 2408
2638 2638 2638
2873 2873 2873
3140 3140 3140
1985 1985 1985
2096 2096 2096
2185 2185 2185
2327 2327 2327
2499 2499 2499
2687 2687 2687
2864 2864 2864
3058 3058 3058
3309 3309 3309
2219 2219 2219
2481 2481 2481
2591 2591 2591
2706 2706 2706
2829 2829 2829
2957 2957 2957
3094 3094 3094
3256 3256 3256
3491 3491 3491
2437 2437 2437
2698 2698 2698
2864 2864 2864
2995 2995 2995
3103 3103 3103
3215 3215 3215
3337 3337 3337
3479 3479 3479
3692 3692 3692
2698 2698 2698
2864 2864 2864
2864 2864 2864
3158 3158 3158
3257 3257 3257
3359 3359 3359
3645 3645 3645
3748 3748 3748
3807 3807 3807
2864 2864 2864
2864 2864 2864
3158 3158 3158
3158 3158 3158
3257 3257 3257
3645 3645 3645
3645 3645 3645
3748 3748 3748
3851 3851 3851
1114 1114 1114
1276 1276 1276
1411 1411 1411
1545 1545 1545
1833 1833 1833
2141 2141 2141
2401 2401 2401
2624 2624 2624
2778 2778 2778
1279 1279 1279
1295 1295 1295
1396 1396 1396
1562 1562 1562
1863 1863 1863
2179 2179 2179
2469 2469 2469
2742 2742 2742
2872 2872 2872
1530 1530 1530
1510 1510 1510
1605 1605 1605
1738 1738 1738
2018 2018 2018
2307 2307 2307
2563 2563 2563
2832 2832 2832
3036 3036 3036
1829 1829 1829
1851 1851 1851
1929 1929 1929
2048 2048 2048
2286 2286 2286
2522 2522 2522
2761 2761 2761
2970 2970 2970
3227 3227 3227
2167 2167 2167
2194 2194 2194
2277 2277 2277
2416 2416 2416
2603 2603 2603
2793 2793 2793
2966 2966 2966
3151 3151 3151
3388 3388 3388
2489 2489 2489
2558 2558 2558
2678 2678 2678
2797 2797 2797
2919 2919 2919
3055 3055 3055
3195 3195 3195
3352 3352 3352
3567 3567 3567
2489 2489 2489
2780 2780 2780
3002 3002 3002
3090 3090 3090
3198 3198 3198
3309 3309 3309
3435 3435 3435
3560 3560 3560
3765 3765 3765
2489 2489 2489
3002 3002 3002
3002 3002 3002
3249 3249 3249
3347 3347 3347
3642 3642 3642
3567 3567 3567
3790 3790 3790
3898 3898 3898
3002 3002 3002
3002 3002 3002
3249 3249 3249
3249 3249 3249
3592 3592 3592
3642 3642 3642
3753 3753 3753
3790 3790 3790
3918 3918 3918
1295 1295 1295
1276 1276 1276
1527 1527 1527
1805 1805 1805
2004 2004 2004
2297 2297 2297
2560 2560 2560
2798 2798 2798
3053 3053 3053
1279 1279 1279
1535 1535 1535
1509 1509 1509
1690 1690 1690
1960 1960 1960
2314 2314 2314
2615 2615 2615
2875 2875 2875
3101 3101 3101
1693 1693 1693
1612 1612 1612
1837 1837 1837
1902 1902 1902
2094 2094 2094
2394 2394 2394
2679 2679 2679
2932 2932 2932
3188 3188 3188
1693 1693 1693
1936 1936 1936
2056 2056 2056
2150 2150 2150
2350 2350 2350
2622 2622 2622
2858 2858 2858
3067 3067 3067
3301 3301 3301
2167 2167 2167
2264 2264 2264
2390 2390 2390
2468 2468 2468
2677 2677 2677
2883 2883 2883
3065 3065 3065
3243 3243 3243
3470 3470 3470
2613 2613 2613
2698 2698 2698
2715 2715 2715
2852 2852 2852
2999 2999 2999
3151 3151 3151
3305 3305 3305
3458 3458 3458
3665 3665 3665
2613 2613 2613
2830 2830 2830
3074 3074 3074
3187 3187 3187
3312 3312 3312
3424 3424 3424
3545 3545 3545
3669 3669 3669
3872 3872 3872
2830 2830 2830
3052 3052 3052
3301 3301 3301
3341 3341 3341
3592 3592 3592
3686 3686 3686
3784 3784 3784
3893 3893 3893
4053 4053 4053
3052 3052 3052
3074 3074 3074
3301 3301 3301
3592 3592 3592
3592 3592 3592
3686 3686 3686
3784 3784 3784
3893 3893 3893
4053 4053 4053
1295 1295 1295
1665 1665 1665
1686 1686 1686
1805 1805 1805
2030 2030 2030
2484 2484 2484
2678 2678 2678
2785 2785 2785
3053 3053 3053
1612 1612 1612
1665 1665 1665
1665 1665 1665
1899 1899 1899
1949 1949 1949
2370 2370 2370
2689 2689 2689
2810 2810 2810
3101 3101 3101
1693 1693 1693
1837 1837 1837
1916 1916 1916
1939 1939 1939
2163 2163 2163
2422 2422 2422
2735 2735 2735
2935 2935 2935
3188 3188 3188
1693 1693 1693
2235 2235 2235
2046 2046 2046
2206 2206 2206
2377 2377 2377
2657 2657 2657
2904 2904 2904
3007 3007 3007
3307 3307 3307
2264 2264 2264
2374 2374 2374
2310 2310 2310
2529 2529 2529
2719 2719 2719
2931 2931 2931
3120 3120 3120
3421 3421 3421
3421 3421 3421
2613 2613 2613
2832 2832 2832
2832 2832 2832
2871 2871 2871
3029 3029 3029
3213 3213 3213
3365 3365 3365
3568 3568 3568
3656 3656 3656
2830 2830 2830
2830 2830 2830
3185 3185 3185
3251 3251 3251
3444 3444 3444
3612 3612 3612
3756 3756 3756
3818 3818 3818
3908 3908 3908
2830 2830 2830
3074 3074 3074
3185 3185 3185
3399 3399 3399
3639 3639 3639
3858 3858 3858
3926 3926 3926
4043 4043 4043
4070 4070 4070
3074 3074 3074
3301 3301 3301
3301 3301 3301
3639 3639 3639
3639 3639 3639
3858 3858 3858
3926 3926 3926
4043 4043 4043
4070 4070 4070
