Fujifilm XTrans III/Acros+R.3dl
#Created by: Affinity Photo (Serif Europe Ltd.)
0 256 512 767 1023
16 16 16
0 0 0
485 486 485
1098 1099 1098
1752 1753 1752
187 187 188
305 305 305
513 513 513
772 772 772
1443 1443 1443
966 966 966
1213 1213 1213
1268 1268 1268
1362 1362 1362
1449 1449 1449
1213 1213 1213
1364 1364 1364
1829 1829 1829
2079 2079 2079
2232 2232 2232
1491 1491 1491
1565 1565 1565
2006 2006 2006
2687 2687 2687
2687 2687 2687
489 489 489
989 989 989
916 916 916
1353 1354 1353
1918 1919 1918
686 686 686
784 784 784
1001 1001 1001
1218 1218 1218
1868 1868 1868
1352 1352 1352
1447 1447 1447
1620 1620 1620
1764 1764 1764
1970 1970 1970
1352 1352 1352
1945 1945 1945
2170 2170 2170
2312 2312 2312
2443 2443 2443
1945 1945 1945
2201 2201 2201
2314 2314 2314
2527 2527 2527
2599 2599 2599
1365 1365 1365
1763 1763 1763
1904 1904 1904
2001 2001 2001
2377 2378 2377
1825 1825 1825
1862 1862 1862
2024 2024 2024
2125 2125 2125
2352 2352 2352
2260 2260 2260
2256 2256 2256
2367 2367 2367
2462 2462 2462
2614 2614 2614
2504 2504 2504
2676 2676 2676
2756 2756 2756
2859 2859 2859
2998 2998 2998
2797 2797 2797
2676 2676 2676
2820 2820 2820
3055 3055 3055
3199 3199 3199
2409 2409 2409
2776 2776 2776
2917 2917 2917
2954 2954 2954
3014 3014 3014
2762 2762 2762
2838 2838 2838
2938 2938 2938
3006 3006 3006
3057 3057 3057
2949 2949 2949
3033 3033 3033
3109 3109 3109
3176 3176 3176
3264 3264 3264
3150 3150 3150
3305 3305 3305
3376 3376 3376
3443 3443 3443
3572 3572 3572
3305 3305 3305
3449 3449 3449
3796 3796 3796
3782 3782 3782
3811 3811 3811
2684 2684 2684
3265 3265 3265
3485 3485 3485
3496 3496 3496
3374 3374 3374
2961 2961 2961
3355 3355 3355
3448 3448 3448
3539 3539 3539
3434 3434 3434
3141 3141 3141
3499 3499 3499
3600 3600 3600
3679 3679 3679
3727 3727 3727
3540 3540 3540
3749 3749 3749
3963 3963 3963
4052 4052 4052
3960 3960 3960
3573 3573 3573
3720 3720 3720
3938 3938 3938
4095 4095 4095
4053 4053 4053
