Fujifilm XTrans III/Acros+Ye.3dl
#Created by: Affinity Photo (Serif Europe Ltd.)
0 128 256 384 512 639 767 895 1023
16 16 16
35 35 35
56 57 57
399 401 401
725 725 725
1030 1031 1031
1369 1370 1369
1723 1723 1723
2045 2046 2045
39 39 39
82 82 82
214 214 214
383 383 383
670 670 670
1007 1007 1007
1354 1354 1354
1720 1721 1721
2053 2054 2053
277 277 278
319 319 319
451 451 451
620 620 620
822 822 822
1042 1042 1042
1307 1307 1307
1633 1633 1633
1971 1971 1971
471 471 471
705 705 705
846 846 846
1011 1011 1011
1181 1181 1181
1354 1354 1354
1524 1524 1524
1727 1727 1727
1919 1919 1919
1041 1041 1041
1029 1029 1029
1411 1411 1411
1448 1448 1448
1590 1590 1590
1728 1728 1728
1870 1870 1870
2042 2042 2042
2153 2153 2153
705 705 705
1411 1411 1411
1602 1602 1602
1663 1663 1663
1965 1965 1965
2102 2102 2102
2225 2225 2225
2372 2372 2372
2515 2515 2515
1411 1411 1411
1603 1603 1603
1602 1602 1602
1884 1884 1884
2173 2173 2173
2380 2380 2380
2521 2521 2521
2668 2668 2668
2822 2822 2822
1603 1603 1603
1815 1815 1815
1815 1815 1815
2234 2234 2234
2337 2337 2337
2545 2545 2545
2640 2640 2640
3093 3093 3093
2962 2962 2962
1603 1603 1603
1815 1815 1815
1815 1815 1815
2234 2234 2234
2337 2337 2337
2545 2545 2545
3093 3093 3093
3093 3093 3093
3093 3093 3093
107 107 107
52 52 52
299 299 299
534 534 534
870 870 870
1159 1159 1159
1462 1463 1462
1793 1794 1793
2094 2094 2094
166 166 166
210 210 210
335 335 335
519 519 519
833 833 833
1181 1181 1181
1503 1503 1503
1870 1870 1870
2205 2205 2205
384 384 384
413 413 413
533 533 533
730 730 730
987 987 987
1277 1277 1277
1563 1563 1563
1878 1878 1878
2170 2170 2170
818 818 818
830 830 830
924 924 924
1098 1098 1098
1310 1310 1310
1547 1547 1547
1781 1781 1781
2023 2023 2023
2082 2082 2082
1041 1041 1041
1357 1357 1357
1397 1397 1397
1508 1508 1508
1673 1673 1673
1857 1857 1857
2051 2051 2051
2262 2262 2262
2231 2231 2231
1041 1041 1041
1603 1603 1603
1603 1603 1603
1895 1895 1895
2026 2026 2026
2177 2177 2177
2327 2327 2327
2505 2505 2505
2569 2569 2569
1041 1041 1041
1603 1603 1603
2234 2234 2234
2234 2234 2234
2170 2170 2170
2433 2433 2433
2573 2573 2573
2741 2741 2741
2881 2881 2881
1357 1357 1357
1603 1603 1603
1819 1819 1819
2234 2234 2234
2350 2350 2350
2581 2581 2581
2699 2699 2699
2854 2854 2854
3039 3039 3039
1357 1357 1357
1603 1603 1603
1819 1819 1819
2234 2234 2234
2350 2350 2350
2581 2581 2581
2897 2897 2897
2958 2958 2958
3039 3039 3039
344 344 345
444 444 444
845 845 845
807 807 807
1083 1083 1083
1330 1331 1330
1613 1614 1613
1925 1925 1925
2199 2199 2199
428 428 428
467 467 467
587 587 587
783 783 783
1060 1060 1060
1342 1342 1342
1635 1635 1635
1979 1979 1979
2309 2310 2309
602 602 602
659 659 659
786 786 786
981 981 981
1216 1216 1216
1476 1476 1476
1716 1716 1716
1993 1993 1993
2359 2359 2359
1021 1021 1021
1037 1037 1037
1143 1143 1143
1318 1318 1318
1516 1516 1516
1719 1719 1719
1926 1926 1926
2136 2136 2136
2413 2413 2413
1406 1406 1406
1436 1436 1436
1549 1549 1549
1677 1677 1677
1846 1846 1846
2007 2007 2007
2175 2175 2175
2361 2361 2361
2607 2607 2607
1406 1406 1406
1642 1642 1642
1932 1932 1932
2037 2037 2037
2158 2158 2158
2300 2300 2300
2435 2435 2435
2599 2599 2599
2705 2705 2705
1406 1406 1406
2095 2095 2095
2095 2095 2095
2313 2313 2313
2411 2411 2411
2536 2536 2536
2681 2681 2681
2819 2819 2819
2983 2983 2983
2095 2095 2095
2095 2095 2095
2357 2357 2357
2607 2607 2607
2573 2573 2573
2666 2666 2666
2901 2901 2901
3031 3031 3031
3120 3120 3120
2095 2095 2095
2357 2357 2357
2357 2357 2357
2607 2607 2607
2573 2573 2573
2901 2901 2901
2901 2901 2901
3031 3031 3031
3031 3031 3031
773 773 773
594 594 594
1039 1039 1039
1169 1169 1169
1394 1394 1394
1592 1592 1592
1842 1842 1842
2121 2121 2121
2362 2362 2362
869 869 869
891 891 891
1024 1024 1024
1200 1200 1200
1422 1422 1422
1620 1620 1620
1864 1864 1864
2164 2164 2164
2457 2457 2457
1103 1103 1103
1081 1081 1081
1187 1187 1187
1359 1359 1359
1560 1560 1560
1767 1767 1767
1963 1963 1963
2187 2187 2187
2504 2504 2504
1416 1416 1416
1402 1402 1402
1493 1493 1493
1637 1637 1637
1811 1811 1811
1985 1985 1985
2151 2151 2151
2334 2334 2334
2586 2586 2586
1760 1760 1760
1766 1766 1766
1842 1842 1842
1957 1957 1957
2096 2096 2096
2230 2230 2230
2374 2374 2374
2540 2540 2540
2772 2772 2772
1904 1904 1904
1934 1934 1934
2150 2150 2150
2256 2256 2256
2369 2369 2369
2493 2493 2493
2613 2613 2613
2763 2763 2763
2964 2964 2964
2168 2168 2168
2389 2389 2389
2479 2479 2479
2482 2482 2482
2592 2592 2592
2716 2716 2716
2838 2838 2838
2956 2956 2956
3140 3140 3140
2389 2389 2389
2389 2389 2389
2479 2479 2479
2607 2607 2607
2696 2696 2696
2824 2824 2824
3200 3200 3200
3155 3155 3155
3243 3243 3243
2389 2389 2389
2479 2479 2479
2479 2479 2479
2607 2607 2607
2696 2696 2696
2824 2824 2824
3200 3200 3200
3155 3155 3155
3155 3155 3155
1035 1035 1035
1385 1385 1385
1520 1520 1520
1675 1675 1675
1800 1800 1800
1948 1948 1948
2142 2142 2142
2375 2375 2375
2581 2582 2581
1333 1333 1333
1385 1385 1385
1511 1511 1511
1656 1656 1656
1831 1831 1831
1981 1981 1981
2172 2172 2172
2410 2410 2410
2652 2653 2652
1516 1516 1516
1543 1543 1543
1628 1628 1628
1776 1776 1776
1942 1942 1942
2102 2102 2102
2260 2260 2260
2456 2456 2456
2707 2707 2707
1776 1776 1776
1795 1795 1795
1878 1878 1878
2000 2000 2000
2143 2143 2143
2277 2277 2277
2420 2420 2420
2581 2581 2581
2804 2804 2804
2105 2105 2105
2103 2103 2103
2167 2167 2167
2259 2259 2259
2370 2370 2370
2493 2493 2493
2617 2617 2617
2767 2767 2767
2952 2952 2952
2518 2518 2518
2439 2439 2439
2439 2439 2439
2524 2524 2524
2619 2619 2619
2730 2730 2730
2830 2830 2830
2946 2946 2946
3139 3139 3139
2439 2439 2439
2726 2726 2726
2706 2706 2706
2743 2743 2743
2832 2832 2832
2918 2918 2918
3023 3023 3023
3131 3131 3131
3306 3306 3306
2726 2726 2726
2726 2726 2726
2706 2706 2706
2857 2857 2857
2928 2928 2928
3031 3031 3031
3257 3257 3257
3348 3348 3348
3329 3329 3329
2726 2726 2726
2726 2726 2726
2706 2706 2706
2857 2857 2857
2928 2928 2928
3257 3257 3257
3257 3257 3257
3348 3348 3348
3440 3440 3440
1840 1840 1840
2139 2139 2139
2042 2042 2042
2103 2103 2103
2225 2225 2225
2334 2334 2334
2480 2480 2480
2674 2674 2674
2836 2836 2836
1840 1840 1840
1886 1886 1886
1984 1984 1984
2107 2107 2107
2229 2229 2229
2354 2354 2354
2512 2512 2512
2704 2704 2704
2892 2892 2892
1987 1987 1987
1987 1987 1987
2072 2072 2072
2191 2191 2191
2314 2314 2314
2441 2441 2441
2576 2576 2576
2746 2746 2746
2951 2951 2951
2154 2154 2154
2189 2189 2189
2261 2261 2261
2357 2357 2357
2470 2470 2470
2589 2589 2589
2712 2712 2712
2846 2846 2846
3026 3026 3026
2399 2399 2399
2434 2434 2434
2489 2489 2489
2570 2570 2570
2669 2669 2669
2773 2773 2773
2869 2869 2869
2988 2988 2988
3164 3164 3164
2547 2547 2547
2681 2681 2681
2728 2728 2728
2799 2799 2799
2873 2873 2873
2956 2956 2956
3044 3044 3044
3151 3151 3151
3327 3327 3327
2518 2518 2518
2796 2796 2796
2852 2852 2852
2994 2994 2994
3067 3067 3067
3145 3145 3145
3226 3226 3226
3329 3329 3329
3503 3503 3503
2796 2796 2796
2852 2852 2852
2852 2852 2852
3091 3091 3091
3183 3183 3183
3249 3249 3249
3483 3483 3483
3549 3549 3549
3605 3605 3605
2852 2852 2852
2852 2852 2852
3091 3091 3091
3091 3091 3091
3183 3183 3183
3483 3483 3483
3483 3483 3483
3549 3549 3549
3685 3685 3685
2004 2004 2004
2274 2274 2274
2378 2378 2378
2495 2495 2495
2597 2597 2597
2701 2701 2701
2824 2824 2824
2965 2965 2965
3078 3078 3078
2213 2213 2213
2256 2256 2256
2356 2356 2356
2488 2488 2488
2601 2601 2601
2716 2716 2716
2840 2840 2840
2989 2989 2989
3117 3117 3117
2350 2350 2350
2346 2346 2346
2457 2457 2457
2560 2560 2560
2674 2674 2674
2782 2782 2782
2880 2880 2880
3016 3016 3016
3166 3166 3166
2471 2471 2471
2506 2506 2506
2616 2616 2616
2706 2706 2706
2796 2796 2796
2883 2883 2883
2982 2982 2982
3087 3087 3087
3233 3233 3233
2685 2685 2685
2705 2705 2705
2801 2801 2801
2868 2868 2868
2941 2941 2941
3024 3024 3024
3115 3115 3115
3210 3210 3210
3354 3354 3354
2924 2924 2924
2904 2904 2904
2978 2978 2978
3045 3045 3045
3113 3113 3113
3187 3187 3187
3266 3266 3266
3356 3356 3356
3500 3500 3500
2924 2924 2924
3035 3035 3035
3175 3175 3175
3230 3230 3230
3295 3295 3295
3363 3363 3363
3441 3441 3441
3524 3524 3524
3678 3678 3678
2924 2924 2924
3175 3175 3175
3175 3175 3175
3350 3350 3350
3410 3410 3410
3696 3696 3696
3542 3542 3542
3685 3685 3685
3797 3797 3797
3175 3175 3175
3175 3175 3175
3350 3350 3350
3350 3350 3350
3701 3701 3701
3696 3696 3696
3763 3763 3763
3685 3685 3685
3862 3862 3862
2256 2256 2256
2274 2274 2274
2569 2569 2569
2875 2875 2875
2909 2909 2909
2995 2995 2995
3096 3096 3096
3216 3216 3216
3370 3370 3370
2213 2213 2213
2520 2520 2520
2536 2536 2536
2793 2793 2793
2908 2908 2908
3007 3007 3007
3121 3121 3121
3244 3244 3244
3390 3390 3390
2547 2547 2547
2530 2530 2530
2824 2824 2824
2868 2868 2868
2960 2960 2960
3054 3054 3054
3153 3153 3153
3260 3260 3260
3398 3398 3398
2547 2547 2547
2673 2673 2673
2883 2883 2883
2974 2974 2974
3062 3062 3062
3154 3154 3154
3240 3240 3240
3333 3333 3333
3460 3460 3460
2685 2685 2685
2855 2855 2855
3055 3055 3055
3116 3116 3116
3189 3189 3189
3278 3278 3278
3357 3357 3357
3440 3440 3440
3582 3582 3582
3033 3033 3033
3189 3189 3189
3218 3218 3218
3279 3279 3279
3352 3352 3352
3423 3423 3423
3502 3502 3502
3579 3579 3579
3716 3716 3716
3033 3033 3033
3305 3305 3305
3394 3394 3394
3457 3457 3457
3530 3530 3530
3586 3586 3586
3649 3649 3649
3720 3720 3720
3867 3867 3867
3305 3305 3305
3304 3304 3304
3566 3566 3566
3566 3566 3566
3701 3701 3701
3789 3789 3789
3842 3842 3842
3906 3906 3906
4029 4029 4029
3304 3304 3304
3394 3394 3394
3566 3566 3566
3701 3701 3701
3701 3701 3701
3789 3789 3789
3842 3842 3842
3906 3906 3906
4029 4029 4029
2256 2256 2256
2739 2739 2739
2829 2829 2829
2875 2875 2875
3091 3091 3091
3209 3209 3209
3259 3259 3259
3323 3323 3323
3370 3370 3370
2530 2530 2530
2739 2739 2739
2739 2739 2739
3003 3003 3003
3044 3044 3044
3159 3159 3159
3294 3294 3294
3313 3313 3313
3390 3390 3390
2547 2547 2547
2824 2824 2824
2942 2942 2942
2990 2990 2990
3109 3109 3109
3200 3200 3200
3295 3295 3295
3378 3378 3378
3398 3398 3398
2547 2547 2547
2943 2943 2943
3043 3043 3043
3113 3113 3113
3206 3206 3206
3295 3295 3295
3370 3370 3370
3419 3419 3419
3563 3563 3563
2855 2855 2855
3029 3029 3029
3144 3144 3144
3254 3254 3254
3336 3336 3336
3418 3418 3418
3499 3499 3499
3637 3637 3637
3637 3637 3637
3033 3033 3033
3416 3416 3416
3416 3416 3416
3414 3414 3414
3480 3480 3480
3559 3559 3559
3635 3635 3635
3744 3744 3744
3798 3798 3798
3305 3305 3305
3305 3305 3305
3565 3565 3565
3597 3597 3597
3815 3815 3815
3887 3887 3887
3965 3965 3965
3985 3985 3985
3949 3949 3949
3305 3305 3305
3394 3394 3394
3565 3565 3565
3680 3680 3680
3830 3830 3830
4024 4024 4024
4041 4041 4041
4094 4094 4094
4065 4065 4065
3394 3394 3394
3566 3566 3566
3566 3566 3566
3830 3830 3830
3830 3830 3830
4024 4024 4024
4041 4041 4041
4094 4094 4094
4065 4065 4065
