Fujifilm XTrans III/Acros+R.3dl
#Created by: Affinity Photo (Serif Europe Ltd.)
0 64 128 192 256 320 384 448 512 575 639 703 767 831 895 959 1023
16 16 16
20 20 20
17 17 17
0 0 0
0 0 0
9 10 9
177 179 179
357 358 358
485 486 485
620 621 621
768 769 769
927 928 928
1098 1099 1098
1270 1271 1271
1441 1442 1442
1606 1607 1607
1752 1753 1752
25 25 25
30 30 30
21 21 21
0 0 0
2 2 2
23 23 23
133 134 134
303 304 304
451 452 452
601 601 601
752 752 752
917 917 917
1087 1088 1088
1263 1264 1264
1441 1442 1441
1609 1610 1610
1759 1760 1759
32 32 32
37 37 37
35 35 35
46 46 46
93 93 93
137 137 137
186 186 186
268 268 268
384 384 384
524 525 525
674 675 675
836 836 836
1021 1021 1021
1206 1206 1206
1400 1401 1401
1585 1586 1585
1744 1745 1744
47 47 47
62 62 62
68 68 68
102 102 102
159 159 159
234 234 234
293 293 293
345 345 345
398 398 398
471 471 471
572 572 572
704 704 704
864 865 865
1044 1045 1044
1247 1248 1248
1454 1454 1454
1637 1637 1637
187 187 188
161 161 161
199 199 199
255 255 255
305 305 305
358 358 358
413 413 413
464 464 464
513 513 513
560 560 560
613 613 613
679 680 680
772 772 772
895 895 895
1062 1063 1063
1259 1259 1259
1443 1443 1443
373 373 373
350 350 350
393 393 393
408 408 408
468 468 468
522 522 522
571 571 571
616 616 616
665 665 665
713 713 713
757 757 757
800 800 800
846 846 846
908 908 908
996 996 996
1108 1108 1108
1243 1243 1243
373 373 373
591 591 591
563 563 563
651 651 651
665 665 665
713 713 713
769 769 769
814 814 814
853 853 853
889 889 889
927 927 927
964 964 964
1000 1000 1000
1042 1042 1042
1092 1092 1092
1137 1137 1137
1185 1185 1185
591 591 591
591 591 591
898 898 898
651 651 651
878 878 878
929 929 929
981 981 981
1020 1020 1020
1056 1056 1056
1088 1088 1088
1117 1117 1117
1146 1146 1146
1178 1178 1178
1213 1213 1213
1254 1254 1254
1277 1277 1277
1278 1278 1278
966 966 966
898 898 898
898 898 898
1126 1126 1126
1213 1213 1213
1188 1188 1188
1201 1201 1201
1228 1228 1228
1268 1268 1268
1293 1293 1293
1315 1315 1315
1338 1338 1338
1362 1362 1362
1394 1394 1394
1433 1433 1433
1452 1452 1452
1449 1449 1449
591 591 591
1230 1230 1230
1213 1213 1213
1213 1213 1213
1213 1213 1213
1364 1364 1364
1412 1412 1412
1445 1445 1445
1469 1469 1469
1495 1495 1495
1513 1513 1513
1531 1531 1531
1555 1555 1555
1583 1583 1583
1617 1617 1617
1646 1646 1646
1657 1657 1657
591 591 591
1230 1230 1230
1213 1213 1213
1213 1213 1213
1364 1364 1364
1364 1364 1364
1412 1412 1412
1593 1593 1593
1643 1643 1643
1675 1675 1675
1707 1707 1707
1725 1725 1725
1746 1746 1746
1771 1771 1771
1806 1806 1806
1845 1845 1845
1872 1872 1872
1213 1213 1213
1491 1491 1491
1491 1491 1491
1364 1364 1364
1364 1364 1364
1364 1364 1364
1593 1593 1593
1593 1593 1593
1829 1829 1829
1829 1829 1829
1866 1866 1866
1905 1905 1905
1928 1928 1928
1951 1951 1951
1980 1980 1980
2013 2013 2013
2055 2055 2055
1213 1213 1213
1491 1491 1491
1491 1491 1491
1364 1364 1364
1364 1364 1364
1593 1593 1593
1593 1593 1593
1817 1817 1817
1829 1829 1829
1829 1829 1829
2005 2005 2005
2039 2039 2039
2079 2079 2079
2107 2107 2107
2142 2142 2142
2188 2188 2188
2232 2232 2232
1213 1213 1213
1491 1491 1491
1491 1491 1491
1565 1565 1565
1364 1364 1364
2017 2017 2017
2017 2017 2017
1817 1817 1817
2006 2006 2006
2166 2166 2166
2166 2166 2166
2229 2229 2229
2192 2192 2192
2235 2235 2235
2310 2310 2310
2341 2341 2341
2395 2395 2395
1491 1491 1491
1491 1491 1491
1565 1565 1565
1565 1565 1565
1565 1565 1565
2017 2017 2017
2017 2017 2017
1817 1817 1817
2006 2006 2006
2166 2166 2166
2166 2166 2166
2229 2229 2229
2192 2192 2192
2235 2235 2235
2687 2687 2687
2687 2687 2687
2395 2395 2395
1491 1491 1491
1491 1491 1491
1565 1565 1565
1565 1565 1565
1565 1565 1565
2017 2017 2017
2017 2017 2017
2006 2006 2006
2006 2006 2006
2229 2229 2229
2166 2166 2166
2229 2229 2229
2192 2192 2192
2687 2687 2687
2687 2687 2687
2687 2687 2687
2395 2395 2395
1491 1491 1491
1491 1491 1491
1565 1565 1565
1565 1565 1565
1565 1565 1565
2017 2017 2017
2017 2017 2017
2006 2006 2006
2006 2006 2006
2229 2229 2229
2166 2166 2166
2229 2229 2229
2687 2687 2687
2687 2687 2687
2687 2687 2687
2687 2687 2687
2687 2687 2687
46 46 46
40 40 40
38 38 38
0 0 0
0 0 0
195 195 195
296 296 296
473 473 473
588 589 588
722 723 722
857 857 857
997 998 997
1152 1153 1153
1318 1319 1318
1482 1483 1482
1641 1642 1641
1781 1782 1781
68 68 67
65 65 65
78 78 78
107 107 107
150 150 150
195 195 195
296 296 296
438 438 438
570 570 570
707 707 707
853 853 853
1003 1004 1003
1172 1172 1172
1355 1356 1355
1539 1539 1539
1706 1707 1706
1840 1841 1840
59 59 58
123 123 123
124 124 124
145 145 145
179 179 179
243 243 243
311 311 311
393 393 393
504 504 504
640 640 640
788 788 788
933 933 933
1102 1102 1102
1275 1275 1275
1470 1470 1470
1656 1656 1656
1844 1845 1844
101 101 100
170 170 170
185 185 185
214 214 214
247 247 247
307 307 307
376 376 376
444 444 444
513 513 513
599 600 599
710 710 710
847 847 847
1012 1012 1012
1184 1184 1184
1369 1369 1369
1558 1558 1558
1778 1778 1778
271 271 271
279 279 279
293 293 293
326 326 326
370 370 370
418 418 418
480 480 480
547 547 547
619 619 619
691 691 691
767 767 767
847 847 847
949 949 949
1081 1081 1081
1250 1250 1250
1434 1434 1434
1591 1591 1591
462 462 462
434 434 434
455 455 455
477 477 477
528 528 528
577 577 577
634 634 634
694 694 694
764 764 764
837 837 837
905 905 905
976 976 976
1050 1050 1050
1133 1133 1133
1225 1225 1225
1340 1340 1340
1373 1373 1373
775 775 775
598 598 598
689 689 689
659 659 659
713 713 713
776 776 776
826 826 826
883 883 883
942 942 942
1005 1005 1005
1068 1068 1068
1130 1130 1130
1202 1202 1202
1277 1277 1277
1352 1352 1352
1436 1436 1436
1249 1249 1249
966 966 966
898 898 898
898 898 898
905 905 905
940 940 940
977 977 977
1030 1030 1030
1083 1083 1083
1134 1134 1134
1187 1187 1187
1242 1242 1242
1300 1300 1300
1362 1362 1362
1431 1431 1431
1506 1506 1506
1582 1582 1582
1305 1305 1305
966 966 966
898 898 898
898 898 898
1126 1126 1126
1186 1186 1186
1214 1214 1214
1234 1234 1234
1277 1277 1277
1328 1328 1328
1377 1377 1377
1420 1420 1420
1473 1473 1473
1523 1523 1523
1583 1583 1583
1651 1651 1651
1729 1729 1729
1467 1467 1467
966 966 966
1230 1230 1230
1230 1230 1230
1126 1126 1126
1425 1425 1425
1405 1405 1405
1447 1447 1447
1474 1474 1474
1508 1508 1508
1557 1557 1557
1595 1595 1595
1639 1639 1639
1684 1684 1684
1742 1742 1742
1806 1806 1806
1883 1883 1883
1677 1677 1677
966 966 966
1491 1491 1491
1491 1491 1491
1421 1421 1421
1405 1405 1405
1405 1405 1405
1565 1565 1565
1644 1644 1644
1678 1678 1678
1720 1720 1720
1768 1768 1768
1805 1805 1805
1848 1848 1848
1899 1899 1899
1955 1955 1955
2026 2026 2026
1893 1893 1893
966 966 966
1491 1491 1491
1491 1491 1491
1421 1421 1421
1565 1565 1565
1565 1565 1565
1565 1565 1565
1817 1817 1817
1817 1817 1817
1865 1865 1865
1910 1910 1910
1962 1962 1962
2002 2002 2002
2044 2044 2044
2087 2087 2087
2148 2148 2148
2088 2088 2088
966 966 966
1491 1491 1491
1491 1491 1491
1421 1421 1421
1565 1565 1565
1565 1565 1565
2017 2017 2017
1817 1817 1817
2006 2006 2006
2006 2006 2006
2035 2035 2035
2079 2079 2079
2119 2119 2119
2162 2162 2162
2208 2208 2208
2272 2272 2272
2270 2270 2270
966 966 966
1491 1491 1491
1491 1491 1491
1421 1421 1421
1565 1565 1565
2017 2017 2017
2017 2017 2017
2006 2006 2006
2006 2006 2006
2166 2166 2166
2166 2166 2166
2224 2224 2224
2240 2240 2240
2271 2271 2271
2339 2339 2339
2376 2376 2376
2459 2459 2459
1491 1491 1491
1491 1491 1491
1491 1491 1491
1565 1565 1565
1565 1565 1565
2017 2017 2017
2017 2017 2017
2006 2006 2006
2006 2006 2006
2166 2166 2166
2166 2166 2166
2224 2224 2224
2240 2240 2240
2271 2271 2271
2339 2339 2339
2376 2376 2376
2459 2459 2459
1491 1491 1491
1491 1491 1491
1491 1491 1491
1565 1565 1565
1565 1565 1565
2017 2017 2017
2017 2017 2017
2006 2006 2006
2006 2006 2006
2224 2224 2224
2166 2166 2166
2224 2224 2224
2240 2240 2240
2687 2687 2687
2687 2687 2687
2687 2687 2687
2459 2459 2459
1491 1491 1491
1491 1491 1491
1565 1565 1565
1565 1565 1565
1565 1565 1565
2017 2017 2017
2017 2017 2017
2006 2006 2006
2006 2006 2006
2224 2224 2224
2166 2166 2166
2224 2224 2224
2240 2240 2240
2687 2687 2687
2687 2687 2687
2687 2687 2687
2459 2459 2459
147 147 147
117 117 117
38 38 38
195 195 195
243 243 243
272 272 272
384 384 384
552 552 552
655 656 655
788 788 788
914 915 914
1050 1051 1050
1195 1196 1195
1353 1354 1353
1509 1510 1510
1666 1666 1666
1803 1804 1803
159 159 159
156 156 156
159 159 159
195 195 195
243 243 243
272 272 272
384 384 384
509 509 509
631 631 631
761 761 761
892 892 892
1036 1036 1036
1199 1199 1199
1376 1376 1376
1566 1566 1566
1730 1730 1730
1877 1878 1877
183 183 183
195 195 195
208 208 208
243 243 243
283 283 283
335 335 335
390 390 390
460 460 460
563 563 563
695 695 695
837 837 837
975 975 975
1130 1130 1130
1304 1304 1304
1490 1491 1490
1688 1688 1688
1913 1914 1913
214 214 213
257 257 257
273 273 273
296 296 296
337 337 337
391 391 391
448 448 448
510 510 510
572 572 572
649 649 649
753 753 753
891 891 891
1050 1050 1050
1217 1217 1217
1396 1396 1396
1586 1586 1586
1887 1888 1887
367 367 366
359 359 359
386 386 386
400 400 400
443 443 443
495 495 495
551 551 551
614 614 614
679 679 679
744 744 744
815 815 815
884 884 884
983 983 983
1111 1111 1111
1279 1279 1279
1467 1467 1467
1724 1725 1725
565 565 566
529 529 529
534 534 534
558 558 558
595 595 595
646 646 646
705 705 705
763 763 763
827 827 827
890 890 890
953 953 953
1015 1015 1015
1086 1086 1086
1160 1160 1160
1248 1248 1248
1364 1364 1364
1504 1504 1504
775 775 775
757 757 757
746 746 746
757 757 757
788 788 788
837 837 837
891 891 891
947 947 947
1002 1002 1002
1060 1060 1060
1114 1114 1114
1174 1174 1174
1236 1236 1236
1305 1305 1305
1377 1377 1377
1460 1460 1460
1334 1334 1334
966 966 966
942 942 942
978 978 978
995 995 995
1000 1000 1000
1043 1043 1043
1088 1088 1088
1141 1141 1141
1193 1193 1193
1242 1242 1242
1291 1291 1291
1344 1344 1344
1401 1401 1401
1458 1458 1458
1530 1530 1530
1605 1605 1605
1350 1350 1350
966 966 966
1230 1230 1230
1230 1230 1230
1217 1217 1217
1235 1235 1235
1253 1253 1253
1290 1290 1290
1332 1332 1332
1383 1383 1383
1425 1425 1425
1468 1468 1468
1516 1516 1516
1565 1565 1565
1618 1618 1618
1682 1682 1682
1754 1754 1754
1495 1495 1495
966 966 966
1230 1230 1230
1230 1230 1230
1421 1421 1421
1425 1425 1425
1460 1460 1460
1496 1496 1496
1521 1521 1521
1557 1557 1557
1605 1605 1605
1643 1643 1643
1679 1679 1679
1729 1729 1729
1777 1777 1777
1834 1834 1834
1907 1907 1907
1701 1701 1701
966 966 966
1491 1491 1491
1491 1491 1491
1421 1421 1421
1425 1425 1425
1630 1630 1630
1665 1665 1665
1697 1697 1697
1730 1730 1730
1765 1765 1765
1813 1813 1813
1845 1845 1845
1887 1887 1887
1932 1932 1932
1985 1985 1985
2051 2051 2051
1908 1908 1908
966 966 966
1491 1491 1491
1491 1491 1491
1648 1648 1648
1425 1425 1425
1630 1630 1630
1665 1665 1665
1853 1853 1853
1879 1879 1879
1909 1909 1909
1954 1954 1954
2003 2003 2003
2038 2038 2038
2073 2073 2073
2117 2117 2117
2172 2172 2172
2117 2117 2117
966 966 966
1491 1491 1491
1491 1491 1491
1648 1648 1648
2017 2017 2017
2017 2017 2017
2017 2017 2017
2004 2004 2004
1879 1879 1879
2021 2021 2021
2077 2077 2077
2119 2119 2119
2157 2157 2157
2195 2195 2195
2240 2240 2240
2300 2300 2300
2283 2283 2283
966 966 966
1491 1491 1491
1491 1491 1491
1648 1648 1648
1565 1565 1565
2017 2017 2017
2017 2017 2017
2004 2004 2004
2080 2080 2080
2021 2021 2021
2226 2226 2226
2242 2242 2242
2272 2272 2272
2319 2319 2319
2371 2371 2371
2417 2417 2417
2488 2488 2488
1230 1230 1230
1491 1491 1491
1491 1491 1491
1648 1648 1648
1657 1657 1657
2017 2017 2017
2017 2017 2017
2004 2004 2004
2080 2080 2080
2226 2226 2226
2226 2226 2226
2242 2242 2242
2272 2272 2272
2467 2467 2467
2371 2371 2371
2417 2417 2417
2488 2488 2488
1230 1230 1230
1491 1491 1491
1491 1491 1491
1648 1648 1648
1657 1657 1657
2017 2017 2017
2017 2017 2017
2004 2004 2004
2080 2080 2080
2226 2226 2226
2226 2226 2226
2242 2242 2242
2467 2467 2467
2467 2467 2467
2518 2518 2518
2518 2518 2518
2488 2488 2488
1230 1230 1230
1491 1491 1491
1491 1491 1491
1648 1648 1648
1657 1657 1657
2017 2017 2017
2017 2017 2017
2004 2004 2004
2080 2080 2080
2226 2226 2226
2226 2226 2226
2242 2242 2242
2467 2467 2467
2467 2467 2467
2518 2518 2518
2518 2518 2518
2488 2488 2488
287 287 287
284 284 284
324 324 324
324 324 324
397 397 397
473 473 473
714 714 714
714 714 714
767 767 767
882 882 882
997 998 997
1125 1126 1125
1268 1268 1268
1412 1413 1412
1565 1566 1565
1717 1718 1717
1849 1850 1849
301 301 301
284 284 284
324 324 324
324 324 324
397 397 397
473 473 473
514 514 514
621 621 621
729 729 729
843 843 843
963 963 963
1096 1096 1096
1251 1251 1251
1420 1420 1420
1602 1602 1602
1767 1767 1767
