Fujifilm XTrans III/Acros.3dl
#Created by: Affinity Photo (Serif Europe Ltd.)
0 128 256 384 512 639 767 895 1023
16 16 16
50 50 50
175 175 175
566 567 567
895 895 896
1203 1204 1204
1536 1536 1537
1885 1885 1885
2197 2197 2197
46 46 45
130 130 130
309 309 309
543 543 543
914 914 914
1245 1246 1246
1582 1582 1582
1920 1920 1920
2217 2218 2218
344 344 344
414 414 414
576 576 576
811 811 811
1100 1100 1100
1403 1403 1403
1721 1721 1721
2071 2071 2071
2337 2337 2337
547 547 547
823 823 823
995 995 995
1214 1214 1214
1460 1460 1460
1708 1708 1708
1959 1959 1959
2235 2235 2235
2478 2478 2478
1102 1102 1102
1134 1134 1134
1571 1571 1571
1652 1652 1652
1861 1861 1861
2065 2065 2065
2273 2273 2273
2507 2507 2507
2681 2681 2681
798 798 798
1571 1571 1571
1788 1788 1788
1867 1867 1867
2210 2210 2210
2398 2398 2398
2583 2583 2583
2784 2784 2784
2973 2973 2973
1571 1571 1571
1693 1693 1693
1788 1788 1788
2106 2106 2106
2434 2434 2434
2672 2672 2672
2843 2843 2843
3032 3032 3032
3245 3245 3245
1693 1693 1693
2016 2016 2016
2016 2016 2016
2406 2406 2406
2593 2593 2593
2831 2831 2831
2951 2951 2951
3389 3389 3389
3371 3371 3371
1693 1693 1693
2016 2016 2016
2016 2016 2016
2406 2406 2406
2593 2593 2593
2831 2831 2831
3389 3389 3389
3389 3389 3389
3389 3389 3389
61 61 61
64 64 64
346 346 346
676 676 676
1007 1007 1007
1308 1308 1308
1620 1621 1620
1952 1952 1952
2242 2242 2242
149 149 149
212 212 212
377 377 377
644 644 644
1060 1060 1060
1414 1414 1414
1757 1757 1757
2110 2110 2110
2351 2351 2351
400 400 400
442 442 442
616 616 616
891 891 891
1246 1246 1246
1623 1623 1623
1951 1951 1951
2285 2285 2285
2449 2449 2449
852 852 852
903 903 903
1037 1037 1037
1268 1268 1268
1556 1556 1556
1867 1867 1867
2158 2158 2158
2449 2449 2449
2619 2619 2619
1102 1102 1102
1464 1464 1464
1531 1531 1531
1684 1684 1684
1914 1914 1914
2153 2153 2153
2396 2396 2396
2664 2664 2664
2770 2770 2770
1102 1102 1102
1693 1693 1693
1741 1741 1741
2070 2070 2070
2248 2248 2248
2447 2447 2447
2651 2651 2651
2870 2870 2870
3037 3037 3037
1102 1102 1102
1693 1693 1693
2406 2406 2406
2406 2406 2406
2390 2390 2390
2709 2709 2709
2875 2875 2875
3077 3077 3077
3309 3309 3309
1464 1464 1464
1693 1693 1693
1945 1945 1945
2406 2406 2406
2557 2557 2557
2840 2840 2840
2990 2990 2990
3190 3190 3190
3433 3433 3433
1464 1464 1464
1693 1693 1693
1945 1945 1945
2406 2406 2406
2557 2557 2557
2840 2840 2840
3201 3201 3201
3271 3271 3271
3433 3433 3433
204 204 204
351 351 351
712 712 712
858 858 858
1173 1173 1173
1454 1454 1454
1760 1760 1760
2073 2073 2073
2337 2337 2337
311 311 311
396 396 396
559 559 559
841 841 841
1222 1222 1222
1547 1547 1547
1872 1872 1872
2209 2209 2209
2454 2454 2454
526 526 526
611 611 611
784 784 784
1059 1059 1059
1391 1391 1391
1736 1736 1736
2047 2047 2047
2365 2365 2365
2663 2663 2663
1015 1015 1015
1053 1053 1053
1192 1192 1192
1423 1423 1423
1689 1689 1689
1974 1974 1974
2243 2243 2243
2517 2517 2517
2866 2866 2866
1451 1451 1451
1499 1499 1499
1634 1634 1634
1806 1806 1806
2027 2027 2027
2244 2244 2244
2470 2470 2470
2725 2725 2725
3021 3021 3021
1451 1451 1451
1716 1716 1716
2030 2030 2030
2171 2171 2171
2339 2339 2339
2526 2526 2526
2719 2719 2719
2922 2922 2922
3153 3153 3153
1451 1451 1451
2210 2210 2210
2210 2210 2210
2462 2462 2462
2599 2599 2599
2771 2771 2771
2939 2939 2939
3124 3124 3124
3369 3369 3369
2210 2210 2210
2210 2210 2210
2477 2477 2477
2760 2760 2760
2771 2771 2771
2884 2884 2884
3173 3173 3173
3347 3347 3347
3491 3491 3491
2210 2210 2210
2477 2477 2477
2477 2477 2477
2760 2760 2760
2771 2771 2771
3173 3173 3173
3173 3173 3173
3347 3347 3347
3347 3347 3347
522 522 522
464 464 464
929 929 929
1094 1094 1094
1404 1404 1404
1668 1668 1668
1953 1953 1953
2240 2239 2239
2477 2477 2477
617 617 617
682 682 682
860 860 860
1118 1118 1118
1448 1448 1448
1742 1742 1742
2049 2049 2049
2365 2365 2365
2583 2583 2583
888 888 888
906 906 906
1062 1062 1062
1305 1305 1305
1603 1603 1603
1910 1910 1910
2186 2186 2186
2486 2486 2486
2775 2775 2775
1306 1306 1306
1316 1316 1316
1443 1443 1443
1637 1637 1637
1883 1883 1883
2128 2128 2128
2370 2370 2370
2633 2633 2633
2952 2952 2952
1734 1734 1734
1748 1748 1748
1850 1850 1850
2000 2000 2000
2188 2188 2188
2384 2384 2384
2594 2594 2594
2825 2825 2825
3106 3106 3106
1897 1897 1897
1941 1941 1941
2196 2196 2196
2330 2330 2330
2482 2482 2482
2658 2658 2658
2826 2826 2826
3012 3012 3012
3283 3283 3283
2174 2174 2174
2421 2421 2421
2564 2564 2564
2590 2590 2590
2731 2731 2731
2882 2882 2882
3037 3037 3037
3212 3212 3212
3455 3455 3455
2421 2421 2421
2421 2421 2421
2564 2564 2564
2760 2760 2760
2845 2845 2845
2996 2996 2996
3393 3393 3393
3402 3402 3402
3558 3558 3558
2421 2421 2421
2564 2564 2564
2564 2564 2564
2760 2760 2760
2845 2845 2845
2996 2996 2996
3393 3393 3393
3402 3402 3402
3402 3402 3402
710 710 710
1009 1009 1009
1254 1254 1254
1490 1490 1490
1670 1670 1670
1923 1923 1923
2183 2183 2183
2445 2445 2445
2659 2659 2659
941 941 941
1009 1009 1009
1175 1175 1175
1425 1425 1425
1710 1710 1710
1969 1969 1969
2254 2254 2254
2550 2550 2550
2746 2746 2746
1190 1190 1190
1230 1230 1230
1374 1374 1374
1592 1592 1592
1850 1850 1850
2106 2106 2106
2357 2357 2357
2639 2639 2639
2914 2914 2914
1526 1526 1526
1603 1603 1603
1714 1714 1714
1891 1891 1891
2101 2101 2101
2311 2311 2311
2532 2532 2532
2774 2774 2774
3061 3061 3061
1968 1968 1968
2004 2004 2004
2088 2088 2088
2214 2214 2214
2371 2371 2371
2554 2554 2554
2746 2746 2746
2940 2940 2940
3199 3199 3199
2439 2439 2439
2395 2395 2395
2414 2414 2414
2525 2525 2525
2657 2657 2657
2810 2810 2810
2951 2951 2951
3126 3126 3126
3381 3381 3381
2395 2395 2395
2664 2664 2664
2733 2733 2733
2782 2782 2782
2893 2893 2893
3017 3017 3017
3162 3162 3162
3319 3319 3319
3548 3548 3548
2664 2664 2664
2664 2664 2664
2733 2733 2733
2936 2936 2936
3018 3018 3018
3143 3143 3143
3420 3420 3420
3544 3544 3544
3549 3549 3549
2664 2664 2664
2664 2664 2664
2733 2733 2733
2936 2936 2936
3018 3018 3018
3420 3420 3420
3420 3420 3420
3544 3544 3544
3626 3626 3626
1316 1316 1316
1581 1581 1581
1560 1560 1560
1745 1745 1745
1957 1957 1957
2176 2176 2176
2421 2421 2421
2679 2679 2679
2860 2860 2860
1316 1316 1316
1389 1389 1389
1542 1542 1542
1750 1750 1750
1980 1980 1980
2204 2204 2204
2468 2468 2468
2749 2749 2749
2936 2936 2936
1552 1552 1552
1570 1570 1570
1702 1702 1702
1892 1892 1892
2101 2101 2101
2316 2316 2316
2545 2545 2545
2806 2806 2806
3064 3064 3064
1821 1821 1821
1899 1899 1899
2002 2002 2002
2142 2142 2142
2316 2316 2316
2505 2505 2505
2710 2710 2710
2914 2914 2914
3178 3178 3178
2166 2166 2166
2248 2248 2248
2319 2319 2319
2429 2429 2429
2573 2573 2573
2737 2737 2737
2891 2891 2891
3075 3075 3075
3320 3320 3320
2363 2363 2363
2553 2553 2553
2628 2628 2628
2728 2728 2728
2836 2836 2836
2957 2957 2957
3091 3091 3091
3250 3250 3250
3485 3485 3485
2439 2439 2439
2714 2714 2714
2813 2813 2813
2961 2961 2961
3060 3060 3060
3174 3174 3174
3296 3296 3296
3444 3444 3444
3669 3669 3669
2714 2714 2714
2813 2813 2813
2813 2813 2813
3087 3087 3087
3192 3192 3192
3295 3295 3295
3572 3572 3572
3680 3680 3680
3774 3774 3774
2813 2813 2813
2813 2813 2813
3087 3087 3087
3087 3087 3087
3192 3192 3192
3572 3572 3572
3572 3572 3572
3680 3680 3680
3807 3807 3807
1458 1458 1458
1716 1716 1716
1889 1889 1889
2029 2029 2029
2215 2215 2215
2429 2429 2429
2653 2653 2653
2883 2883 2883
3050 3050 3050
1660 1660 1660
1705 1705 1705
1846 1846 1846
2034 2034 2034
2230 2230 2230
2448 2448 2448
2677 2677 2677
2927 2927 2927
3115 3115 3115
1869 1869 1869
1870 1870 1870
2004 2004 2004
2157 2157 2157
2337 2337 2337
2531 2531 2531
2736 2736 2736
2962 2962 2962
3202 3202 3202
2099 2099 2099
2138 2138 2138
2253 2253 2253
2378 2378 2378
2530 2530 2530
2703 2703 2703
2878 2878 2878
3057 3057 3057
3291 3291 3291
2408 2408 2408
2435 2435 2435
2539 2539 2539
2644 2644 2644
2770 2770 2770
2900 2900 2900
3046 3046 3046
3208 3208 3208
3424 3424 3424
2721 2721 2721
2737 2737 2737
2823 2823 2823
2904 2904 2904
2999 2999 2999
3112 3112 3112
3236 3236 3236
3378 3378 3378
3581 3581 3581
2721 2721 2721
2895 2895 2895
3063 3063 3063
3133 3133 3133
3223 3223 3223
3322 3322 3322
3439 3439 3439
3559 3559 3559
3765 3765 3765
2721 2721 2721
3063 3063 3063
3063 3063 3063
3266 3266 3266
3351 3351 3351
3650 3650 3650
3553 3553 3553
3753 3753 3753
3886 3886 3886
3063 3063 3063
3063 3063 3063
3266 3266 3266
3266 3266 3266
3620 3620 3620
3650 3650 3650
3747 3747 3747
3753 3753 3753
3905 3905 3905
1705 1705 1705
1716 1716 1716
2038 2038 2038
2363 2363 2363
2467 2467 2467
2644 2644 2644
2841 2841 2841
3058 3058 3058
3299 3299 3299
1660 1660 1660
1980 1980 1980
1990 1990 1990
2236 2236 2236
2456 2456 2456
2658 2658 2658
2869 2869 2869
3090 3090 3090
3315 3315 3315
2054 2054 2054
2015 2015 2015
2294 2294 2294
2382 2382 2382
2548 2548 2548
2730 2730 2730
2906 2906 2906
3105 3105 3105
3332 3332 3332
2054 2054 2054
2257 2257 2257
2447 2447 2447
2579 2579 2579
2732 2732 2732
2883 2883 2883
3039 3039 3039
3204 3204 3204
3399 3399 3399
2408 2408 2408
2546 2546 2546
2741 2741 2741
2825 2825 2825
2933 2933 2933
3071 3071 3071
3204 3204 3204
3348 3348 3348
3548 3548 3548
2839 2839 2839
2961 2961 2961
2983 2983 2983
3067 3067 3067
3168 3168 3168
3275 3275 3275
3399 3399 3399
3526 3526 3526
3712 3712 3712
2839 2839 2839
3083 3083 3083
3228 3228 3228
3309 3309 3309
3404 3404 3404
3491 3491 3491
3591 3591 3591
3699 3699 3699
3888 3888 3888
3083 3083 3083
3162 3162 3162
3419 3419 3419
3436 3436 3436
3620 3620 3620
3719 3719 3719
3802 3802 3802
3900 3900 3900
4053 4053 4053
3162 3162 3162
3228 3228 3228
3419 3419 3419
3620 3620 3620
3620 3620 3620
3719 3719 3719
3802 3802 3802
3900 3900 3900
4053 4053 4053
1705 1705 1705
2165 2165 2165
2263 2263 2263
2363 2363 2363
2591 2591 2591
2852 2852 2852
2976 2976 2976
3069 3069 3069
3299 3299 3299
2015 2015 2015
2165 2165 2165
2165 2165 2165
2481 2481 2481
2532 2532 2532
2764 2764 2764
2985 2985 2985
3063 3063 3063
3315 3315 3315
2054 2054 2054
2294 2294 2294
2399 2399 2399
2445 2445 2445
2675 2675 2675
2825 2825 2825
2999 2999 2999
3162 3162 3162
3332 3332 3332
2054 2054 2054
2573 2573 2573
2526 2526 2526
2679 2679 2679
2832 2832 2832
2971 2971 2971
3124 3124 3124
3204 3204 3204
3440 3440 3440
2546 2546 2546
2710 2710 2710
2742 2742 2742
2925 2925 2925
3037 3037 3037
3167 3167 3167
3299 3299 3299
3532 3532 3532
3532 3532 3532
2839 2839 2839
3152 3152 3152
3152 3152 3152
3163 3163 3163
3257 3257 3257
3377 3377 3377
3491 3491 3491
3654 3654 3654
3730 3730 3730
3083 3083 3083
3083 3083 3083
3382 3382 3382
3422 3422 3422
3637 3637 3637
3742 3742 3742
3854 3854 3854
3899 3899 3899
3939 3939 3939
3083 3083 3083
3228 3228 3228
3382 3382 3382
3532 3532 3532
3716 3716 3716
3939 3939 3939
3973 3973 3973
4073 4073 4073
4074 4074 4074
3228 3228 3228
3419 3419 3419
3419 3419 3419
3716 3716 3716
3716 3716 3716
3939 3939 3939
3973 3973 3973
4073 4073 4073
4074 4074 4074
