Fujifilm XTrans III/Acros+G.3dl
#Created by: Affinity Photo (Serif Europe Ltd.)
0 256 512 767 1023
16 16 16
204 204 204
846 846 846
1363 1363 1363
1926 1926 1927
438 438 438
664 664 664
1186 1186 1186
1781 1781 1781
2262 2262 2262
1245 1245 1245
1754 1754 1754
2012 2012 2012
2405 2405 2405
2825 2825 2825
1754 1754 1754
1987 1987 1987
2619 2619 2619
2998 2998 2998
3361 3361 3361
1881 1881 1881
2212 2212 2212
2803 2803 2803
3534 3534 3534
3534 3534 3534
119 119 119
593 593 593
1069 1069 1069
1572 1572 1572
2077 2077 2077
509 509 509
784 784 784
1405 1405 1405
2053 2053 2053
2567 2567 2567
1594 1594 1594
1780 1780 1780
2128 2128 2128
2538 2538 2538
3056 3056 3056
1594 1594 1594
2429 2429 2429
2802 2802 2802
3079 3079 3079
3452 3452 3452
2429 2429 2429
2706 2706 2706
2970 2970 2970
3349 3349 3349
3491 3491 3491
555 555 555
1017 1017 1017
1483 1483 1483
1972 1972 1972
2398 2398 2398
994 994 994
1161 1161 1161
1736 1736 1736
2303 2303 2303
2794 2794 2794
1906 1906 1906
2066 2066 2066
2370 2370 2370
2755 2755 2755
3207 3207 3207
2431 2431 2431
2846 2846 2846
2991 2991 2991
3243 3243 3243
3592 3592 3592
2697 2697 2697
2846 2846 2846
3155 3155 3155
3535 3535 3535
3703 3703 3703
1114 1114 1114
1411 1411 1411
1833 1833 1833
2401 2401 2401
2778 2778 2778
1530 1530 1530
1605 1605 1605
2018 2018 2018
2563 2563 2563
3036 3036 3036
2167 2167 2167
2277 2277 2277
2603 2603 2603
2966 2966 2966
3388 3388 3388
2489 2489 2489
3002 3002 3002
3198 3198 3198
3435 3435 3435
3765 3765 3765
3002 3002 3002
3249 3249 3249
3592 3592 3592
3753 3753 3753
3918 3918 3918
1295 1295 1295
1686 1686 1686
2030 2030 2030
2678 2678 2678
3053 3053 3053
1693 1693 1693
1916 1916 1916
2163 2163 2163
2735 2735 2735
3188 3188 3188
2264 2264 2264
2310 2310 2310
2719 2719 2719
3120 3120 3120
3421 3421 3421
2830 2830 2830
3185 3185 3185
3444 3444 3444
3756 3756 3756
3908 3908 3908
3074 3074 3074
3301 3301 3301
3639 3639 3639
3926 3926 3926
4070 4070 4070
