Fujifilm XTrans III/Acros+R.3dl
#Created by: Affinity Photo (Serif Europe Ltd.)
0 128 256 384 512 639 767 895 1023
16 16 16
17 17 17
0 0 0
177 179 179
485 486 485
768 769 769
1098 1099 1098
1441 1442 1442
1752 1753 1752
32 32 32
35 35 35
93 93 93
186 186 186
384 384 384
674 675 675
1021 1021 1021
1400 1401 1401
1744 1745 1744
187 187 188
199 199 199
305 305 305
413 413 413
513 513 513
613 613 613
772 772 772
1062 1063 1063
1443 1443 1443
373 373 373
563 563 563
665 665 665
769 769 769
853 853 853
927 927 927
1000 1000 1000
1092 1092 1092
1185 1185 1185
966 966 966
898 898 898
1213 1213 1213
1201 1201 1201
1268 1268 1268
1315 1315 1315
1362 1362 1362
1433 1433 1433
1449 1449 1449
591 591 591
1213 1213 1213
1364 1364 1364
1412 1412 1412
1643 1643 1643
1707 1707 1707
1746 1746 1746
1806 1806 1806
1872 1872 1872
1213 1213 1213
1491 1491 1491
1364 1364 1364
1593 1593 1593
1829 1829 1829
2005 2005 2005
2079 2079 2079
2142 2142 2142
2232 2232 2232
1491 1491 1491
1565 1565 1565
1565 1565 1565
2017 2017 2017
2006 2006 2006
2166 2166 2166
2192 2192 2192
2687 2687 2687
2395 2395 2395
1491 1491 1491
1565 1565 1565
1565 1565 1565
2017 2017 2017
2006 2006 2006
2166 2166 2166
2687 2687 2687
2687 2687 2687
2687 2687 2687
147 147 147
38 38 38
243 243 243
384 384 384
655 656 655
914 915 914
1195 1196 1195
1509 1510 1510
1803 1804 1803
183 183 183
208 208 208
283 283 283
390 390 390
563 563 563
837 837 837
1130 1130 1130
1490 1491 1490
1913 1914 1913
367 367 366
386 386 386
443 443 443
551 551 551
679 679 679
815 815 815
983 983 983
1279 1279 1279
1724 1725 1725
775 775 775
746 746 746
788 788 788
891 891 891
1002 1002 1002
1114 1114 1114
1236 1236 1236
1377 1377 1377
1334 1334 1334
966 966 966
1230 1230 1230
1235 1235 1235
1290 1290 1290
1383 1383 1383
1468 1468 1468
1565 1565 1565
1682 1682 1682
1495 1495 1495
966 966 966
1491 1491 1491
1425 1425 1425
1665 1665 1665
1730 1730 1730
1813 1813 1813
1887 1887 1887
1985 1985 1985
1908 1908 1908
966 966 966
1491 1491 1491
2017 2017 2017
2017 2017 2017
1879 1879 1879
2077 2077 2077
2157 2157 2157
2240 2240 2240
2283 2283 2283
1230 1230 1230
1491 1491 1491
1657 1657 1657
2017 2017 2017
2080 2080 2080
2226 2226 2226
2272 2272 2272
2371 2371 2371
2488 2488 2488
1230 1230 1230
1491 1491 1491
1657 1657 1657
2017 2017 2017
2080 2080 2080
2226 2226 2226
2467 2467 2467
2518 2518 2518
2488 2488 2488
489 489 489
545 545 545
989 989 989
741 741 741
916 916 916
1108 1108 1108
1353 1354 1353
1645 1646 1645
1918 1919 1918
563 563 563
551 551 551
614 614 614
717 717 717
849 849 849
1025 1025 1025
1273 1273 1273
1602 1602 1602
2020 2020 2020
686 686 686
715 715 715
784 784 784
892 892 892
1001 1001 1001
1114 1114 1114
1218 1218 1218
1426 1426 1426
1868 1868 1868
1026 1026 1026
1021 1021 1021
1088 1088 1088
1193 1193 1193
1293 1293 1293
1385 1385 1385
1466 1466 1466
1559 1559 1559
1708 1708 1708
1352 1352 1352
1363 1363 1363
1447 1447 1447
1525 1525 1525
1620 1620 1620
1691 1691 1691
1764 1764 1764
1848 1848 1848
1970 1970 1970
1352 1352 1352
1550 1550 1550
1802 1802 1802
1862 1862 1862
1924 1924 1924
2005 2005 2005
2062 2062 2062
2136 2136 2136
2056 2056 2056
1352 1352 1352
1945 1945 1945
1945 1945 1945
2116 2116 2116
2170 2170 2170
2236 2236 2236
2312 2312 2312
2374 2374 2374
2443 2443 2443
1945 1945 1945
1945 1945 1945
2201 2201 2201
2413 2413 2413
2314 2314 2314
2361 2361 2361
2527 2527 2527
2599 2599 2599
2611 2611 2611
1945 1945 1945
2201 2201 2201
2201 2201 2201
2413 2413 2413
2314 2314 2314
2527 2527 2527
2527 2527 2527
2599 2599 2599
2599 2599 2599
1059 1059 1058
748 748 748
1144 1144 1144
1233 1233 1233
1329 1329 1329
1423 1423 1423
1613 1613 1613
1867 1868 1868
2109 2109 2109
1137 1137 1137
1116 1116 1116
1191 1191 1191
1276 1276 1276
1371 1371 1371
1414 1414 1414
1558 1558 1558
1813 1813 1813
2190 2190 2190
1320 1320 1320
1255 1255 1255
1314 1314 1314
1406 1406 1406
1500 1500 1500
1584 1584 1584
1644 1644 1644
1727 1727 1727
2057 2057 2057
1536 1536 1536
1494 1494 1494
1550 1550 1550
1636 1636 1636
1726 1726 1726
1799 1799 1799
1858 1858 1858
1928 1928 1928
2032 2032 2032
1794 1794 1794
1791 1791 1791
1836 1836 1836
1905 1905 1905
1985 1985 1985
2041 2041 2041
2095 2095 2095
2157 2157 2157
2262 2262 2262
1917 1917 1917
1933 1933 1933
2095 2095 2095
2165 2165 2165
2231 2231 2231
2299 2299 2299
2340 2340 2340
2400 2400 2400
2512 2512 2512
2166 2166 2166
2354 2354 2354
2377 2377 2377
2349 2349 2349
2418 2418 2418
2489 2489 2489
2566 2566 2566
2617 2617 2617
2726 2726 2726
2354 2354 2354
2354 2354 2354
2377 2377 2377
2413 2413 2413
2498 2498 2498
2592 2592 2592
2954 2954 2954
2835 2835 2835
2821 2821 2821
2354 2354 2354
2377 2377 2377
2377 2377 2377
2413 2413 2413
2498 2498 2498
2592 2592 2592
2954 2954 2954
2835 2835 2835
2835 2835 2835
1365 1365 1365
1703 1703 1703
1763 1763 1763
1846 1846 1846
1904 1904 1904
1911 1911 1911
2001 2001 2001
2184 2184 2184
2377 2378 2377
1677 1677 1677
1703 1703 1703
1795 1795 1795
1859 1859 1859
1938 1938 1938
1954 1954 1954
2004 2004 2004
2150 2150 2150
2428 2429 2428
1825 1825 1825
1815 1815 1815
1862 1862 1862
1946 1946 1946
2024 2024 2024
2084 2084 2084
2125 2125 2125
2179 2179 2179
2352 2352 2352
2039 2039 2039
1991 1991 1991
2041 2041 2041
2110 2110 2110
2182 2182 2182
2233 2233 2233
2277 2277 2277
2330 2330 2330
2413 2413 2413
2260 2260 2260
2219 2219 2219
2256 2256 2256
2310 2310 2310
2367 2367 2367
2422 2422 2422
2462 2462 2462
2516 2516 2516
2614 2614 2614
2617 2617 2617
2504 2504 2504
2471 2471 2471
2525 2525 2525
2574 2574 2574
2632 2632 2632
2670 2670 2670
2720 2720 2720
2823 2823 2823
2504 2504 2504
2797 2797 2797
2676 2676 2676
2698 2698 2698
2756 2756 2756
2800 2800 2800
2859 2859 2859
2901 2901 2901
2998 2998 2998
2797 2797 2797
2797 2797 2797
2676 2676 2676
2759 2759 2759
2820 2820 2820
2899 2899 2899
3055 3055 3055
3097 3097 3097
3046 3046 3046
2797 2797 2797
2797 2797 2797
2676 2676 2676
2759 2759 2759
2820 2820 2820
3055 3055 3055
3055 3055 3055
3097 3097 3097
3199 3199 3199
2229 2229 2229
2566 2566 2566
2418 2418 2418
2409 2409 2409
2460 2460 2460
2460 2460 2460
2480 2480 2480
2574 2575 2574
2700 2700 2700
2229 2229 2229
2259 2259 2259
2327 2327 2327
2398 2398 2398
2451 2451 2451
2482 2482 2482
2516 2516 2516
2581 2581 2581
2734 2734 2734
2342 2342 2342
2330 2330 2330
2383 2383 2383
2452 2452 2452
2506 2506 2506
2555 2555 2555
2591 2591 2591
2643 2643 2643
2732 2732 2732
2479 2479 2479
2463 2463 2463
2508 2508 2508
2562 2562 2562
2621 2621 2621
2668 2668 2668
2704 2704 2704
2751 2751 2751
2824 2824 2824
2651 2651 2651
2638 2638 2638
2671 2671 2671
2717 2717 2717
2762 2762 2762
2806 2806 2806
2836 2836 2836
2879 2879 2879
2969 2969 2969
2751 2751 2751
2819 2819 2819
2835 2835 2835
2875 2875 2875
2913 2913 2913
2954 2954 2954
2988 2988 2988
3031 3031 3031
3135 3135 3135
2617 2617 2617
2895 2895 2895
2901 2901 2901
3035 3035 3035
3076 3076 3076
3111 3111 3111
3146 3146 3146
3193 3193 3193
3297 3297 3297
2895 2895 2895
2901 2901 2901
2901 2901 2901
3102 3102 3102
3176 3176 3176
3198 3198 3198
3380 3380 3380
3385 3385 3385
3397 3397 3397
2901 2901 2901
2901 2901 2901
3102 3102 3102
3102 3102 3102
3176 3176 3176
3380 3380 3380
3380 3380 3380
3385 3385 3385
3532 3532 3532
2409 2409 2409
2706 2706 2706
2776 2776 2776
2869 2869 2869
2917 2917 2917
2936 2936 2936
2954 2954 2954
2978 2978 2978
3014 3014 3014
2644 2644 2644
2684 2684 2684
2767 2767 2767
2854 2854 2854
2902 2902 2902
2946 2946 2946
2977 2977 2977
3006 3006 3006
3027 3027 3027
2762 2762 2762
2750 2750 2750
2838 2838 2838
2891 2891 2891
2938 2938 2938
2974 2974 2974
3006 3006 3006
3049 3049 3049
3057 3057 3057
2817 2817 2817
2842 2842 2842
2927 2927 2927
2972 2972 2972
3012 3012 3012
3042 3042 3042
3077 3077 3077
3107 3107 3107
3149 3149 3149
2949 2949 2949
2952 2952 2952
3033 3033 3033
3072 3072 3072
3109 3109 3109
3145 3145 3145
3176 3176 3176
3203 3203 3203
3264 3264 3264
3150 3150 3150
3090 3090 3090
3150 3150 3150
3197 3197 3197
3230 3230 3230
3263 3263 3263
3295 3295 3295
3325 3325 3325
3401 3401 3401
3150 3150 3150
3198 3198 3198
3305 3305 3305
3339 3339 3339
3376 3376 3376
3407 3407 3407
3443 3443 3443
3481 3481 3481
3572 3572 3572
3150 3150 3150
3305 3305 3305
3305 3305 3305
3449 3449 3449
3478 3478 3478
3749 3749 3749
3529 3529 3529
3603 3603 3603
3692 3692 3692
3305 3305 3305
3305 3305 3305
3449 3449 3449
3449 3449 3449
3796 3796 3796
3749 3749 3749
3782 3782 3782
3603 3603 3603
3811 3811 3811
2684 2684 2684
2706 2706 2706
2977 2977 2977
3277 3277 3277
3267 3267 3267
3291 3291 3291
3311 3311 3311
3326 3326 3326
3374 3374 3374
2644 2644 2644
2944 2944 2944
2958 2958 2958
3199 3199 3199
3260 3260 3260
3296 3296 3296
3335 3335 3335
3365 3365 3365
3410 3410 3410
2961 2961 2961
2943 2943 2943
3219 3219 3219
3227 3227 3227
3276 3276 3276
3319 3319 3319
3360 3360 3360
3391 3391 3391
3434 3434 3434
2961 2961 2961
3016 3016 3016
3236 3236 3236
3297 3297 3297
3343 3343 3343
3385 3385 3385
3413 3413 3413
3442 3442 3442
3507 3507 3507
2949 2949 2949
3141 3141 3141
3356 3356 3356
3388 3388 3388
3423 3423 3423
3467 3467 3467
3496 3496 3496
3524 3524 3524
3606 3606 3606
3251 3251 3251
3430 3430 3430
3458 3458 3458
3491 3491 3491
3536 3536 3536
3566 3566 3566
3602 3602 3602
3630 3630 3630
3708 3708 3708
3251 3251 3251
3540 3540 3540
3573 3573 3573
3613 3613 3613
3660 3660 3660
3685 3685 3685
3710 3710 3710
3740 3740 3740
3839 3839 3839
3540 3540 3540
3465 3465 3465
3720 3720 3720
3705 3705 3705
3796 3796 3796
3864 3864 3864
3884 3884 3884
3919 3919 3919
4014 4014 4014
3465 3465 3465
3573 3573 3573
3720 3720 3720
3796 3796 3796
3796 3796 3796
3864 3864 3864
3884 3884 3884
3919 3919 3919
4014 4014 4014
2684 2684 2684
3148 3148 3148
3265 3265 3265
3277 3277 3277
3485 3485 3485
3506 3506 3506
3496 3496 3496
3533 3533 3533
3374 3374 3374
2943 2943 2943
3148 3148 3148
3148 3148 3148
3405 3405 3405
3437 3437 3437
3482 3482 3482
3555 3555 3555
3526 3526 3526
3410 3410 3410
2961 2961 2961
3219 3219 3219
3355 3355 3355
3399 3399 3399
3448 3448 3448
3500 3500 3500
3539 3539 3539
3561 3561 3561
3434 3434 3434
2961 2961 2961
3280 3280 3280
3449 3449 3449
3475 3475 3475
3519 3519 3519
3561 3561 3561
3575 3575 3575
3602 3602 3602
3667 3667 3667
3141 3141 3141
3342 3342 3342
3499 3499 3499
3555 3555 3555
3600 3600 3600
3638 3638 3638
3679 3679 3679
3727 3727 3727
3727 3727 3727
3251 3251 3251
3679 3679 3679
3679 3679 3679
3658 3658 3658
3695 3695 3695
3732 3732 3732
3771 3771 3771
3829 3829 3829
3854 3854 3854
3540 3540 3540
3540 3540 3540
3749 3749 3749
3774 3774 3774
3963 3963 3963
4007 4007 4007
4052 4052 4052
4071 4071 4071
3960 3960 3960
3540 3540 3540
3573 3573 3573
3749 3749 3749
3833 3833 3833
3938 3938 3938
4080 4080 4080
4095 4095 4095
4095 4095 4095
4053 4053 4053
3573 3573 3573
3720 3720 3720
3720 3720 3720
3938 3938 3938
3938 3938 3938
4080 4080 4080
4095 4095 4095
4095 4095 4095
4053 4053 4053
