Fujifilm XTrans III/Acros+G.3dl
#Created by: Affinity Photo (Serif Europe Ltd.)
0 64 128 192 256 320 384 448 512 575 639 703 767 831 895 959 1023
16 16 16
32 32 32
53 53 53
96 96 96
204 204 204
373 373 373
570 570 571
729 729 729
846 846 846
968 967 968
1095 1095 1095
1225 1225 1226
1363 1363 1363
1504 1504 1504
1650 1650 1650
1797 1797 1797
1926 1926 1927
33 33 32
58 58 58
84 84 84
108 108 108
239 239 239
407 407 407
563 563 563
730 730 730
860 860 860
986 986 986
1111 1111 1111
1242 1242 1242
1379 1379 1379
1525 1525 1525
1671 1670 1671
1815 1815 1815
1941 1941 1941
72 72 72
124 124 124
161 161 161
237 237 237
347 347 347
457 457 457
591 591 591
759 759 759
931 931 931
1074 1074 1074
1200 1200 1200
1330 1330 1330
1461 1461 1461
1590 1590 1590
1720 1720 1720
1847 1847 1847
1962 1962 1962
173 173 173
235 235 235
288 288 288
376 376 376
466 466 466
576 576 576
714 714 714
866 866 866
1029 1029 1029
1198 1198 1198
1347 1347 1347
1481 1481 1481
1621 1621 1621
1753 1753 1753
1880 1880 1880
1988 1988 1988
2073 2073 2073
438 438 438
408 408 408
500 500 500
559 559 559
664 664 664
772 772 772
897 897 897
1040 1040 1040
1186 1186 1186
1333 1333 1333
1488 1488 1488
1638 1638 1638
1781 1781 1781
1924 1924 1924
2070 2071 2071
2184 2185 2185
2262 2262 2262
653 653 653
655 655 655
709 709 709
763 763 763
873 873 873
994 994 994
1111 1111 1111
1236 1236 1236
1374 1374 1374
1510 1510 1510
1648 1648 1648
1785 1785 1785
1927 1927 1927
2070 2070 2070
2222 2222 2222
2356 2356 2356
2450 2450 2450
653 653 653
927 927 927
955 955 955
1088 1088 1088
1121 1121 1121
1217 1217 1217
1339 1339 1339
1460 1460 1460
1578 1578 1578
1700 1700 1700
1827 1827 1827
1952 1952 1952
2081 2081 2081
2212 2212 2212
2352 2352 2352
2479 2479 2479
2582 2582 2582
927 927 927
927 927 927
1292 1292 1292
1088 1088 1088
1380 1380 1380
1460 1460 1460
1572 1572 1572
1682 1682 1682
1791 1791 1791
1904 1904 1904
2016 2016 2016
2126 2126 2126
2243 2243 2243
2364 2364 2364
2492 2492 2492
2607 2607 2607
2694 2694 2694
1245 1245 1245
1292 1292 1292
1292 1292 1292
1627 1627 1627
1754 1754 1754
1764 1764 1764
1820 1820 1820
1909 1909 1909
2012 2012 2012
2105 2105 2105
2203 2203 2203
2302 2302 2302
2405 2405 2405
2517 2517 2517
2635 2635 2635
2743 2743 2743
2825 2825 2825
927 927 927
1656 1656 1656
1754 1754 1754
1754 1754 1754
1754 1754 1754
1987 1987 1987
2050 2050 2050
2131 2131 2131
2211 2211 2211
2298 2298 2298
2383 2383 2383
2474 2474 2474
2569 2569 2569
2667 2667 2667
2773 2773 2773
2881 2881 2881
2964 2964 2964
927 927 927
1656 1656 1656
1754 1754 1754
1754 1754 1754
1987 1987 1987
1987 1987 1987
2050 2050 2050
2288 2288 2288
2385 2385 2385
2468 2468 2468
2558 2558 2558
2643 2643 2643
2727 2727 2727
2813 2813 2813
2912 2912 2912
3016 3016 3016
3100 3100 3100
1754 1754 1754
1881 1881 1881
1881 1881 1881
1987 1987 1987
1987 1987 1987
1987 1987 1987
2288 2288 2288
2288 2288 2288
2619 2619 2619
2619 2619 2619
2708 2708 2708
2794 2794 2794
2868 2868 2868
2949 2949 2949
3037 3037 3037
3136 3136 3136
3225 3225 3225
1754 1754 1754
1881 1881 1881
1881 1881 1881
1987 1987 1987
1987 1987 1987
2288 2288 2288
2288 2288 2288
2564 2564 2564
2619 2619 2619
2619 2619 2619
2859 2859 2859
2926 2926 2926
2998 2998 2998
3078 3078 3078
3169 3169 3169
3269 3269 3269
3361 3361 3361
1754 1754 1754
1881 1881 1881
1881 1881 1881
2212 2212 2212
1987 1987 1987
2656 2656 2656
2656 2656 2656
2564 2564 2564
2803 2803 2803
3031 3031 3031
3031 3031 3031
3152 3152 3152
3132 3132 3132
3212 3212 3212
3312 3312 3312
3401 3401 3401
3484 3484 3484
1881 1881 1881
1881 1881 1881
2212 2212 2212
2212 2212 2212
2212 2212 2212
2656 2656 2656
2656 2656 2656
2564 2564 2564
2803 2803 2803
3031 3031 3031
3031 3031 3031
3152 3152 3152
3132 3132 3132
3212 3212 3212
3534 3534 3534
3534 3534 3534
3484 3484 3484
1881 1881 1881
1881 1881 1881
2212 2212 2212
2212 2212 2212
2212 2212 2212
2656 2656 2656
2656 2656 2656
2803 2803 2803
2803 2803 2803
3152 3152 3152
3031 3031 3031
3152 3152 3152
3132 3132 3132
3534 3534 3534
3534 3534 3534
3534 3534 3534
3484 3484 3484
1881 1881 1881
1881 1881 1881
2212 2212 2212
2212 2212 2212
2212 2212 2212
2656 2656 2656
2656 2656 2656
2803 2803 2803
2803 2803 2803
3152 3152 3152
3031 3031 3031
3152 3152 3152
3534 3534 3534
3534 3534 3534
3534 3534 3534
3534 3534 3534
3534 3534 3534
28 28 28
42 42 42
64 64 64
96 96 96
204 204 204
444 444 444
617 617 617
786 786 786
896 896 896
1023 1023 1023
1148 1147 1148
1272 1272 1272
1406 1406 1406
1550 1549 1550
1693 1692 1693
1834 1834 1834
1956 1955 1956
48 48 48
69 69 69
107 107 107
176 176 176
339 339 339
444 444 444
617 617 617
811 811 811
949 949 949
1079 1079 1079
1218 1218 1218
1359 1359 1359
1502 1502 1502
1660 1660 1660
1817 1817 1817
1955 1955 1955
2004 2004 2004
82 82 81
140 140 140
177 177 177
255 255 255
350 350 350
476 476 476
629 629 629
821 821 821
1021 1021 1021
1192 1192 1192
1325 1325 1325
1476 1476 1476
1634 1634 1634
1779 1779 1779
1929 1929 1929
2062 2062 2062
2028 2028 2028
185 185 185
247 247 247
293 293 293
365 365 365
452 452 452
580 580 580
738 738 738
919 919 919
1109 1109 1109
1315 1315 1315
1488 1488 1488
1626 1626 1626
1781 1781 1781
1943 1943 1943
2086 2086 2086
2212 2212 2212
2100 2100 2100
414 414 414
425 425 425
474 474 474
556 556 556
650 650 650
767 767 767
913 913 913
1081 1081 1081
1264 1264 1264
1446 1446 1446
1628 1628 1628
1797 1797 1797
1949 1949 1949
2098 2098 2098
2248 2248 2248
2383 2383 2383
2284 2284 2284
631 631 631
664 664 664
724 724 724
794 794 794
885 885 885
994 994 994
1122 1122 1122
1268 1268 1268
1436 1436 1436
1604 1604 1604
1763 1763 1763
1925 1925 1925
2075 2075 2075
2231 2231 2231
2382 2382 2382
2528 2528 2528
2488 2488 2488
954 954 954
884 884 884
1037 1037 1037
1029 1029 1029
1118 1118 1118
1236 1236 1236
1352 1352 1352
1479 1479 1479
1615 1615 1615
1767 1767 1767
1920 1920 1920
2059 2059 2059
2200 2200 2200
2340 2340 2340
2482 2482 2482
2632 2632 2632
2639 2639 2639
1245 1245 1245
1292 1292 1292
1292 1292 1292
1339 1339 1339
1398 1398 1398
1474 1474 1474
1584 1584 1584
1700 1700 1700
1821 1821 1821
1948 1948 1948
2077 2077 2077
2204 2204 2204
2328 2328 2328
2461 2461 2461
2602 2602 2602
2737 2737 2737
2745 2745 2745
1245 1245 1245
1292 1292 1292
1292 1292 1292
1627 1627 1627
1693 1693 1693
1757 1757 1757
1824 1824 1824
1923 1923 1923
2029 2029 2029
2135 2135 2135
2241 2241 2241
2355 2355 2355
2466 2466 2466
2588 2588 2588
2717 2717 2717
2841 2841 2841
2869 2869 2869
1245 1245 1245
1656 1656 1656
1656 1656 1656
1627 1627 1627
1937 1937 1937
1981 1981 1981
2069 2069 2069
2133 2133 2133
2221 2221 2221
2320 2320 2320
2412 2412 2412
2511 2511 2511
2614 2614 2614
2724 2724 2724
2835 2835 2835
2949 2949 2949
3006 3006 3006
1245 1245 1245
1881 1881 1881
1881 1881 1881
1906 1906 1906
1981 1981 1981
1981 1981 1981
2212 2212 2212
2318 2318 2318
2393 2393 2393
2485 2485 2485
2581 2581 2581
2671 2671 2671
2760 2760 2760
2849 2849 2849
2947 2947 2947
3062 3062 3062
3139 3139 3139
1245 1245 1245
1881 1881 1881
1881 1881 1881
1906 1906 1906
2212 2212 2212
2212 2212 2212
2212 2212 2212
2564 2564 2564
2564 2564 2564
2637 2637 2637
2725 2725 2725
2816 2816 2816
2895 2895 2895
2977 2977 2977
3061 3061 3061
3166 3166 3166
3259 3259 3259
1245 1245 1245
1881 1881 1881
1881 1881 1881
1906 1906 1906
2212 2212 2212
2212 2212 2212
2656 2656 2656
2564 2564 2564
2803 2803 2803
2803 2803 2803
2874 2874 2874
2936 2936 2936
3007 3007 3007
3095 3095 3095
3191 3191 3191
3298 3298 3298
3395 3395 3395
1245 1245 1245
1881 1881 1881
1881 1881 1881
1906 1906 1906
2212 2212 2212
2656 2656 2656
2656 2656 2656
2803 2803 2803
2803 2803 2803
3031 3031 3031
3031 3031 3031
3102 3102 3102
3149 3149 3149
3216 3216 3216
3324 3324 3324
3396 3396 3396
3519 3519 3519
1881 1881 1881
1881 1881 1881
1881 1881 1881
2212 2212 2212
2212 2212 2212
2656 2656 2656
2656 2656 2656
2803 2803 2803
2803 2803 2803
3031 3031 3031
3031 3031 3031
3102 3102 3102
3149 3149 3149
3216 3216 3216
3324 3324 3324
3396 3396 3396
3519 3519 3519
1881 1881 1881
1881 1881 1881
1881 1881 1881
2212 2212 2212
2212 2212 2212
2656 2656 2656
2656 2656 2656
2803 2803 2803
2803 2803 2803
3102 3102 3102
3031 3031 3031
3102 3102 3102
3149 3149 3149
3534 3534 3534
3534 3534 3534
3534 3534 3534
3519 3519 3519
1881 1881 1881
1881 1881 1881
2212 2212 2212
2212 2212 2212
2212 2212 2212
2656 2656 2656
2656 2656 2656
2803 2803 2803
2803 2803 2803
3102 3102 3102
3031 3031 3031
3102 3102 3102
3149 3149 3149
3534 3534 3534
3534 3534 3534
3534 3534 3534
3519 3519 3519
41 41 40
55 55 55
64 64 64
218 218 218
346 346 346
463 463 463
672 672 672
843 843 843
931 931 931
1059 1059 1059
1181 1181 1181
1309 1308 1309
1441 1440 1441
1581 1581 1581
1720 1720 1720
1858 1858 1858
1977 1976 1977
70 70 70
99 99 99
146 146 146
218 218 218
346 346 346
463 463 463
672 672 672
852 852 852
987 987 987
1117 1116 1117
1253 1253 1253
1393 1393 1393
1542 1542 1542
1699 1699 1699
1850 1849 1850
1983 1983 1983
2043 2043 2043
151 151 151
181 181 181
214 214 214
292 292 292
387 387 387
509 509 509
662 662 662
855 855 855
1053 1053 1053
1227 1227 1227
1365 1365 1365
1500 1500 1500
1660 1660 1660
1812 1812 1812
1958 1958 1958
2086 2086 2086
2069 2069 2070
271 271 272
277 277 277
316 316 316
386 386 386
481 481 481
612 612 612
768 768 768
954 954 954
1142 1142 1142
1341 1341 1341
1508 1508 1508
1655 1655 1655
1804 1804 1804
1967 1967 1967
2109 2109 2109
2231 2231 2231
2138 2138 2138
451 451 451
437 437 437
480 480 480
560 560 560
671 671 671
795 795 795
945 945 945
1111 1111 1111
1294 1294 1294
1479 1479 1479
1658 1658 1658
1820 1820 1820
1974 1974 1974
2112 2112 2112
2272 2272 2272
2407 2407 2407
2302 2302 2302
689 689 689
689 689 689
701 701 701
793 793 793
895 895 895
1014 1014 1014
1148 1148 1148
1299 1299 1299
1464 1464 1464
1625 1625 1625
1792 1792 1792
1947 1947 1947
2098 2098 2098
2247 2247 2247
2394 2394 2394
2542 2542 2542
2511 2511 2511
954 954 954
1012 1012 1012
1008 1008 1008
1063 1063 1063
1143 1143 1143
1250 1250 1250
1373 1373 1373
1506 1506 1506
1642 1642 1642
1792 1792 1792
1937 1937 1937
2080 2080 2080
2215 2215 2215
2353 2353 2353
2495 2495 2495
2645 2645 2645
2685 2685 2685
1245 1245 1245
1252 1252 1252
1328 1328 1328
1368 1368 1368
1409 1409 1409
1499 1499 1499
1601 1601 1601
1720 1720 1720
1845 1845 1845
1971 1971 1971
2094 2094 2094
2220 2220 2220
2346 2346 2346
2470 2470 2470
2612 2612 2612
2747 2747 2747
2793 2793 2793
1245 1245 1245
1656 1656 1656
1656 1656 1656
1650 1650 1650
1699 1699 1699
1754 1754 1754
1839 1839 1839
1940 1940 1940
2048 2048 2048
2151 2151 2151
2257 2257 2257
2370 2370 2370
2482 2482 2482
2602 2602 2602
2731 2731 2731
2850 2850 2850
2909 2909 2909
1245 1245 1245
1656 1656 1656
1656 1656 1656
1906 1906 1906
1937 1937 1937
1998 1998 1998
2076 2076 2076
2148 2148 2148
2237 2237 2237
2336 2336 2336
2428 2428 2428
2521 2521 2521
2630 2630 2630
2733 2733 2733
2843 2843 2843
2956 2956 2956
3039 3039 3039
1245 1245 1245
1881 1881 1881
1881 1881 1881
1906 1906 1906
1937 1937 1937
2194 2194 2194
2264 2264 2264
2337 2337 2337
2415 2415 2415
2500 2500 2500
2598 2598 2598
2683 2683 2683
2771 2771 2771
2859 2859 2859
2956 2956 2956
3068 3068 3068
3164 3164 3164
1245 1245 1245
1881 1881 1881
1881 1881 1881
2117 2117 2117
1937 1937 1937
2194 2194 2194
2264 2264 2264
2549 2549 2549
2577 2577 2577
2652 2652 2652
2742 2742 2742
2830 2830 2830
2905 2905 2905
2982 2982 2982
3071 3071 3071
3173 3173 3173
3283 3283 3283
1245 1245 1245
1881 1881 1881
1881 1881 1881
2117 2117 2117
2656 2656 2656
2656 2656 2656
2656 2656 2656
2684 2684 2684
2577 2577 2577
2809 2809 2809
2882 2882 2882
2949 2949 2949
3022 3022 3022
3110 3110 3110
3200 3200 3200
3304 3304 3304
3421 3421 3421
1245 1245 1245
1881 1881 1881
1881 1881 1881
2117 2117 2117
2212 2212 2212
2656 2656 2656
2656 2656 2656
2684 2684 2684
2775 2775 2775
2809 2809 2809
3038 3038 3038
3101 3101 3101
3161 3161 3161
3237 3237 3237
3332 3332 3332
3417 3417 3417
3529 3529 3529
1656 1656 1656
1881 1881 1881
1881 1881 1881
2117 2117 2117
2153 2153 2153
2656 2656 2656
2656 2656 2656
2684 2684 2684
2775 2775 2775
3038 3038 3038
3038 3038 3038
3101 3101 3101
3161 3161 3161
3368 3368 3368
3332 3332 3332
3417 3417 3417
3529 3529 3529
1656 1656 1656
1881 1881 1881
1881 1881 1881
2117 2117 2117
2153 2153 2153
2656 2656 2656
2656 2656 2656
2684 2684 2684
2775 2775 2775
3038 3038 3038
3038 3038 3038
3101 3101 3101
3368 3368 3368
3368 3368 3368
3427 3427 3427
3427 3427 3427
3529 3529 3529
1656 1656 1656
1881 1881 1881
1881 1881 1881
2117 2117 2117
2153 2153 2153
2656 2656 2656
2656 2656 2656
2684 2684 2684
2775 2775 2775
3038 3038 3038
3038 3038 3038
3101 3101 3101
3368 3368 3368
3368 3368 3368
3427 3427 3427
3427 3427 3427
3529 3529 3529
64 64 63
137 137 137
195 195 195
245 245 245
386 386 386
502 502 502
910 910 910
910 910 910
988 988 988
1115 1115 1115
1236 1236 1236
1365 1365 1365
1501 1501 1501
1635 1635 1635
1772 1771 1772
1906 1905 1906
2018 2018 2018
98 98 98
137 137 137
195 195 195
245 245 245
386 386 386
502 502 502
716 716 716
907 907 907
1050 1050 1050
1177 1177 1177
1312 1312 1312
1454 1454 1454
1600 1600 1600
1752 1752 1752
1897 1897 1897
2028 2028 2028
