Fujifilm XTrans III/Acros+Ye.3dl
#Created by: Affinity Photo (Serif Europe Ltd.)
0 256 512 767 1023
16 16 16
56 57 57
725 725 725
1369 1370 1369
2045 2046 2045
277 277 278
451 451 451
822 822 822
1307 1307 1307
1971 1971 1971
1041 1041 1041
1411 1411 1411
1590 1590 1590
1870 1870 1870
2153 2153 2153
1411 1411 1411
1602 1602 1602
2173 2173 2173
2521 2521 2521
2822 2822 2822
1603 1603 1603
1815 1815 1815
2337 2337 2337
3093 3093 3093
3093 3093 3093
344 344 345
845 845 845
1083 1083 1083
1613 1614 1613
2199 2199 2199
602 602 602
786 786 786
1216 1216 1216
1716 1716 1716
2359 2359 2359
1406 1406 1406
1549 1549 1549
1846 1846 1846
2175 2175 2175
2607 2607 2607
1406 1406 1406
2095 2095 2095
2411 2411 2411
2681 2681 2681
2983 2983 2983
2095 2095 2095
2357 2357 2357
2573 2573 2573
2901 2901 2901
3031 3031 3031
1035 1035 1035
1520 1520 1520
1800 1800 1800
2142 2142 2142
2581 2582 2581
1516 1516 1516
1628 1628 1628
1942 1942 1942
2260 2260 2260
2707 2707 2707
2105 2105 2105
2167 2167 2167
2370 2370 2370
2617 2617 2617
2952 2952 2952
2439 2439 2439
2706 2706 2706
2832 2832 2832
3023 3023 3023
3306 3306 3306
2726 2726 2726
2706 2706 2706
2928 2928 2928
3257 3257 3257
3440 3440 3440
2004 2004 2004
2378 2378 2378
2597 2597 2597
2824 2824 2824
3078 3078 3078
2350 2350 2350
2457 2457 2457
2674 2674 2674
2880 2880 2880
3166 3166 3166
2685 2685 2685
2801 2801 2801
2941 2941 2941
3115 3115 3115
3354 3354 3354
2924 2924 2924
3175 3175 3175
3295 3295 3295
3441 3441 3441
3678 3678 3678
3175 3175 3175
3350 3350 3350
3701 3701 3701
3763 3763 3763
3862 3862 3862
2256 2256 2256
2829 2829 2829
3091 3091 3091
3259 3259 3259
3370 3370 3370
2547 2547 2547
2942 2942 2942
3109 3109 3109
3295 3295 3295
3398 3398 3398
2855 2855 2855
3144 3144 3144
3336 3336 3336
3499 3499 3499
3637 3637 3637
3305 3305 3305
3565 3565 3565
3815 3815 3815
3965 3965 3965
3949 3949 3949
3394 3394 3394
3566 3566 3566
3830 3830 3830
4041 4041 4041
4065 4065 4065
