Fujifilm XTrans III/Acros.3dl
#Created by: Affinity Photo (Serif Europe Ltd.)
0 64 128 192 256 320 384 448 512 575 639 703 767 831 895 959 1023
16 16 16
32 32 32
50 50 50
76 77 77
175 175 175
351 351 350
566 567 567
753 753 753
895 895 896
1045 1045 1046
1203 1204 1204
1366 1366 1366
1536 1536 1537
1709 1709 1709
1885 1885 1885
2054 2054 2054
2197 2197 2197
28 28 28
53 53 53
71 71 71
73 73 73
196 197 197
369 369 369
534 534 534
730 730 730
892 892 892
1050 1051 1051
1208 1208 1208
1374 1374 1374
1544 1544 1544
1721 1721 1721
1898 1898 1899
2066 2067 2067
2209 2209 2209
46 46 45
94 94 94
130 130 130
198 198 198
309 309 309
415 415 415
543 543 543
720 720 720
914 914 914
1088 1088 1088
1245 1246 1246
1410 1411 1411
1582 1582 1582
1749 1750 1750
1920 1920 1920
2080 2080 2081
2217 2218 2218
108 108 108
174 174 174
230 230 230
314 314 314
406 406 406
516 516 516
651 651 651
800 800 800
966 966 966
1145 1145 1145
1314 1314 1314
1474 1475 1475
1648 1648 1648
1819 1819 1819
1987 1988 1988
2137 2137 2137
2259 2259 2259
344 344 344
325 325 325
414 414 414
479 479 479
576 576 576
685 685 685
811 811 811
954 954 954
1100 1100 1100
1247 1247 1247
1403 1403 1403
1561 1561 1561
1721 1721 1721
1888 1888 1888
2071 2071 2071
2223 2224 2224
2337 2337 2337
547 547 547
549 549 549
604 604 604
660 660 660
767 767 767
885 885 885
1007 1007 1007
1133 1133 1133
1271 1271 1271
1407 1407 1407
1543 1543 1543
1678 1678 1678
1820 1820 1820
1971 1971 1971
2140 2140 2140
2299 2299 2299
2422 2422 2422
547 547 547
798 798 798
823 823 823
951 951 951
995 995 995
1090 1090 1090
1214 1214 1214
1338 1338 1338
1460 1460 1460
1582 1582 1582
1708 1708 1708
1831 1831 1831
1959 1959 1959
2092 2092 2092
2235 2235 2235
2366 2366 2366
2478 2478 2478
798 798 798
798 798 798
1134 1134 1134
951 951 951
1223 1223 1223
1311 1311 1311
1426 1426 1426
1541 1541 1541
1655 1655 1655
1773 1773 1773
1887 1887 1887
1998 1998 1998
2116 2116 2116
2238 2238 2238
2366 2366 2366
2478 2478 2478
2556 2556 2556
1102 1102 1102
1134 1134 1134
1134 1134 1134
1434 1434 1434
1571 1571 1571
1589 1589 1589
1652 1652 1652
1748 1748 1748
1861 1861 1861
1962 1962 1962
2065 2065 2065
2167 2167 2167
2273 2273 2273
2387 2387 2387
2507 2507 2507
2610 2610 2610
2681 2681 2681
798 798 798
1464 1464 1464
1571 1571 1571
1571 1571 1571
1571 1571 1571
1788 1788 1788
1867 1867 1867
1960 1960 1960
2050 2050 2050
2143 2143 2143
2236 2236 2236
2333 2333 2333
2431 2431 2431
2535 2535 2535
2646 2646 2646
2751 2751 2751
2826 2826 2826
798 798 798
1464 1464 1464
1571 1571 1571
1571 1571 1571
1788 1788 1788
1788 1788 1788
1867 1867 1867
2106 2106 2106
2210 2210 2210
2304 2304 2304
2398 2398 2398
2489 2489 2489
2583 2583 2583
2679 2679 2679
2784 2784 2784
2891 2891 2891
2973 2973 2973
1571 1571 1571
1693 1693 1693
1693 1693 1693
1788 1788 1788
1788 1788 1788
1788 1788 1788
2106 2106 2106
2106 2106 2106
2434 2434 2434
2434 2434 2434
2533 2533 2533
2634 2634 2634
2725 2725 2725
2813 2813 2813
2906 2906 2906
3012 3012 3012
3106 3106 3106
1571 1571 1571
1693 1693 1693
1693 1693 1693
1788 1788 1788
1788 1788 1788
2106 2106 2106
2106 2106 2106
2367 2367 2367
2434 2434 2434
2434 2434 2434
2672 2672 2672
2761 2761 2761
2843 2843 2843
2930 2930 2930
3032 3032 3032
3145 3145 3145
3245 3245 3245
1571 1571 1571
1693 1693 1693
1693 1693 1693
2016 2016 2016
1788 1788 1788
2406 2406 2406
2406 2406 2406
2367 2367 2367
2593 2593 2593
2831 2831 2831
2831 2831 2831
2947 2947 2947
2951 2951 2951
3044 3044 3044
3164 3164 3164
3273 3273 3273
3371 3371 3371
1693 1693 1693
1693 1693 1693
2016 2016 2016
2016 2016 2016
2016 2016 2016
2406 2406 2406
2406 2406 2406
2367 2367 2367
2593 2593 2593
2831 2831 2831
2831 2831 2831
2947 2947 2947
2951 2951 2951
3044 3044 3044
3389 3389 3389
3389 3389 3389
3371 3371 3371
1693 1693 1693
1693 1693 1693
2016 2016 2016
2016 2016 2016
2016 2016 2016
2406 2406 2406
2406 2406 2406
2593 2593 2593
2593 2593 2593
2947 2947 2947
2831 2831 2831
2947 2947 2947
2951 2951 2951
3389 3389 3389
3389 3389 3389
3389 3389 3389
3371 3371 3371
1693 1693 1693
1693 1693 1693
2016 2016 2016
2016 2016 2016
2016 2016 2016
2406 2406 2406
2406 2406 2406
2593 2593 2593
2593 2593 2593
2947 2947 2947
2831 2831 2831
2947 2947 2947
3389 3389 3389
3389 3389 3389
3389 3389 3389
3389 3389 3389
3389 3389 3389
32 32 32
44 44 44
64 64 64
76 77 77
175 175 175
426 426 426
609 609 609
829 829 829
963 963 963
1116 1117 1117
1268 1268 1268
1420 1420 1420
1583 1583 1583
1756 1756 1756
1926 1926 1926
2087 2088 2088
2223 2223 2223
51 51 51
69 69 69
104 104 104
170 170 170
321 321 321
426 426 426
609 609 609
830 830 830
993 993 993
1148 1148 1148
1314 1314 1314
1483 1483 1483
1656 1656 1656
1845 1845 1845
2027 2027 2027
2184 2184 2184
2281 2281 2281
63 63 62
134 134 134
166 166 166
236 236 236
327 327 327
448 448 448
598 598 598
799 799 799
1020 1020 1020
1212 1212 1212
1371 1371 1371
1544 1544 1544
1732 1732 1732
1906 1906 1906
2085 2085 2085
2241 2241 2241
2298 2298 2298
136 136 135
216 216 216
264 264 264
329 329 329
412 412 412
535 535 535
691 691 691
873 873 873
1069 1069 1069
1288 1288 1288
1474 1474 1474
1632 1632 1632
1811 1811 1811
1999 1999 1999
2171 2171 2171
2321 2321 2321
2325 2325 2325
346 346 346
366 366 366
417 417 417
493 493 493
584 584 584
700 700 700
847 847 847
1020 1020 1020
1208 1208 1208
1397 1397 1397
1584 1584 1584
1758 1758 1758
1920 1920 1920
2084 2084 2084
2260 2260 2260
2421 2421 2421
2396 2396 2396
547 547 547
577 577 577
633 633 633
699 699 699
792 792 792
904 904 904
1036 1036 1036
1186 1186 1186
1361 1361 1361
1539 1539 1539
1702 1702 1702
1869 1869 1869
2024 2024 2024
2184 2184 2184
2343 2343 2343
2503 2503 2503
2488 2488 2488
852 852 852
773 773 773
908 908 908
910 910 910
1003 1003 1003
1121 1121 1121
1240 1240 1240
1374 1374 1374
1521 1521 1521
1681 1681 1681
1842 1842 1842
1990 1990 1990
2135 2135 2135
2282 2282 2282
2430 2430 2430
2585 2585 2585
2553 2553 2553
1102 1102 1102
1134 1134 1134
1134 1134 1134
1182 1182 1182
1250 1250 1250
1332 1332 1332
1449 1449 1449
1571 1571 1571
1699 1699 1699
1842 1842 1842
1983 1983 1983
2119 2119 2119
2251 2251 2251
2392 2392 2392
2540 2540 2540
2684 2684 2684
2612 2612 2612
1102 1102 1102
1134 1134 1134
1134 1134 1134
1434 1434 1434
1516 1516 1516
1589 1589 1589
1661 1661 1661
1769 1769 1769
1888 1888 1888
2009 2009 2009
2129 2129 2129
2254 2254 2254
2375 2375 2375
2505 2505 2505
2644 2644 2644
2782 2782 2782
2727 2727 2727
1102 1102 1102
1464 1464 1464
1464 1464 1464
1434 1434 1434
1741 1741 1741
1788 1788 1788
1888 1888 1888
1967 1967 1967
2065 2065 2065
2173 2173 2173
2279 2279 2279
2392 2392 2392
2504 2504 2504
2628 2628 2628
2757 2757 2757
2881 2881 2881
2869 2869 2869
1102 1102 1102
1693 1693 1693
1693 1693 1693
1698 1698 1698
1788 1788 1788
1788 1788 1788
2016 2016 2016
2133 2133 2133
2222 2222 2222
2325 2325 2325
2426 2426 2426
2526 2526 2526
2635 2635 2635
2746 2746 2746
2856 2856 2856
2981 2981 2981
3012 3012 3012
1102 1102 1102
1693 1693 1693
1693 1693 1693
1698 1698 1698
2016 2016 2016
2016 2016 2016
2016 2016 2016
2367 2367 2367
2367 2367 2367
2457 2457 2457
2554 2554 2554
2661 2661 2661
2762 2762 2762
2858 2858 2858
2952 2952 2952
3073 3073 3073
3146 3146 3146
1102 1102 1102
1693 1693 1693
1693 1693 1693
1698 1698 1698
2016 2016 2016
2016 2016 2016
2406 2406 2406
2367 2367 2367
2593 2593 2593
2593 2593 2593
2692 2692 2692
2778 2778 2778
2858 2858 2858
2952 2952 2952
3063 3063 3063
3189 3189 3189
3285 3285 3285
1102 1102 1102
1693 1693 1693
1693 1693 1693
1698 1698 1698
2016 2016 2016
2406 2406 2406
2406 2406 2406
2593 2593 2593
2593 2593 2593
2831 2831 2831
2831 2831 2831
2908 2908 2908
2976 2976 2976
3055 3055 3055
3178 3178 3178
3279 3279 3279
3414 3414 3414
1693 1693 1693
1693 1693 1693
1693 1693 1693
2016 2016 2016
2016 2016 2016
2406 2406 2406
2406 2406 2406
2593 2593 2593
2593 2593 2593
2831 2831 2831
2831 2831 2831
2908 2908 2908
2976 2976 2976
3055 3055 3055
3178 3178 3178
3279 3279 3279
3414 3414 3414
1693 1693 1693
1693 1693 1693
1693 1693 1693
2016 2016 2016
2016 2016 2016
2406 2406 2406
2406 2406 2406
2593 2593 2593
2593 2593 2593
2908 2908 2908
2831 2831 2831
2908 2908 2908
2976 2976 2976
3389 3389 3389
3389 3389 3389
3389 3389 3389
3414 3414 3414
1693 1693 1693
1693 1693 1693
2016 2016 2016
2016 2016 2016
2016 2016 2016
2406 2406 2406
2406 2406 2406
2593 2593 2593
2593 2593 2593
2908 2908 2908
2831 2831 2831
2908 2908 2908
2976 2976 2976
3389 3389 3389
3389 3389 3389
3389 3389 3389
3414 3414 3414
61 61 61
70 70 70
64 64 64
222 222 222
346 346 346
457 457 457
676 676 676
897 897 897
1007 1007 1007
1162 1162 1162
1308 1308 1308
1462 1462 1462
1620 1621 1620
1789 1789 1789
1952 1952 1952
2110 2110 2110
2242 2242 2242
89 89 89
114 114 114
151 151 151
222 222 222
346 346 346
457 457 457
676 676 676
879 879 879
1037 1037 1037
1190 1190 1190
1350 1350 1350
1516 1516 1516
1693 1693 1693
1878 1878 1878
2057 2057 2057
2209 2209 2209
2314 2314 2314
149 149 149
181 181 181
212 212 212
284 284 284
377 377 377
495 495 495
644 644 644
843 843 843
1060 1060 1060
1253 1253 1253
1414 1414 1414
1573 1573 1573
1757 1757 1757
1938 1938 1938
2110 2110 2110
2266 2266 2266
2351 2351 2351
233 233 232
263 263 263
300 300 300
363 363 363
455 455 455
580 580 580
735 735 735
919 919 919
1112 1112 1112
1322 1322 1322
1503 1503 1503
1667 1667 1667
1838 1838 1838
2026 2026 2026
2194 2194 2194
2341 2341 2341
2386 2386 2386
400 400 400
400 400 400
442 442 442
513 513 513
616 616 616
740 740 740
891 891 891
1061 1061 1061
1246 1246 1246
1438 1438 1438
1623 1623 1623
1789 1789 1789
1951 1951 1951
2103 2103 2103
2285 2285 2285
2446 2446 2446
2449 2449 2449
615 615 615
620 620 620
635 635 635
717 717 717
815 815 815
933 933 933
1071 1071 1071
1227 1227 1227
1398 1398 1398
1568 1568 1568
1738 1738 1738
1899 1899 1899
2054 2054 2054
2207 2207 2207
2360 2360 2360
2520 2520 2520
2540 2540 2540
852 852 852
901 901 901
903 903 903
954 954 954
1037 1037 1037
1144 1144 1144
1268 1268 1268
1410 1410 1410
1556 1556 1556
1714 1714 1714
1867 1867 1867
2018 2018 2018
2158 2158 2158
2302 2302 2302
2449 2449 2449
2604 2604 2604
2619 2619 2619
1102 1102 1102
1109 1109 1109
1178 1178 1178
1220 1220 1220
1270 1270 1270
1365 1365 1365
1474 1474 1474
1598 1598 1598
1732 1732 1732
1874 1874 1874
2009 2009 2009
2142 2142 2142
2276 2276 2276
2407 2407 2407
2554 2554 2554
2699 2699 2699
2670 2671 2671
1102 1102 1102
1464 1464 1464
1464 1464 1464
1472 1472 1472
1531 1531 1531
1593 1593 1593
1684 1684 1684
1793 1793 1793
1914 1914 1914
2033 2033 2033
2153 2153 2153
2276 2276 2276
2396 2396 2396
2525 2525 2525
2664 2664 2664
2796 2796 2796
2770 2770 2770
1102 1102 1102
1464 1464 1464
1464 1464 1464
1698 1698 1698
1741 1741 1741
1813 1813 1813
1902 1902 1902
1987 1987 1987
2086 2086 2086
2194 2194 2194
2303 2303 2303
2409 2409 2409
2525 2525 2525
2642 2642 2642
2769 2769 2769
2891 2891 2891
2904 2904 2904
1102 1102 1102
1693 1693 1693
1693 1693 1693
1698 1698 1698
1741 1741 1741
1996 1996 1996
2070 2070 2070
2156 2156 2156
2248 2248 2248
2343 2343 2343
2447 2447 2447
2544 2544 2544
2651 2651 2651
2761 2761 2761
2870 2870 2870
2990 2990 2990
3037 3037 3037
1102 1102 1102
1693 1693 1693
1693 1693 1693
1911 1911 1911
1741 1741 1741
1996 1996 1996
2070 2070 2070
2306 2306 2306
2390 2390 2390
2476 2476 2476
2574 2574 2574
2679 2679 2679
2777 2777 2777
2868 2868 2868
2966 2966 2966
3084 3084 3084
3174 3174 3174
1102 1102 1102
1693 1693 1693
1693 1693 1693
1911 1911 1911
2406 2406 2406
2406 2406 2406
2406 2406 2406
2437 2437 2437
2390 2390 2390
2607 2607 2607
2709 2709 2709
2796 2796 2796
2875 2875 2875
2969 2969 2969
3077 3077 3077
3198 3198 3198
3309 3309 3309
1102 1102 1102
1693 1693 1693
1693 1693 1693
1911 1911 1911
2016 2016 2016
2406 2406 2406
2406 2406 2406
2437 2437 2437
2557 2557 2557
2607 2607 2607
2840 2840 2840
2916 2916 2916
2990 2990 2990
3079 3079 3079
3190 3190 3190
3302 3302 3302
3433 3433 3433
1464 1464 1464
1693 1693 1693
1693 1693 1693
1911 1911 1911
1945 1945 1945
2406 2406 2406
2406 2406 2406
2437 2437 2437
2557 2557 2557
2840 2840 2840
2840 2840 2840
2916 2916 2916
2990 2990 2990
3201 3201 3201
3190 3190 3190
3302 3302 3302
3433 3433 3433
1464 1464 1464
1693 1693 1693
1693 1693 1693
1911 1911 1911
1945 1945 1945
2406 2406 2406
2406 2406 2406
2437 2437 2437
2557 2557 2557
2840 2840 2840
2840 2840 2840
2916 2916 2916
3201 3201 3201
3201 3201 3201
3271 3271 3271
3271 3271 3271
3433 3433 3433
1464 1464 1464
1693 1693 1693
1693 1693 1693
1911 1911 1911
1945 1945 1945
2406 2406 2406
2406 2406 2406
2437 2437 2437
2557 2557 2557
2840 2840 2840
2840 2840 2840
2916 2916 2916
3201 3201 3201
3201 3201 3201
3271 3271 3271
3271 3271 3271
3433 3433 3433
108 108 107
175 175 175
233 233 233
273 273 273
414 414 414
534 534 534
988 988 988
988 988 988
1078 1078 1078
1227 1227 1227
1371 1371 1371
1524 1524 1524
1685 1685 1685
1844 1844 1844
2004 2004 2004
2155 2156 2155
2281 2281 2281
141 141 141
175 175 175
233 233 233
273 273 273
414 414 414
534 534 534
741 741 741
946 946 946
1109 1109 1109
1256 1256 1256
1411 1411 1411
1576 1576 1576
1749 1749 1749
1927 1927 1927
2098 2098 2098
2247 2247 2247
