Fujifilm XTrans III/Acros+Ye.3dl
#Created by: Affinity Photo (Serif Europe Ltd.)
0 64 128 192 256 320 384 448 512 575 639 703 767 831 895 959 1023
16 16 16
26 26 26
35 35 35
10 11 11
56 57 57
195 196 194
399 401 401
580 581 581
725 725 725
873 874 874
1030 1031 1031
1195 1195 1195
1369 1370 1369
1545 1546 1546
1723 1723 1723
1896 1896 1896
2045 2046 2045
27 27 27
43 43 43
43 43 43
6 6 6
73 73 73
219 220 220
361 362 362
536 537 537
704 704 704
866 866 866
1024 1025 1024
1193 1194 1194
1367 1368 1367
1548 1548 1548
1730 1730 1730
1904 1905 1905
2055 2056 2056
39 39 39
65 65 65
82 82 82
125 125 125
214 214 214
297 297 297
383 383 383
504 504 504
670 670 670
845 846 846
1007 1007 1007
1173 1173 1173
1354 1354 1354
1533 1534 1534
1720 1721 1721
1900 1900 1900
2053 2054 2053
76 76 76
118 118 118
153 153 153
220 220 220
299 299 299
388 388 388
478 478 478
577 577 577
691 691 691
833 833 833
988 988 988
1145 1145 1145
1313 1313 1313
1489 1489 1489
1679 1679 1679
1864 1864 1864
2023 2023 2023
277 277 278
253 253 253
319 319 319
378 378 378
451 451 451
529 529 529
620 620 620
719 719 719
822 822 822
926 926 926
1042 1042 1042
1169 1170 1170
1307 1307 1307
1455 1456 1456
1633 1633 1633
1815 1815 1815
1971 1971 1971
471 471 471
459 459 459
506 506 506
544 544 544
628 628 628
717 717 717
805 805 805
893 893 893
990 990 990
1088 1088 1088
1185 1185 1185
1281 1281 1281
1382 1382 1382
1499 1499 1499
1638 1638 1638
1782 1782 1782
1920 1921 1921
471 471 471
705 705 705
705 705 705
815 815 815
846 846 846
920 920 920
1011 1011 1011
1097 1097 1097
1181 1181 1181
1266 1266 1266
1354 1354 1354
1438 1438 1438
1524 1524 1524
1619 1619 1619
1727 1727 1727
1827 1827 1827
1919 1919 1919
705 705 705
705 705 705
1029 1029 1029
815 815 815
1068 1068 1068
1139 1139 1139
1223 1223 1223
1303 1303 1303
1382 1382 1382
1461 1461 1461
1537 1537 1537
1612 1612 1612
1693 1693 1693
1780 1780 1780
1876 1876 1876
1953 1953 1953
2001 2001 2001
1041 1041 1041
1029 1029 1029
1029 1029 1029
1296 1296 1296
1411 1411 1411
1409 1409 1409
1448 1448 1448
1512 1512 1512
1590 1590 1590
1658 1658 1658
1728 1728 1728
1797 1797 1797
1870 1870 1870
1952 1952 1952
2042 2042 2042
2112 2112 2112
2153 2153 2153
705 705 705
1357 1357 1357
1411 1411 1411
1411 1411 1411
1411 1411 1411
1602 1602 1602
1663 1663 1663
1728 1728 1728
1791 1791 1791
1857 1857 1857
1920 1920 1920
1984 1984 1984
2052 2052 2052
2125 2125 2125
2207 2207 2207
2284 2284 2284
2334 2334 2334
705 705 705
1357 1357 1357
1411 1411 1411
1411 1411 1411
1602 1602 1602
1602 1602 1602
1663 1663 1663
1884 1884 1884
1965 1965 1965
2033 2033 2033
2102 2102 2102
2163 2163 2163
2225 2225 2225
2293 2293 2293
2372 2372 2372
2455 2455 2455
2515 2515 2515
1411 1411 1411
1603 1603 1603
1603 1603 1603
1602 1602 1602
1602 1602 1602
1602 1602 1602
1884 1884 1884
1884 1884 1884
2173 2173 2173
2173 2173 2173
2248 2248 2248
2321 2321 2321
2385 2385 2385
2451 2451 2451
2521 2521 2521
2598 2598 2598
2670 2670 2670
1411 1411 1411
1603 1603 1603
1603 1603 1603
1602 1602 1602
1602 1602 1602
1884 1884 1884
1884 1884 1884
2129 2129 2129
2173 2173 2173
2173 2173 2173
2380 2380 2380
2449 2449 2449
2521 2521 2521
2592 2592 2592
2668 2668 2668
2749 2749 2749
2822 2822 2822
1411 1411 1411
1603 1603 1603
1603 1603 1603
1815 1815 1815
1602 1602 1602
2234 2234 2234
2234 2234 2234
2129 2129 2129
2337 2337 2337
2545 2545 2545
2545 2545 2545
2652 2652 2652
2640 2640 2640
2715 2715 2715
2814 2814 2814
2885 2885 2885
2962 2962 2962
1603 1603 1603
1603 1603 1603
1815 1815 1815
1815 1815 1815
1815 1815 1815
2234 2234 2234
2234 2234 2234
2129 2129 2129
2337 2337 2337
2545 2545 2545
2545 2545 2545
2652 2652 2652
2640 2640 2640
2715 2715 2715
3093 3093 3093
3093 3093 3093
2962 2962 2962
1603 1603 1603
1603 1603 1603
1815 1815 1815
1815 1815 1815
1815 1815 1815
2234 2234 2234
2234 2234 2234
2337 2337 2337
2337 2337 2337
2652 2652 2652
2545 2545 2545
2652 2652 2652
2640 2640 2640
3093 3093 3093
3093 3093 3093
3093 3093 3093
2962 2962 2962
1603 1603 1603
1603 1603 1603
1815 1815 1815
1815 1815 1815
1815 1815 1815
2234 2234 2234
2234 2234 2234
2337 2337 2337
2337 2337 2337
2652 2652 2652
2545 2545 2545
2652 2652 2652
3093 3093 3093
3093 3093 3093
3093 3093 3093
3093 3093 3093
3093 3093 3093
40 40 40
42 42 42
52 52 52
10 11 11
56 57 57
328 328 328
460 460 460
679 679 679
813 813 813
962 963 962
1109 1109 1109
1258 1259 1259
1421 1422 1421
1594 1595 1594
1765 1766 1765
1931 1932 1931
2073 2073 2073
61 61 61
68 68 68
91 91 91
141 141 141
249 249 249
328 328 328
460 460 460
653 653 653
817 817 817
972 972 972
1132 1132 1132
1295 1295 1295
1470 1470 1470
1660 1660 1660
1849 1849 1849
2017 2017 2017
2133 2134 2133
62 62 62
129 129 129
147 147 147
194 194 194
260 260 260
357 357 357
460 460 460
597 597 597
782 782 782
970 970 970
1134 1134 1134
1296 1296 1296
1476 1476 1476
1652 1652 1652
1845 1845 1845
2023 2023 2023
2145 2145 2145
120 120 119
193 193 193
227 227 227
276 276 276
336 336 336
426 426 426
535 535 535
660 660 660
799 799 799
972 972 972
1148 1148 1148
1311 1311 1311
1482 1482 1482
1661 1661 1661
1845 1845 1845
2022 2022 2022
2128 2128 2128
312 312 313
325 325 325
358 358 358
414 414 414
482 482 482
564 564 564
672 672 672
797 797 797
937 937 937
1078 1078 1078
1230 1230 1230
1379 1379 1379
1526 1526 1526
1678 1678 1678
1847 1847 1847
2023 2023 2023
2077 2077 2077
508 508 509
510 510 510
548 548 548
596 596 596
669 669 669
754 754 754
854 854 854
964 964 964
1092 1092 1092
1230 1230 1230
1363 1363 1363
1497 1497 1497
1624 1624 1624
1762 1762 1762
1899 1899 1899
2039 2039 2039
2025 2025 2025
818 818 818
692 692 692
808 808 808
797 797 797
872 872 872
967 967 967
1054 1054 1054
1151 1151 1151
1261 1261 1261
1386 1386 1386
1510 1510 1510
1626 1626 1626
1749 1749 1749
1875 1875 1875
1997 1997 1997
2125 2125 2125
1998 1998 1998
1041 1041 1041
1029 1029 1029
1029 1029 1029
1060 1060 1060
1110 1110 1110
1172 1172 1172
1258 1258 1258
1351 1351 1351
1447 1447 1447
1551 1551 1551
1659 1659 1659
1770 1770 1770
1882 1882 1882
1999 1999 1999
2119 2119 2119
2238 2238 2238
2050 2050 2050
1041 1041 1041
1029 1029 1029
1029 1029 1029
1296 1296 1296
1367 1367 1367
1420 1420 1420
1470 1470 1470
1547 1547 1547
1633 1633 1633
1725 1725 1725
1820 1820 1820
1922 1922 1922
2019 2019 2019
2125 2125 2125
2237 2237 2237
2354 2354 2354
2190 2190 2190
1041 1041 1041
1357 1357 1357
1357 1357 1357
1296 1296 1296
1603 1603 1603
1620 1620 1620
1689 1689 1689
1745 1745 1745
1818 1818 1818
1904 1904 1904
1985 1985 1985
2073 2073 2073
2162 2162 2162
2259 2259 2259
2363 2363 2363
2476 2476 2476
2369 2369 2369
1041 1041 1041
1603 1603 1603
1603 1603 1603
1578 1578 1578
1620 1620 1620
1620 1620 1620
1815 1815 1815
1923 1923 1923
1988 1988 1988
2065 2065 2065
2146 2146 2146
2221 2221 2221
2301 2301 2301
2389 2389 2389
2484 2484 2484
2597 2597 2597
2548 2548 2548
1041 1041 1041
1603 1603 1603
1603 1603 1603
1578 1578 1578
1815 1815 1815
1815 1815 1815
1815 1815 1815
2129 2129 2129
2129 2129 2129
2202 2202 2202
2278 2278 2278
2361 2361 2361
2438 2438 2438
2518 2518 2518
2600 2600 2600
2703 2703 2703
2709 2709 2709
1041 1041 1041
1603 1603 1603
1603 1603 1603
1578 1578 1578
1815 1815 1815
1815 1815 1815
2234 2234 2234
2129 2129 2129
2337 2337 2337
2337 2337 2337
2404 2404 2404
2476 2476 2476
2547 2547 2547
2630 2630 2630
2719 2719 2719
2816 2816 2816
2862 2862 2862
1041 1041 1041
1603 1603 1603
1603 1603 1603
1578 1578 1578
1815 1815 1815
2234 2234 2234
2234 2234 2234
2337 2337 2337
2337 2337 2337
2545 2545 2545
2545 2545 2545
2624 2624 2624
2677 2677 2677
2738 2738 2738
2835 2835 2835
2904 2904 2904
3015 3015 3015
1603 1603 1603
1603 1603 1603
1603 1603 1603
1815 1815 1815
1815 1815 1815
2234 2234 2234
2234 2234 2234
2337 2337 2337
2337 2337 2337
2545 2545 2545
2545 2545 2545
2624 2624 2624
2677 2677 2677
2738 2738 2738
2835 2835 2835
2904 2904 2904
3015 3015 3015
1603 1603 1603
1603 1603 1603
1603 1603 1603
1815 1815 1815
1815 1815 1815
2234 2234 2234
2234 2234 2234
2337 2337 2337
2337 2337 2337
2624 2624 2624
2545 2545 2545
2624 2624 2624
2677 2677 2677
3093 3093 3093
3093 3093 3093
3093 3093 3093
3015 3015 3015
1603 1603 1603
1603 1603 1603
1815 1815 1815
1815 1815 1815
1815 1815 1815
2234 2234 2234
2234 2234 2234
2337 2337 2337
2337 2337 2337
2624 2624 2624
2545 2545 2545
2624 2624 2624
2677 2677 2677
3093 3093 3093
3093 3093 3093
3093 3093 3093
3015 3015 3015
107 107 107
95 95 95
52 52 52
210 210 210
299 299 299
375 375 375
534 534 534
756 756 756
870 870 870
1019 1019 1019
1159 1159 1159
1307 1307 1307
1462 1463 1462
1628 1629 1629
1793 1794 1793
1956 1956 1956
2094 2094 2094
125 125 125
137 137 137
156 156 156
210 210 210
299 299 299
375 375 375
534 534 534
714 714 714
871 871 871
1021 1021 1021
1170 1170 1170
1329 1329 1329
1503 1503 1503
1688 1688 1688
1878 1878 1878
2042 2042 2042
2168 2168 2168
166 166 166
187 187 187
210 210 210
264 264 264
335 335 335
421 421 421
519 519 519
653 653 653
833 833 833
1020 1020 1020
1181 1181 1181
1332 1332 1332
1503 1503 1503
1684 1684 1684
1870 1870 1870
2053 2053 2053
2205 2205 2205
224 224 224
259 259 259
287 287 287
331 331 331
400 400 400
488 488 488
593 593 593
717 717 717
854 854 854
1016 1016 1016
1185 1185 1185
1352 1352 1352
1516 1516 1516
1692 1692 1692
1872 1872 1872
2047 2047 2047
2212 2213 2213
384 384 384
380 380 380
413 413 413
458 458 458
533 533 533
622 622 622
730 730 730
852 852 852
987 987 987
1128 1128 1128
1277 1277 1277
1417 1417 1417
1563 1563 1563
1705 1705 1705
1878 1878 1878
2054 2054 2054
2170 2170 2170
592 592 592
575 575 575
586 586 586
642 642 642
713 713 713
801 801 801
905 905 905
1018 1018 1018
1143 1143 1143
1273 1273 1273
1409 1409 1409
1535 1535 1535
1662 1662 1662
1794 1794 1794
1925 1925 1925
2063 2063 2063
2119 2119 2119
818 818 818
834 834 834
830 830 830
864 864 864
924 924 924
1007 1007 1007
1098 1098 1098
1201 1201 1201
1310 1310 1310
1431 1431 1431
1547 1547 1547
1664 1664 1664
1781 1781 1781
1903 1903 1903
2023 2023 2023
2149 2149 2149
2082 2082 2082
1041 1041 1041
1033 1033 1033
1087 1087 1087
1120 1120 1120
1145 1145 1145
1219 1219 1219
1299 1299 1299
1393 1393 1393
1493 1493 1493
1595 1595 1595
1697 1697 1697
1806 1806 1806
1916 1916 1916
2021 2021 2021
2141 2141 2141
2258 2258 2258
2111 2111 2111
1041 1041 1041
1357 1357 1357
1357 1357 1357
1356 1356 1356
1397 1397 1397
1440 1440 1440
1508 1508 1508
1585 1585 1585
1673 1673 1673
1762 1762 1762
1857 1857 1857
1955 1955 1955
2051 2051 2051
2153 2153 2153
2262 2262 2262
2373 2373 2373
2231 2231 2231
1041 1041 1041
1357 1357 1357
1357 1357 1357
1578 1578 1578
1603 1603 1603
1656 1656 1656
1720 1720 1720
1778 1778 1778
1852 1852 1852
1938 1938 1938
2020 2020 2020
2101 2101 2101
2194 2194 2194
2282 2282 2282
2382 2382 2382
2493 2493 2493
2402 2402 2402
1041 1041 1041
1603 1603 1603
1603 1603 1603
1578 1578 1578
1603 1603 1603
1836 1836 1836
1895 1895 1895
1959 1959 1959
2026 2026 2026
2095 2095 2095
2177 2177 2177
2248 2248 2248
2327 2327 2327
2411 2411 2411
2505 2505 2505
2614 2614 2614
2569 2569 2569
1041 1041 1041
1603 1603 1603
1603 1603 1603
1793 1793 1793
1603 1603 1603
1836 1836 1836
1895 1895 1895
2107 2107 2107
2170 2170 2170
2232 2232 2232
2308 2308 2308
2388 2388 2388
2461 2461 2461
2537 2537 2537
2622 2622 2622
2721 2721 2721
2739 2739 2739
1041 1041 1041
1603 1603 1603
1603 1603 1603
1793 1793 1793
2234 2234 2234
2234 2234 2234
2234 2234 2234
2250 2250 2250
2170 2170 2170
2351 2351 2351
2433 2433 2433
2504 2504 2504
2573 2573 2573
2655 2655 2655
2741 2741 2741
2832 2832 2832
2881 2881 2881
1041 1041 1041
1603 1603 1603
1603 1603 1603
1793 1793 1793
1815 1815 1815
2234 2234 2234
2234 2234 2234
2250 2250 2250
2350 2350 2350
2351 2351 2351
2581 2581 2581
2636 2636 2636
2699 2699 2699
2772 2772 2772
2854 2854 2854
2934 2934 2934
3039 3039 3039
1357 1357 1357
1603 1603 1603
1603 1603 1603
1793 1793 1793
1819 1819 1819
2234 2234 2234
2234 2234 2234
2250 2250 2250
2350 2350 2350
2581 2581 2581
2581 2581 2581
2636 2636 2636
2699 2699 2699
2897 2897 2897
2854 2854 2854
2934 2934 2934
3039 3039 3039
1357 1357 1357
1603 1603 1603
1603 1603 1603
1793 1793 1793
1819 1819 1819
2234 2234 2234
2234 2234 2234
2250 2250 2250
2350 2350 2350
2581 2581 2581
2581 2581 2581
2636 2636 2636
2897 2897 2897
2897 2897 2897
2958 2958 2958
2958 2958 2958
3039 3039 3039
1357 1357 1357
1603 1603 1603
1603 1603 1603
1793 1793 1793
1819 1819 1819
2234 2234 2234
2234 2234 2234
2250 2250 2250
2350 2350 2350
2581 2581 2581
2581 2581 2581
2636 2636 2636
2897 2897 2897
2897 2897 2897
2958 2958 2958
2958 2958 2958
3039 3039 3039
194 194 193
228 228 228
276 276 276
296 296 296
408 408 408
507 507 507
883 883 883
883 883 883
961 961 961
1099 1099 1099
1233 1233 1233
1377 1377 1377
1532 1532 1532
1687 1687 1687
1849 1849 1849
2005 2006 2005
2137 2137 2137
216 216 216
228 228 228
276 276 276
296 296 296
408 408 408
507 507 507
634 634 634
803 803 803
956 956 956
1096 1096 1096
1238 1238 1238
1390 1390 1390
1557 1557 1557
1735 1735 1735
1919 1919 1919
2081 2081 2081
