Fujifilm XTrans III/Acros.3dl
#Created by: Affinity Photo (Serif Europe Ltd.)
0 256 512 767 1023
16 16 16
175 175 175
895 895 896
1536 1536 1537
2197 2197 2197
344 344 344
576 576 576
1100 1100 1100
1721 1721 1721
2337 2337 2337
1102 1102 1102
1571 1571 1571
1861 1861 1861
2273 2273 2273
2681 2681 2681
1571 1571 1571
1788 1788 1788
2434 2434 2434
2843 2843 2843
3245 3245 3245
1693 1693 1693
2016 2016 2016
2593 2593 2593
3389 3389 3389
3389 3389 3389
204 204 204
712 712 712
1173 1173 1173
1760 1760 1760
2337 2337 2337
526 526 526
784 784 784
1391 1391 1391
2047 2047 2047
2663 2663 2663
1451 1451 1451
1634 1634 1634
2027 2027 2027
2470 2470 2470
3021 3021 3021
1451 1451 1451
2210 2210 2210
2599 2599 2599
2939 2939 2939
3369 3369 3369
2210 2210 2210
2477 2477 2477
2771 2771 2771
3173 3173 3173
3347 3347 3347
710 710 710
1254 1254 1254
1670 1670 1670
2183 2183 2183
2659 2659 2659
1190 1190 1190
1374 1374 1374
1850 1850 1850
2357 2357 2357
2914 2914 2914
1968 1968 1968
2088 2088 2088
2371 2371 2371
2746 2746 2746
3199 3199 3199
2395 2395 2395
2733 2733 2733
2893 2893 2893
3162 3162 3162
3548 3548 3548
2664 2664 2664
2733 2733 2733
3018 3018 3018
3420 3420 3420
3626 3626 3626
1458 1458 1458
1889 1889 1889
2215 2215 2215
2653 2653 2653
3050 3050 3050
1869 1869 1869
2004 2004 2004
2337 2337 2337
2736 2736 2736
3202 3202 3202
2408 2408 2408
2539 2539 2539
2770 2770 2770
3046 3046 3046
3424 3424 3424
2721 2721 2721
3063 3063 3063
3223 3223 3223
3439 3439 3439
3765 3765 3765
3063 3063 3063
3266 3266 3266
3620 3620 3620
3747 3747 3747
3905 3905 3905
1705 1705 1705
2263 2263 2263
2591 2591 2591
2976 2976 2976
3299 3299 3299
2054 2054 2054
2399 2399 2399
2675 2675 2675
2999 2999 2999
3332 3332 3332
2546 2546 2546
2742 2742 2742
3037 3037 3037
3299 3299 3299
3532 3532 3532
3083 3083 3083
3382 3382 3382
3637 3637 3637
3854 3854 3854
3939 3939 3939
3228 3228 3228
3419 3419 3419
3716 3716 3716
3973 3973 3973
4074 4074 4074
