Fujifilm XTrans III/Astia.3dl
#Created by: Affinity Photo (Serif Europe Ltd.)
0 64 128 192 256 320 384 448 512 575 639 703 767 831 895 959 1023
0 1 2
0 3 18
0 6 74
0 3 691
0 70 1150
0 249 1714
0 385 2292
5 473 2749
63 509 3044
402 532 3260
710 548 3431
975 546 3607
1217 514 3795
1442 476 3956
1662 487 4060
1887 663 4093
2102 990 4095
1 6 2
0 16 40
0 32 129
0 28 506
0 137 1077
0 320 1672
0 431 2195
2 522 2684
29 571 3039
277 590 3279
646 599 3435
941 595 3601
1183 564 3785
1412 528 3951
1651 531 4062
1886 701 4093
2113 1021 4095
0 58 0
0 105 37
0 128 206
0 205 468
0 295 977
0 397 1504
0 505 2051
1 620 2581
8 732 3024
39 810 3364
235 846 3546
598 862 3646
959 833 3771
1244 779 3925
1527 717 4057
1809 800 4094
2073 1068 4095
0 275 0
0 296 26
0 337 218
0 434 485
0 497 938
0 575 1474
0 683 2008
0 796 2487
1 908 2922
7 1029 3300
20 1140 3615
57 1232 3810
248 1300 3864
609 1326 3904
1017 1297 4002
1378 1244 4083
1758 1331 4094
0 696 0
0 588 2
0 682 168
0 724 469
0 808 900
0 874 1441
0 956 1956
0 1051 2429
0 1146 2833
1 1244 3185
9 1351 3502
21 1462 3760
39 1575 3929
78 1685 4000
225 1784 4025
552 1814 4056
1041 1815 4093
0 996 0
0 976 1
0 1031 19
0 1034 463
0 1129 856
0 1207 1373
0 1267 1913
0 1337 2384
0 1422 2794
0 1507 3134
3 1595 3437
16 1687 3685
33 1783 3878
58 1890 3991
103 2014 4061
161 2122 4088
440 2207 4094
0 996 0
0 1394 0
0 1394 7
0 1528 214
0 1489 837
0 1534 1322
0 1596 1851
0 1655 2326
0 1718 2739
0 1787 3103
0 1860 3404
8 1937 3644
29 2021 3844
54 2109 3974
93 2210 4055
204 2307 4090
556 2402 4095
0 1394 0
0 1394 0
10 1867 0
0 1528 214
0 1838 778
1 1861 1295
0 1914 1791
0 1962 2267
0 2013 2675
0 2070 3050
0 2130 3360
3 2192 3615
21 2261 3825
57 2336 3964
97 2422 4045
200 2500 4088
585 2573 4095
0 1824 0
10 1867 0
10 1867 0
8 2190 26
1 2265 587
1 2220 1273
3 2215 1759
0 2243 2229
0 2297 2628
0 2340 2991
0 2386 3295
4 2433 3558
18 2487 3793
58 2551 3965
115 2626 4044
184 2698 4085
562 2758 4095
0 1394 0
35 2263 3
1 2265 587
1 2265 587
1 2265 587
0 2464 1354
3 2485 1731
2 2516 2170
0 2543 2582
3 2584 2928
5 2619 3238
12 2655 3511
33 2698 3745
75 2750 3948
146 2815 4049
202 2891 4085
538 2950 4095
0 1394 0
35 2263 3
1 2265 587
1 2265 587
0 2464 1354
0 2464 1354
3 2485 1731
24 2689 2210
9 2743 2544
27 2777 2892
51 2820 3180
57 2855 3460
68 2891 3708
114 2935 3922
196 2996 4053
270 3070 4088
552 3133 4094
1 2265 587
97 2452 4
97 2452 4
0 2464 1354
0 2464 1354
0 2464 1354
24 2689 2210
24 2689 2210
73 2949 2831
73 2949 2831
162 2979 3150
216 3028 3401
232 3063 3655
258 3104 3908
327 3158 4072
361 3228 4092
557 3301 4094
1 2265 587
97 2452 4
97 2452 4
0 2464 1354
0 2464 1354
24 2689 2210
24 2689 2210
130 2950 2495
73 2949 2831
73 2949 2831
274 3176 3075
367 3187 3379
496 3220 3611
569 3262 3883
670 3321 4087
742 3405 4094
715 3497 4095
1 2265 587
97 2452 4
97 2452 4
27 2685 1704
0 2464 1354
307 3173 1409
307 3173 1409
130 2950 2495
166 3158 2732
497 3367 3085
497 3367 3085
599 3465 3350
552 3389 3586
703 3436 3850
976 3506 4073
1070 3584 4095
1171 3684 4095
97 2452 4
97 2452 4
27 2685 1704
27 2685 1704
27 2685 1704
307 3173 1409
307 3173 1409
130 2950 2495
166 3158 2732
497 3367 3085
497 3367 3085
599 3465 3350
552 3389 3586
703 3436 3850
1590 3745 4014
1590 3745 4014
1171 3684 4095
97 2452 4
97 2452 4
27 2685 1704
27 2685 1704
27 2685 1704
307 3173 1409
307 3173 1409
166 3158 2732
166 3158 2732
599 3465 3350
497 3367 3085
599 3465 3350
552 3389 3586
1590 3745 4014
1590 3745 4014
1590 3745 4014
1171 3684 4095
97 2452 4
97 2452 4
27 2685 1704
27 2685 1704
27 2685 1704
307 3173 1409
307 3173 1409
166 3158 2732
166 3158 2732
599 3465 3350
497 3367 3085
599 3465 3350
1590 3745 4014
1590 3745 4014
1590 3745 4014
1590 3745 4014
1590 3745 4014
10 3 3
5 8 21
4 13 80
0 3 691
0 70 1150
134 299 1685
163 433 2214
387 483 2768
586 513 3040
812 541 3258
1018 565 3428
1206 575 3600
1400 558 3786
1594 532 3953
1781 544 4059
1978 714 4093
2170 1028 4095
25 10 4
17 22 37
18 46 107
42 107 361
92 213 1198
134 299 1685
163 433 2214
296 572 2738
533 643 3087
776 684 3320
1021 727 3473
1250 772 3604
1487 787 3757
1718 790 3925
1939 806 4058
2155 930 4094
2215 1183 4095
1 61 0
36 93 43
32 134 173
37 212 448
48 296 900
90 390 1496
133 514 2086
202 663 2645
326 824 3106
523 958 3453
771 1025 3661
1005 1105 3745
1272 1174 3772
1511 1215 3867
1762 1217 4015
2007 1242 4091
2220 1229 4095
0 291 0
22 279 31
31 317 213
30 402 468
28 473 907
36 574 1458
49 698 2033
81 840 2568
186 985 3029
353 1153 3436
513 1320 3752
685 1453 3992
930 1566 4011
1199 1664 3971
1482 1723 3964
1742 1738 4041
2050 1375 4094
13 663 0
12 605 6
15 636 160
14 716 462
9 789 893
9 872 1421
12 974 1970
23 1087 2502
60 1215 2961
207 1353 3347
410 1505 3672
581 1653 3940
747 1799 4080
940 1945 4091
1164 2082 4084
1403 2195 4055
1481 1782 4094
41 987 0
4 991 2
5 1043 35
5 1075 435
5 1148 807
2 1203 1373
3 1283 1891
8 1369 2408
32 1479 2873
72 1602 3273
251 1722 3586
495 1849 3857
686 1971 4060
879 2106 4086
1077 2243 4090
1267 2372 4091
755 2230 4094
71 1429 0
10 1322 0
9 1515 2
5 1426 260
6 1487 735
5 1555 1284
1 1606 1831
2 1677 2300
9 1754 2757
56 1850 3185
147 1955 3518
376 2058 3779
623 2170 4007
845 2281 4088
1045 2392 4090
1235 2509 4091
747 2455 4094
0 1824 0
10 1867 0
10 1867 0
9 1850 111
8 1852 731
10 1872 1244
2 1922 1755
3 1981 2218
7 2042 2655
29 2107 3077
136 2187 3424
295 2275 3708
527 2367 3937
817 2459 4084
1048 2557 4091
1244 2659 4093
801 2617 4094
0 1824 0
10 1867 0
10 1867 0
8 2190 26
15 2198 636
14 2210 1204
17 2218 1708
10 2257 2179
15 2314 2583
36 2370 2971
111 2421 3312
266 2490 3598
498 2557 3866
786 2630 4069
1044 2710 4093
1268 2806 4093
797 2793 4095
0 1824 0
35 2263 3
35 2263 3
8 2190 26
32 2468 501
10 2462 1178
19 2506 1705
19 2516 2131
28 2553 2542
62 2608 2883
137 2647 3212
300 2690 3512
526 2739 3780
793 2798 4014
1071 2868 4091
1298 2958 4094
783 2980 4095
0 1824 0
97 2452 4
97 2452 4
54 2499 20
10 2462 1178
10 2462 1178
27 2685 1704
47 2727 2125
60 2752 2494
122 2793 2859
228 2843 3140
361 2880 3429
560 2916 3699
817 2961 3941
1080 3023 4087
1341 3104 4094
802 3161 4094
0 1824 0
97 2452 4
97 2452 4
54 2499 20
27 2685 1704
27 2685 1704
27 2685 1704
130 2950 2495
130 2950 2495
187 2957 2840
322 2993 3126
460 3049 3363
621 3089 3623
844 3129 3889
1088 3174 4081
1346 3245 4094
873 3326 4094
0 1824 0
97 2452 4
97 2452 4
54 2499 20
27 2685 1704
27 2685 1704
307 3173 1409
130 2950 2495
166 3158 2732
166 3158 2732
381 3185 3080
543 3192 3357
689 3226 3582
869 3277 3846
1065 3341 4080
1296 3428 4095
889 3531 4095
0 1824 0
97 2452 4
97 2452 4
54 2499 20
27 2685 1704
307 3173 1409
307 3173 1409
166 3158 2732
166 3158 2732
497 3367 3085
497 3367 3085
633 3402 3287
770 3392 3589
929 3434 3827
1118 3521 4074
1347 3563 4095
1406 3733 4095
97 2452 4
97 2452 4
97 2452 4
27 2685 1704
27 2685 1704
307 3173 1409
307 3173 1409
166 3158 2732
166 3158 2732
497 3367 3085
497 3367 3085
633 3402 3287
770 3392 3589
929 3434 3827
1118 3521 4074
1347 3563 4095
1406 3733 4095
97 2452 4
97 2452 4
97 2452 4
27 2685 1704
27 2685 1704
307 3173 1409
307 3173 1409
166 3158 2732
166 3158 2732
633 3402 3287
497 3367 3085
633 3402 3287
770 3392 3589
1590 3745 4014
1590 3745 4014
1590 3745 4014
1406 3733 4095
97 2452 4
97 2452 4
27 2685 1704
27 2685 1704
27 2685 1704
307 3173 1409
307 3173 1409
166 3158 2732
166 3158 2732
633 3402 3287
497 3367 3085
633 3402 3287
770 3392 3589
1590 3745 4014
1590 3745 4014
1590 3745 4014
1406 3733 4095
129 1 0
77 11 8
4 13 80
171 133 431
251 215 1094
302 304 1652
411 465 2257
639 512 2843
815 520 3043
1014 548 3267
1192 577 3435
1362 597 3609
1528 592 3787
1699 573 3953
1863 583 4059
2043 746 4093
2221 1054 4095
129 10 0
109 38 33
105 76 117
171 133 431
251 215 1094
302 304 1652
411 465 2257
564 591 2737
752 666 3090
951 714 3338
1143 769 3491
1349 823 3614
1566 862 3752
1781 885 3909
2008 866 4057
2213 978 4093
2303 1226 4095
109 108 0
112 134 45
140 170 158
180 246 439
231 323 929
303 414 1509
380 532 2088
458 680 2633
575 838 3093
734 984 3462
931 1071 3692
1141 1127 3763
1360 1217 3784
1595 1270 3862
1825 1279 4003
2086 1270 4090
2298 1344 4095
10 410 0
120 296 34
129 351 138
150 424 432
182 499 899
235 594 1471
298 711 2040
372 856 2577
480 1001 3034
599 1166 3434
725 1334 3764
876 1482 4007
1074 1597 4031
1305 1698 3982
1562 1760 3965
1819 1768 4036
2240 1465 4094
61 701 0
76 598 11
93 645 64
86 714 415
89 812 837
128 891 1401
178 987 1985
262 1100 2497
360 1230 2954
502 1372 3350
653 1530 3682
792 1674 3955
930 1826 4087
1085 1967 4093
1277 2115 4088
1495 2231 4062
1809 1783 4093
82 1057 0
23 1019 0
39 1005 16
44 1073 319
51 1147 793
56 1222 1299
99 1295 1870
158 1383 2406
275 1490 2862
378 1611 3260
536 1741 3591
711 1866 3856
877 1996 4067
1040 2125 4090
1209 2261 4092
1375 2391 4092
1098 2227 4094
71 1429 0
20 1493 0
25 1454 3
28 1464 191
37 1500 718
46 1554 1251
48 1622 1757
90 1687 2290
154 1766 2748
296 1859 3173
435 1960 3504
620 2072 3774
817 2180 4007
1001 2295 4091
1183 2409 4091
1360 2526 4092
905 2497 4094
0 1824 0
22 1819 0
21 1875 3
24 1873 77
36 1853 652
39 1888 1188
38 1931 1694
59 1994 2174
117 2051 2643
227 2115 3077
380 2193 3412
544 2283 3691
749 2377 3933
966 2466 4086
1175 2566 4093
1360 2668 4093
961 2659 4094
0 1824 0
35 2263 3
35 2263 3
30 2200 21
29 2196 563
43 2203 1133
55 2228 1648
75 2269 2126
101 2329 2539
185 2372 2964
328 2427 3304
496 2496 3593
718 2566 3852
954 2639 4061
1177 2721 4094
1379 2814 4093
962 2825 4094
0 1824 0
35 2263 3
35 2263 3
54 2499 20
32 2468 501
42 2477 1103
57 2507 1609
81 2528 2081
116 2565 2496
191 2618 2852
327 2653 3204
504 2693 3504
726 2749 3770
958 2801 4003
1194 2871 4091
1401 2963 4094
952 3005 4095
0 1824 0
97 2452 4
97 2452 4
54 2499 20
32 2468 501
55 2711 1129
86 2738 1554
110 2748 2039
174 2770 2460
246 2804 2825
376 2854 3121
542 2883 3420
744 2918 3687
972 2964 3933
1207 3027 4086
1442 3107 4093
949 3178 4094
0 1824 0
97 2452 4
97 2452 4
96 2704 20
32 2468 501
55 2711 1129
86 2738 1554
130 3069 1683
245 2948 2446
327 2967 2803
455 3006 3097
604 3060 3339
779 3093 3611
994 3127 3880
1214 3178 4079
1444 3248 4094
1058 3345 4094
0 1824 0
97 2452 4
97 2452 4
96 2704 20
307 3173 1409
307 3173 1409
307 3173 1409
346 3168 1695
245 2948 2446
326 3159 2750
505 3181 3063
681 3197 3345
820 3236 3566
989 3288 3838
1194 3344 4074
1399 3430 4095
917 3552 4095
0 1824 0
97 2452 4
97 2452 4
96 2704 20
27 2685 1704
307 3173 1409
307 3173 1409
346 3168 1695
479 3169 2292
326 3159 2750
639 3375 2961
753 3385 3321
889 3402 3573
1052 3449 3805
1228 3520 4064
1438 3589 4095
1562 3734 4095
35 2263 3
97 2452 4
97 2452 4
96 2704 20
114 2740 330
307 3173 1409
307 3173 1409
346 3168 1695
479 3169 2292
639 3375 2961
639 3375 2961
753 3385 3321
889 3402 3573
1226 3608 3787
1228 3520 4064
1438 3589 4095
1562 3734 4095
35 2263 3
97 2452 4
97 2452 4
96 2704 20
114 2740 330
307 3173 1409
307 3173 1409
346 3168 1695
479 3169 2292
639 3375 2961
639 3375 2961
753 3385 3321
1226 3608 3787
1226 3608 3787
1357 3653 3953
1357 3653 3953
1562 3734 4095
35 2263 3
97 2452 4
97 2452 4
96 2704 20
114 2740 330
307 3173 1409
307 3173 1409
346 3168 1695
479 3169 2292
639 3375 2961
639 3375 2961
753 3385 3321
1226 3608 3787
1226 3608 3787
1357 3653 3953
1357 3653 3953
1562 3734 4095
374 0 0
311 55 31
380 104 151
403 139 402
549 238 1069
672 309 1506
1066 502 2831
1066 502 2831
1115 534 3043
1266 575 3270
1410 610 3446
1565 645 3613
1725 660 3790
1866 651 3949
2010 653 4060
2170 808 4093
2323 1108 4095
382 16 0
311 55 31
380 104 151
403 139 402
549 238 1069
672 309 1506
700 468 2208
855 612 2708
1015 704 3097
1168 767 3360
1327 833 3521
1498 906 3637
1696 960 3753
1895 987 3899
2104 966 4046
2297 1051 4093
