Fujifilm XTrans III/Astia.3dl
#Created by: Affinity Photo (Serif Europe Ltd.)
0 128 256 384 512 639 767 895 1023
0 1 2
0 6 74
0 70 1150
0 385 2292
63 509 3044
710 548 3431
1217 514 3795
1662 487 4060
2102 990 4095
0 58 0
0 128 206
0 295 977
0 505 2051
8 732 3024
235 846 3546
959 833 3771
1527 717 4057
2073 1068 4095
0 696 0
0 682 168
0 808 900
0 956 1956
0 1146 2833
9 1351 3502
39 1575 3929
225 1784 4025
1041 1815 4093
0 996 0
0 1394 7
0 1489 837
0 1596 1851
0 1718 2739
0 1860 3404
29 2021 3844
93 2210 4055
556 2402 4095
0 1824 0
10 1867 0
1 2265 587
3 2215 1759
0 2297 2628
0 2386 3295
18 2487 3793
115 2626 4044
562 2758 4095
0 1394 0
1 2265 587
0 2464 1354
3 2485 1731
9 2743 2544
51 2820 3180
68 2891 3708
196 2996 4053
552 3133 4094
1 2265 587
97 2452 4
0 2464 1354
24 2689 2210
73 2949 2831
274 3176 3075
496 3220 3611
670 3321 4087
715 3497 4095
97 2452 4
27 2685 1704
27 2685 1704
307 3173 1409
166 3158 2732
497 3367 3085
552 3389 3586
1590 3745 4014
1171 3684 4095
97 2452 4
27 2685 1704
27 2685 1704
307 3173 1409
166 3158 2732
497 3367 3085
1590 3745 4014
1590 3745 4014
1590 3745 4014
129 1 0
4 13 80
251 215 1094
411 465 2257
815 520 3043
1192 577 3435
1528 592 3787
1863 583 4059
2221 1054 4095
109 108 0
140 170 158
231 323 929
380 532 2088
575 838 3093
931 1071 3692
1360 1217 3784
1825 1279 4003
2298 1344 4095
61 701 0
93 645 64
89 812 837
178 987 1985
360 1230 2954
653 1530 3682
930 1826 4087
1277 2115 4088
1809 1783 4093
71 1429 0
25 1454 3
37 1500 718
48 1622 1757
154 1766 2748
435 1960 3504
817 2180 4007
1183 2409 4091
905 2497 4094
0 1824 0
35 2263 3
29 2196 563
55 2228 1648
101 2329 2539
328 2427 3304
718 2566 3852
1177 2721 4094
962 2825 4094
0 1824 0
97 2452 4
32 2468 501
86 2738 1554
174 2770 2460
376 2854 3121
744 2918 3687
1207 3027 4086
949 3178 4094
0 1824 0
97 2452 4
307 3173 1409
307 3173 1409
245 2948 2446
505 3181 3063
820 3236 3566
1194 3344 4074
917 3552 4095
35 2263 3
97 2452 4
114 2740 330
307 3173 1409
479 3169 2292
639 3375 2961
889 3402 3573
1228 3520 4064
1562 3734 4095
35 2263 3
97 2452 4
114 2740 330
307 3173 1409
479 3169 2292
639 3375 2961
1226 3608 3787
1357 3653 3953
1562 3734 4095
730 4 0
767 146 176
1487 336 1021
1081 512 2172
1435 568 3048
1668 674 3462
1932 755 3786
2199 745 4061
2470 1180 4095
788 153 0
729 268 143
845 416 950
999 620 2063
1175 908 3025
1407 1183 3698
1714 1340 3841
2097 1451 3980
2545 1488 4095
762 648 0
738 731 48
842 864 833
961 1026 1933
1107 1262 2888
1271 1558 3599
1448 1862 4071
1670 2159 4092
2206 2298 4077
397 1553 0
491 1511 3
603 1558 635
762 1655 1709
957 1794 2701
1164 1983 3442
1369 2204 3954
1610 2435 4093
1927 2738 4094
305 2154 0
242 2194 2
307 2254 359
514 2273 1535
763 2347 2497
1034 2447 3255
1309 2579 3796
1593 2736 4092
1910 2993 4094
305 2154 0
235 2472 1
359 2756 261
466 2786 1403
668 2817 2341
987 2864 3075
1305 2925 3653
1609 3037 4079
1545 3250 4094
305 2154 0
355 3016 318
355 3016 318
493 3196 1345
708 3184 2203
988 3199 2971
1259 3266 3517
1575 3346 4059
1721 3555 4095
355 3016 318
355 3016 318
749 3230 936
1104 3370 1826
914 3358 2338
1024 3382 2877
1330 3589 3531
1555 3708 4089
1827 3767 4095
355 3016 318
749 3230 936
749 3230 936
1104 3370 1826
914 3358 2338
1330 3589 3531
1330 3589 3531
1555 3708 4089
1555 3708 4089
1621 75 0
1093 184 185
1681 461 1692
1792 579 2125
2060 730 3003
2206 877 3511
2411 966 3787
2622 956 4060
2815 1369 4095
1666 282 0
1616 375 128
1714 516 993
1796 714 2025
1898 993 2917
2035 1278 3601
2228 1476 3897
2478 1670 3969
2861 1660 4095
1684 834 0
1646 829 47
1700 922 873
1759 1088 1873
1840 1324 2792
1926 1617 3490
2036 1908 4006
2169 2194 4093
2563 2403 4080
1590 1584 0
1559 1556 4
1599 1607 647
1684 1702 1663
1775 1836 2639
1885 2023 3361
1994 2234 3873
2131 2464 4093
2378 2765 4094
1395 2242 0
1407 2234 2
1424 2276 416
1546 2297 1528
1667 2375 2435
1797 2471 3185
1934 2604 3726
2111 2754 4088
2365 3014 4094
1382 2461 0
1341 2499 1
1256 2792 284
1379 2820 1349
1563 2829 2308
1746 2881 3015
1912 2943 3591
2103 3056 4055
2366 3304 4094
1580 2761 8
1602 3058 29
1338 3205 901
1235 3201 1327
1433 3200 2155
1640 3224 2916
1868 3272 3473
2073 3357 4031
2316 3571 4095
1602 3058 29
1602 3058 29
1338 3205 901
1104 3370 1826
1393 3369 2214
1609 3396 2869
2156 3674 3505
1998 3675 3870
2226 3755 4095
1602 3058 29
1338 3205 901
1338 3205 901
1104 3370 1826
1393 3369 2214
1609 3396 2869
2156 3674 3505
1998 3675 3870
1998 3675 3870
2032 215 0
2486 493 206
2499 576 1664
2582 754 2439
2673 893 2903
2747 1074 3498
2887 1171 3804
3069 1201 4052
3208 1627 4095
2438 441 3
2486 493 206
2541 624 985
2547 833 1983
2599 1098 2847
2657 1375 3481
2743 1601 3911
2904 1851 3968
3218 1898 4095
2406 950 0
2497 921 132
2498 1017 957
2522 1180 1860
2548 1410 2711
2584 1676 3384
2630 1962 3902
2705 2239 4093
2987 2487 4082
2321 1552 0
2396 1617 18
2410 1667 718
2443 1754 1702
2486 1898 2599
2526 2073 3272
2574 2282 3774
2649 2506 4092
2828 2795 4094
2309 2217 0
2285 2274 3
2284 2314 534
2333 2340 1534
2398 2411 2392
2461 2506 3121
2531 2629 3659
2621 2781 4074
2800 3031 4094
2528 2818 0
2283 2830 2
2167 2824 366
2224 2838 1369
2308 2850 2275
2393 2903 2950
2476 2970 3511
2589 3080 4003
2784 3322 4094
2283 2830 2
2576 3051 106
2089 3214 935
2113 3212 1353
2213 3213 2158
2305 3235 2875
2434 3285 3426
2560 3367 3993
2738 3586 4095
2576 3051 106
2576 3051 106
2089 3214 935
1937 3419 1763
2079 3411 2195
2281 3404 2830
2399 3645 3466
2536 3715 3981
2654 3637 4095
2576 3051 106
2576 3051 106
2089 3214 935
1937 3419 1763
2079 3411 2195
2399 3645 3466
2399 3645 3466
2536 3715 3981
2708 3773 4095
3157 583 228
3526 630 924
3305 669 1269
3226 887 2162
3225 1038 2855
3241 1242 3421
3322 1374 3812
3475 1474 4043
3572 1931 4095
3157 583 228
3179 654 546
3185 775 1226
3201 971 2015
3191 1218 2816
3195 1476 3393
3216 1726 3878
3319 1992 3982
3564 2191 4094
3151 1043 89
3156 1042 406
3161 1144 1084
3154 1300 1903
3145 1512 2686
3145 1755 3301
3142 2025 3819
3164 2301 4094
3411 2564 4086
2972 1645 0
3061 1692 172
3062 1753 897
3071 1824 1791
3079 1960 2583
3075 2134 3204
3083 2332 3692
3117 2547 4082
3259 2824 4094
2873 2244 0
2941 2322 48
2939 2353 737
2958 2382 1591
2976 2447 2424
2996 2549 3070
3016 2667 3596
3068 2820 4039
3217 3070 4094
2917 2504 0
2866 2797 20
2816 2853 608
2841 2867 1464
2879 2879 2284
2921 2924 2931
2965 2989 3482
3037 3101 3981
3188 3341 4094
2528 2818 0
2795 3002 237
2601 3215 342
2787 3217 1436
2818 3227 2163
2864 3251 2851
2916 3306 3386
3011 3395 3951
3182 3615 4095
2795 3002 237
2601 3215 342
2601 3215 342
2715 3404 1542
2809 3405 2139
2830 3425 2800
2955 3676 3414
2992 3758 3964
3157 3771 4095
2601 3215 342
2601 3215 342
2715 3404 1542
2715 3404 1542
2809 3405 2139
2955 3676 3414
2955 3676 3414
2992 3758 3964
3267 3819 4095
3338 666 347
3630 739 1115
3633 835 1905
3700 972 2270
3677 1152 2832
3671 1377 3385
3717 1533 3813
3817 1614 4046
3838 2225 4095
3577 854 495
3613 810 888
3640 926 1441
3673 1110 2083
3659 1338 2814
3644 1598 3356
3637 1838 3826
3689 2092 4007
3811 2452 4094
3530 1297 283
3593 1194 727
3645 1273 1324
3634 1415 2023
3625 1616 2700
3599 1851 3274
3581 2096 3750
3568 2356 4092
3714 2668 4088
3421 1785 135
3502 1769 551
3571 1824 1150
3564 1902 1895
3547 2029 2616
3524 2196 3182
3515 2390 3647
3522 2590 4059
3607 2857 4094
3334 2382 0
3383 2348 341
3442 2397 967
3448 2433 1709
3449 2490 2470
3446 2590 3053
3449 2706 3564
3469 2854 4013
3560 3100 4094
3425 2785 39
3278 2839 189
3309 2883 865
3338 2892 1588
3355 2912 2313
3368 2954 2934
3385 3028 3452
3419 3141 3941
3515 3359 4094
3425 2785 39
3289 3023 596
3263 3231 959
3281 3231 1564
3300 3248 2226
3324 3275 2838
3351 3327 3365
3431 3416 3888
3568 3626 4094
3425 2785 39
3263 3231 959
3263 3231 959
3287 3414 1559
3306 3417 2165
3605 3633 2827
3359 3492 3369
3349 3741 3868
3571 3791 4095
3263 3231 959
3263 3231 959
3287 3414 1559
3287 3414 1559
3655 3652 2259
3605 3633 2827
3614 3702 3325
3349 3741 3868
3684 3822 4095
3613 810 888
3630 739 1115
3873 993 1906
4095 1206 2664
4045 1357 2945
3986 1529 3391
3990 1726 3828
4039 1886 4051
4055 2593 4095
3577 854 495
3877 1098 1230
3877 1027 1540
4095 1206 2182
4050 1468 2848
4006 1705 3360
3995 1940 3819
4007 2174 4052
4077 2501 4091
3880 1443 642
3842 1268 918
4095 1475 1626
4031 1532 2182
4008 1720 2760
3990 1937 3254
3980 2166 3739
3955 2401 4092
3999 2677 4095
3880 1443 642
3726 1810 761
3983 1888 1365
3986 1970 2024
3956 2101 2678
3934 2268 3185
3919 2452 3631
3935 2635 4072
4038 2863 4095
3334 2382 0
3648 2368 549
3903 2447 1220
3889 2471 1851
3868 2536 2535
3864 2642 3080
3860 2756 3563
3884 2893 4025
4024 3109 4095
3491 2892 364
3731 2924 864
3782 2897 1117
3767 2925 1732
3785 2955 2368
3791 2993 2981
3803 3084 3463
3836 3191 3972
3945 3381 4095
3491 2892 364
3826 3055 945
3673 3271 1154
3689 3293 1691
3710 3320 2286
3721 3351 2845
3746 3409 3382
3792 3497 3873
3897 3693 4095
3826 3055 945
3500 3260 1062
3756 3450 1544
3710 3450 1720
3655 3652 2259
3797 3671 2805
3830 3718 3349
3880 3785 3866
4011 3926 4095
3500 3260 1062
3673 3271 1154
3756 3450 1544
3655 3652 2259
3655 3652 2259
3797 3671 2805
3830 3718 3349
3880 3785 3866
4011 3926 4095
3613 810 888
4095 1206 1664
4095 1126 2315
4095 1206 2664
4095 1470 2948
4095 1546 3674
4095 1859 3952
4095 1977 4012
4055 2593 4095
3842 1268 918
4095 1206 1664
4095 1206 1664
4095 1421 2683
4095 1491 2760
4095 1751 3370
4095 1997 3828
4095 2143 4036
4077 2501 4091
3880 1443 642
4095 1475 1626
4095 1537 1792
4095 1543 2089
4095 1809 2832
4095 1976 3255
4095 2217 3726
4095 2296 4095
3999 2677 4095
3880 1443 642
3946 2224 939
4095 1744 1829
4095 1999 2152
4095 2138 2731
4094 2299 3204
4094 2477 3677
4095 2572 3898
4095 2854 4095
3648 2368 549
3909 2448 958
4095 2206 1731
4094 2539 1893
4092 2583 2583
4085 2684 3096
4093 2786 3604
4095 3051 4095
4095 3051 4095
3491 2892 364
4095 3026 1179
4095 3026 1179
4055 2953 1807
4031 2988 2371
4040 3052 2971
4061 3126 3482
4091 3290 4029
4095 3352 4095
3826 3055 945
3826 3055 945
3940 3326 1558
3940 3346 1773
4095 3458 2338
4095 3542 2837
4095 3590 3536
4095 3645 3736
4082 3704 4095
3826 3055 945
3673 3271 1154
3940 3326 1558
3939 3502 1801
3972 3681 2313
4095 3856 2887
4095 3835 3539
4095 3948 3922
4067 3947 4095
3673 3271 1154
3756 3450 1544
3756 3450 1544
3972 3681 2313
3972 3681 2313
4095 3856 2887
4095 3835 3539
4095 3948 3922
4067 3947 4095
