Fujifilm XTrans III/Astia.3dl
#Created by: Affinity Photo (Serif Europe Ltd.)
0 256 512 767 1023
0 1 2
0 70 1150
63 509 3044
1217 514 3795
2102 990 4095
0 696 0
0 808 900
0 1146 2833
39 1575 3929
1041 1815 4093
0 1824 0
1 2265 587
0 2297 2628
18 2487 3793
562 2758 4095
1 2265 587
0 2464 1354
73 2949 2831
496 3220 3611
715 3497 4095
97 2452 4
27 2685 1704
166 3158 2732
1590 3745 4014
1590 3745 4014
730 4 0
1487 336 1021
1435 568 3048
1932 755 3786
2470 1180 4095
762 648 0
842 864 833
1107 1262 2888
1448 1862 4071
2206 2298 4077
305 2154 0
307 2254 359
763 2347 2497
1309 2579 3796
1910 2993 4094
305 2154 0
355 3016 318
708 3184 2203
1259 3266 3517
1721 3555 4095
355 3016 318
749 3230 936
914 3358 2338
1330 3589 3531
1555 3708 4089
2032 215 0
2499 576 1664
2673 893 2903
2887 1171 3804
3208 1627 4095
2406 950 0
2498 1017 957
2548 1410 2711
2630 1962 3902
2987 2487 4082
2309 2217 0
2284 2314 534
2398 2411 2392
2531 2629 3659
2800 3031 4094
2283 2830 2
2089 3214 935
2213 3213 2158
2434 3285 3426
2738 3586 4095
2576 3051 106
2089 3214 935
2079 3411 2195
2399 3645 3466
2708 3773 4095
3338 666 347
3633 835 1905
3677 1152 2832
3717 1533 3813
3838 2225 4095
3530 1297 283
3645 1273 1324
3625 1616 2700
3581 2096 3750
3714 2668 4088
3334 2382 0
3442 2397 967
3449 2490 2470
3449 2706 3564
3560 3100 4094
3425 2785 39
3263 3231 959
3300 3248 2226
3351 3327 3365
3568 3626 4094
3263 3231 959
3287 3414 1559
3655 3652 2259
3614 3702 3325
3684 3822 4095
3613 810 888
4095 1126 2315
4095 1470 2948
4095 1859 3952
4055 2593 4095
3880 1443 642
4095 1537 1792
4095 1809 2832
4095 2217 3726
3999 2677 4095
3648 2368 549
4095 2206 1731
4092 2583 2583
4093 2786 3604
4095 3051 4095
3826 3055 945
3940 3326 1558
4095 3458 2338
4095 3590 3536
4082 3704 4095
3673 3271 1154
3756 3450 1544
3972 3681 2313
4095 3835 3539
4067 3947 4095
