Fujifilm XTrans III/Classic Chrome.3dl
#Created by: Affinity Photo (Serif Europe Ltd.)
0 64 128 192 256 320 384 448 512 575 639 703 767 831 895 959 1023
0 1 1
0 5 12
0 13 40
0 25 397
0 121 700
0 297 1091
94 458 1516
426 586 1887
720 675 2191
1011 760 2481
1300 843 2765
1589 918 3040
1887 981 3301
2163 1044 3529
2400 1134 3717
2585 1277 3862
2716 1451 3961
1 6 2
0 18 28
0 33 67
0 32 288
0 170 666
6 353 1071
23 480 1435
247 604 1815
598 708 2156
941 796 2470
1247 875 2754
1554 951 3034
1852 1014 3296
2140 1081 3530
2397 1168 3723
2590 1304 3869
2726 1472 3966
0 28 0
0 79 34
0 111 124
0 188 301
10 301 629
17 414 983
29 535 1359
82 669 1754
287 810 2126
637 937 2458
979 1036 2737
1308 1124 3004
1654 1189 3270
1979 1236 3505
2293 1282 3713
2537 1371 3867
2700 1509 3968
0 146 0
0 203 43
0 262 175
0 365 368
3 452 653
12 551 1002
20 679 1374
48 813 1741
107 948 2106
235 1093 2433
485 1235 2722
798 1370 2978
1133 1498 3215
1477 1599 3439
1848 1661 3658
2197 1680 3835
2462 1718 3950
0 501 0
0 428 48
0 527 242
0 583 434
0 688 709
0 789 1054
2 902 1408
12 1029 1769
53 1154 2113
121 1279 2421
205 1411 2706
351 1549 2961
594 1696 3194
901 1848 3401
1233 2001 3608
1591 2096 3788
1925 2115 3920
0 750 0
0 738 69
0 796 210
0 836 513
0 952 755
0 1067 1097
0 1171 1464
0 1279 1814
8 1399 2154
59 1516 2451
155 1635 2723
241 1754 2959
318 1879 3183
450 2015 3385
718 2171 3586
998 2309 3758
1252 2405 3888
0 750 0
2 1095 31
0 1115 274
0 1264 529
0 1271 832
0 1356 1143
0 1462 1517
0 1566 1864
1 1669 2192
10 1775 2492
76 1883 2757
186 1990 2982
273 2100 3194
358 2213 3388
455 2338 3578
516 2452 3743
597 2542 3869
2 1095 31
2 1095 31
10 1550 110
0 1264 529
0 1597 889
1 1661 1209
0 1760 1564
0 1855 1914
0 1951 2230
3 2048 2530
21 2143 2792
103 2232 3013
238 2327 3213
344 2426 3402
435 2534 3584
456 2627 3743
375 2691 3859
22 1497 0
10 1550 110
10 1550 110
7 1914 575
0 2026 908
0 2023 1298
2 2063 1625
0 2136 1974
0 2232 2282
2 2313 2561
14 2391 2817
54 2466 3036
185 2545 3234
337 2631 3418
461 2729 3596
463 2815 3750
373 2873 3862
2 1095 31
33 1951 149
0 2026 908
0 2026 908
0 2026 908
0 2275 1418
2 2333 1691
2 2406 2021
1 2475 2333
6 2552 2596
15 2621 2839
48 2686 3059
153 2752 3252
364 2824 3432
524 2909 3609
543 3000 3766
471 3064 3876
2 1095 31
33 1951 149
0 2026 908
0 2026 908
0 2275 1418
0 2275 1418
2 2333 1691
17 2588 2106
4 2676 2373
21 2746 2636
53 2820 2863
83 2883 3078
150 2943 3269
398 3004 3445
670 3082 3624
777 3172 3787
726 3246 3900
0 2026 908
114 2168 321
114 2168 321
0 2275 1418
0 2275 1418
0 2275 1418
17 2588 2106
17 2588 2106
39 2913 2648
39 2913 2648
101 2976 2901
198 3048 3097
278 3108 3282
486 3168 3466
803 3236 3640
998 3322 3812
1081 3412 3940
0 2026 908
114 2168 321
114 2168 321
0 2275 1418
0 2275 1418
17 2588 2106
17 2588 2106
82 2883 2399
39 2913 2648
39 2913 2648
161 3155 2906
273 3196 3132
450 3251 3303
642 3314 3489
922 3391 3680
1190 3487 3858
1323 3593 3997
0 2026 908
114 2168 321
114 2168 321
12 2535 1726
0 2275 1418
112 3009 1632
112 3009 1632
82 2883 2399
95 3111 2646
326 3332 2976
326 3332 2976
415 3442 3194
453 3396 3329
669 3465 3512
1067 3551 3711
1335 3643 3918
1510 3753 4048
114 2168 321
114 2168 321
12 2535 1726
12 2535 1726
12 2535 1726
112 3009 1632
112 3009 1632
82 2883 2399
95 3111 2646
326 3332 2976
326 3332 2976
415 3442 3194
453 3396 3329
669 3465 3512
1686 3760 3771
1686 3760 3771
1510 3753 4048
114 2168 321
114 2168 321
12 2535 1726
12 2535 1726
12 2535 1726
112 3009 1632
112 3009 1632
95 3111 2646
95 3111 2646
415 3442 3194
326 3332 2976
415 3442 3194
453 3396 3329
1686 3760 3771
1686 3760 3771
1686 3760 3771
1510 3753 4048
114 2168 321
114 2168 321
12 2535 1726
12 2535 1726
12 2535 1726
112 3009 1632
112 3009 1632
95 3111 2646
95 3111 2646
415 3442 3194
326 3332 2976
415 3442 3194
1686 3760 3771
1686 3760 3771
1686 3760 3771
1686 3760 3771
1686 3760 3771
9 4 4
6 11 16
9 20 48
0 25 397
0 121 700
218 377 1077
328 514 1454
707 623 1931
961 706 2220
1233 796 2514
1484 880 2788
1732 958 3050
1994 1025 3305
2246 1095 3536
2460 1184 3723
2632 1317 3868
2755 1478 3964
21 11 6
17 25 30
22 50 71
52 116 226
139 272 754
218 377 1077
328 514 1454
561 672 1873
857 790 2210
1152 890 2500
1439 993 2779
1710 1098 3041
2000 1187 3296
2283 1278 3535
2529 1376 3734
2724 1484 3877
2781 1581 4008
2 33 1
39 83 51
38 127 129
49 207 307
88 308 585
177 426 979
280 565 1387
416 726 1802
603 903 2184
862 1071 2509
1179 1192 2779
1456 1322 3021
1756 1454 3262
2040 1562 3486
2333 1648 3699
2579 1713 3860
2786 1617 4012
1 165 0
27 210 63
41 265 198
50 351 367
72 440 629
124 558 990
219 701 1391
343 864 1792
505 1031 2175
700 1221 2523
901 1405 2805
1129 1563 3043
1411 1721 3259
1696 1876 3458
2007 2006 3655
2300 2088 3827
2657 1736 4005
3 480 0
24 451 70
33 496 254
38 582 446
43 675 707
49 788 1037
94 923 1416
216 1071 1815
407 1232 2194
607 1395 2517
823 1568 2813
1035 1736 3059
1242 1905 3275
1451 2079 3465
1676 2249 3635
1931 2406 3792
2211 2073 3982
53 745 0
15 755 80
15 815 243
12 875 521
14 968 742
18 1064 1099
27 1186 1454
74 1314 1831
223 1460 2212
462 1615 2546
716 1765 2822
953 1920 3067
1174 2068 3277
1388 2229 3461
1599 2392 3632
1800 2547 3786
1534 2438 3954
102 1139 0
10 1042 83
9 1219 177
7 1177 527
7 1266 782
9 1376 1133
12 1470 1512
24 1585 1853
87 1706 2212
270 1845 2555
551 1986 2845
842 2120 3080
1087 2257 3284
1334 2392 3467
1552 2529 3630
1756 2676 3783
834 2597 3932
22 1497 0
10 1550 110
10 1550 110
7 1570 537
7 1610 870
10 1672 1192
5 1767 1552
11 1871 1894
37 1980 2232
138 2094 2564
371 2212 2851
683 2329 3092
981 2445 3283
1266 2565 3468
1515 2689 3640
1734 2818 3791
438 2733 3917
22 1497 0
10 1550 110
10 1550 110
7 1914 575
10 1959 915
11 2011 1261
16 2065 1601
14 2149 1952
28 2250 2267
85 2347 2571
270 2434 2851
549 2533 3087
877 2630 3292
1187 2731 3471
1462 2838 3638
1711 2960 3795
426 2907 3915
22 1497 0
33 1951 149
33 1951 149
7 1914 575
26 2231 921
7 2268 1312
14 2354 1683
16 2406 2000
33 2486 2318
76 2577 2586
194 2653 2845
450 2730 3086
780 2809 3292
1116 2893 3473
1426 2989 3646
1695 3100 3806
515 3097 3923
22 1497 0
114 2168 321
114 2168 321
45 2217 497
7 2268 1312
7 2268 1312
12 2535 1726
33 2622 2061
41 2684 2349
96 2763 2628
214 2844 2855
396 2912 3083
686 2977 3287
1049 3046 3469
1378 3130 3645
1692 3234 3821
727 3279 3943
22 1497 0
114 2168 321
114 2168 321
45 2217 497
12 2535 1726
12 2535 1726
12 2535 1726
82 2883 2399
82 2883 2399
120 2925 2667
230 2991 2898
412 3070 3091
633 3137 3286
963 3200 3478
1312 3265 3651
1648 3359 3833
1178 3447 3978
22 1497 0
114 2168 321
114 2168 321
45 2217 497
12 2535 1726
12 2535 1726
112 3009 1632
82 2883 2399
95 3111 2646
95 3111 2646
261 3166 2921
434 3203 3130
630 3259 3298
904 3331 3487
1215 3416 3685
1557 3520 3880
1427 3635 4031
22 1497 0
114 2168 321
114 2168 321
45 2217 497
12 2535 1726
112 3009 1632
112 3009 1632
95 3111 2646
95 3111 2646
326 3332 2976
326 3332 2976
491 3383 3138
675 3406 3347
898 3466 3512
1191 3565 3707
1573 3633 3918
1687 3800 4062
114 2168 321
114 2168 321
114 2168 321
12 2535 1726
12 2535 1726
112 3009 1632
112 3009 1632
95 3111 2646
95 3111 2646
326 3332 2976
326 3332 2976
491 3383 3138
675 3406 3347
898 3466 3512
1191 3565 3707
1573 3633 3918
1687 3800 4062
114 2168 321
114 2168 321
114 2168 321
12 2535 1726
12 2535 1726
112 3009 1632
112 3009 1632
95 3111 2646
95 3111 2646
491 3383 3138
326 3332 2976
491 3383 3138
675 3406 3347
1686 3760 3771
1686 3760 3771
1686 3760 3771
1687 3800 4062
114 2168 321
114 2168 321
12 2535 1726
12 2535 1726
12 2535 1726
112 3009 1632
112 3009 1632
95 3111 2646
95 3111 2646
491 3383 3138
326 3332 2976
491 3383 3138
675 3406 3347
1686 3760 3771
1686 3760 3771
1686 3760 3771
1687 3800 4062
99 2 0
66 16 14
9 20 48
166 153 297
259 276 699
336 390 1069
480 557 1507
868 669 2014
1097 728 2244
1364 818 2540
1599 903 2804
1836 987 3067
2073 1060 3314
2304 1131 3540
2502 1216 3724
2668 1343 3871
2786 1497 3967
103 14 6
94 43 39
99 83 98
166 153 297
259 276 699
336 390 1069
480 557 1507
703 702 1895
977 820 2227
1255 924 2520
1507 1031 2784
1764 1140 3042
2037 1246 3294
2304 1346 3530
2562 1423 3735
2754 1521 3880
2835 1612 4008
90 89 17
106 122 65
135 164 147
180 244 329
243 345 624
334 457 1009
442 592 1411
565 752 1816
738 926 2194
972 1102 2527
1259 1236 2800
1536 1346 3030
1800 1489 3258
2084 1608 3487
2358 1697 3696
2625 1740 3866
2825 1706 4041
18 280 2
118 242 81
140 295 176
173 374 369
223 468 646
296 587 1017
399 724 1417
515 888 1822
662 1054 2199
828 1240 2534
1006 1423 2818
1220 1594 3058
1479 1750 3265
1753 1906 3464
2050 2037 3656
2344 2116 3828
2777 1806 4039
63 518 1
117 461 109
145 508 201
150 586 439
156 698 690
210 812 1046
301 946 1448
425 1093 1833
584 1253 2211
757 1420 2539
948 1597 2832
1139 1760 3076
1329 1933 3288
1522 2097 3471
1735 2278 3639
1984 2437 3798
2432 2067 4022
114 812 1
74 786 109
103 788 229
101 873 477
98 973 750
113 1083 1072
181 1204 1461
285 1337 1852
459 1478 2225
649 1628 2552
861 1788 2840
1063 1939 3076
1267 2095 3288
1472 2250 3469
1672 2410 3635
1864 2565 3790
1820 2440 4003
102 1139 0
28 1192 87
41 1172 237
46 1212 496
52 1284 792
71 1379 1129
93 1486 1483
175 1602 1869
299 1724 2229
502 1861 2568
732 1995 2851
975 2137 3092
1196 2270 3292
1420 2409 3473
1633 2548 3638
1835 2694 3788
1132 2646 3980
22 1497 0
27 1497 64
28 1566 255
34 1592 509
41 1611 839
48 1688 1178
51 1777 1527
87 1885 1882
195 1995 2244
358 2108 2582
582 2222 2857
850 2341 3095
1116 2459 3295
1356 2573 3474
1595 2699 3643
1811 2829 3794
572 2778 3963
22 1497 0
33 1951 149
33 1951 149
29 1923 516
26 1958 883
40 2002 1224
56 2074 1578
83 2162 1930
121 2265 2255
248 2354 2583
469 2444 2859
732 2543 3096
1023 2642 3295
1299 2742 3476
1554 2851 3644
1789 2969 3797
513 2940 3954
22 1497 0
33 1951 149
33 1951 149
45 2217 497
26 2231 921
33 2283 1278
45 2355 1630
70 2419 1979
116 2499 2301
202 2588 2581
375 2663 2855
634 2735 3092
941 2821 3298
1236 2898 3475
1520 2994 3648
1773 3107 3807
584 3125 3957
22 1497 0
114 2168 321
114 2168 321
45 2217 497
26 2231 921
41 2515 1353
61 2582 1650
77 2640 2014
126 2703 2342
202 2775 2619
351 2857 2857
568 2918 3089
852 2982 3290
1179 3052 3473
1484 3137 3652
1774 3239 3822
737 3299 3968
22 1497 0
114 2168 321
114 2168 321
81 2439 629
26 2231 921
41 2515 1353
61 2582 1650
79 2924 1800
169 2883 2379
236 2935 2656
353 3005 2892
546 3081 3089
791 3143 3290
1109 3201 3482
1428 3272 3660
1732 3364 3837
1247 3470 3997
22 1497 0
114 2168 321
114 2168 321
81 2439 629
112 3009 1632
112 3009 1632
112 3009 1632
112 3031 1854
169 2883 2379
223 3116 2666
379 3167 2921
571 3211 3134
762 3270 3300
1025 3343 3494
1343 3421 3692
1644 3523 3877
1418 3661 4054
22 1497 0
114 2168 321
114 2168 321
81 2439 629
12 2535 1726
112 3009 1632
112 3009 1632
112 3031 1854
313 3089 2328
223 3116 2666
431 3339 2904
614 3376 3168
799 3417 3349
1029 3481 3516
1310 3567 3712
1645 3654 3919
1830 3809 4073
33 1951 149
114 2168 321
114 2168 321
81 2439 629
91 2494 886
112 3009 1632
112 3009 1632
112 3031 1854
313 3089 2328
431 3339 2904
431 3339 2904
614 3376 3168
799 3417 3349
1191 3617 3554
1310 3567 3712
1645 3654 3919
1830 3809 4073
33 1951 149
114 2168 321
114 2168 321
81 2439 629
91 2494 886
112 3009 1632
112 3009 1632
112 3031 1854
313 3089 2328
431 3339 2904
431 3339 2904
614 3376 3168
1191 3617 3554
1191 3617 3554
1391 3665 3674
1391 3665 3674
1830 3809 4073
33 1951 149
114 2168 321
114 2168 321
81 2439 629
91 2494 886
112 3009 1632
112 3009 1632
112 3031 1854
313 3089 2328
431 3339 2904
431 3339 2904
614 3376 3168
1191 3617 3554
1191 3617 3554
1391 3665 3674
1391 3665 3674
1830 3809 4073
281 3 0
246 68 47
317 124 148
351 171 310
499 315 724
623 410 1031
1180 698 2066
1180 698 2066
1302 764 2276
1533 860 2562
1750 948 2828
1972 1040 3084
2195 1125 3329
2396 1197 3545
2581 1277 3731
2739 1392 3877
2848 1536 3974
294 27 6
246 68 47
317 124 148
351 171 310
499 315 724
623 410 1031
698 575 1510
907 737 1917
1155 869 2268
1392 979 2549
1622 1093 2803
1855 1213 3053
2108 1327 3297
2358 1427 3529
2603 1498 3731
2796 1583 3880
