Fujifilm XTrans III/Classic Chrome.3dl
#Created by: Affinity Photo (Serif Europe Ltd.)
0 128 256 384 512 639 767 895 1023
0 1 1
0 13 40
0 121 700
94 458 1516
720 675 2191
1300 843 2765
1887 981 3301
2400 1134 3717
2716 1451 3961
0 28 0
0 111 124
10 301 629
29 535 1359
287 810 2126
979 1036 2737
1654 1189 3270
2293 1282 3713
2700 1509 3968
0 501 0
0 527 242
0 688 709
2 902 1408
53 1154 2113
205 1411 2706
594 1696 3194
1233 2001 3608
1925 2115 3920
0 750 0
0 1115 274
0 1271 832
0 1462 1517
1 1669 2192
76 1883 2757
273 2100 3194
455 2338 3578
597 2542 3869
22 1497 0
10 1550 110
0 2026 908
2 2063 1625
0 2232 2282
14 2391 2817
185 2545 3234
461 2729 3596
373 2873 3862
2 1095 31
0 2026 908
0 2275 1418
2 2333 1691
4 2676 2373
53 2820 2863
150 2943 3269
670 3082 3624
726 3246 3900
0 2026 908
114 2168 321
0 2275 1418
17 2588 2106
39 2913 2648
161 3155 2906
450 3251 3303
922 3391 3680
1323 3593 3997
114 2168 321
12 2535 1726
12 2535 1726
112 3009 1632
95 3111 2646
326 3332 2976
453 3396 3329
1686 3760 3771
1510 3753 4048
114 2168 321
12 2535 1726
12 2535 1726
112 3009 1632
95 3111 2646
326 3332 2976
1686 3760 3771
1686 3760 3771
1686 3760 3771
99 2 0
9 20 48
259 276 699
480 557 1507
1097 728 2244
1599 903 2804
2073 1060 3314
2502 1216 3724
2786 1497 3967
90 89 17
135 164 147
243 345 624
442 592 1411
738 926 2194
1259 1236 2800
1800 1489 3258
2358 1697 3696
2825 1706 4041
63 518 1
145 508 201
156 698 690
301 946 1448
584 1253 2211
948 1597 2832
1329 1933 3288
1735 2278 3639
2432 2067 4022
102 1139 0
41 1172 237
52 1284 792
93 1486 1483
299 1724 2229
732 1995 2851
1196 2270 3292
1633 2548 3638
1132 2646 3980
22 1497 0
33 1951 149
26 1958 883
56 2074 1578
121 2265 2255
469 2444 2859
1023 2642 3295
1554 2851 3644
513 2940 3954
22 1497 0
114 2168 321
26 2231 921
61 2582 1650
126 2703 2342
351 2857 2857
852 2982 3290
1484 3137 3652
737 3299 3968
22 1497 0
114 2168 321
112 3009 1632
112 3009 1632
169 2883 2379
379 3167 2921
762 3270 3300
1343 3421 3692
1418 3661 4054
33 1951 149
114 2168 321
91 2494 886
112 3009 1632
313 3089 2328
431 3339 2904
799 3417 3349
1310 3567 3712
1830 3809 4073
33 1951 149
114 2168 321
91 2494 886
112 3009 1632
313 3089 2328
431 3339 2904
1191 3617 3554
1391 3665 3674
1830 3809 4073
577 25 1
632 192 221
1292 471 833
1012 636 1551
1546 818 2324
1930 1017 2850
2319 1209 3337
2688 1358 3742
2942 1586 3981
647 164 12
601 281 224
732 461 717
936 702 1493
1196 1018 2254
1562 1347 2843
2025 1605 3283
2502 1846 3699
2985 1806 4041
657 532 72
647 613 285
763 786 762
922 1016 1510
1140 1311 2259
1403 1644 2860
1688 1985 3306
2008 2329 3654
2600 2534 3996
430 1275 1
512 1260 319
619 1367 814
781 1550 1533
1018 1778 2283
1298 2037 2880
1599 2309 3312
1939 2585 3652
2330 2942 3980
327 1843 93
263 1898 308
318 2018 816
510 2133 1567
782 2302 2298
1124 2479 2885
1504 2667 3311
1891 2874 3658
2235 3179 3979
327 1843 93
257 2184 286
309 2529 870
384 2640 1594
573 2756 2309
960 2879 2878
1401 3001 3308
1847 3155 3667
1205 3387 4034
327 1843 93
261 2785 944
261 2785 944
297 3033 1620
511 3103 2289
863 3189 2901
1239 3305 3315
1727 3432 3699
1986 3675 4045
261 2785 944
261 2785 944
563 3037 1359
897 3256 2068
680 3279 2447
843 3349 2877
1269 3590 3414
1640 3728 3780
2079 3847 4086
261 2785 944
563 3037 1359
563 3037 1359
897 3256 2068
680 3279 2447
1269 3590 3414
1269 3590 3414
1640 3728 3780
1640 3728 3780
1365 202 125
906 253 282
1503 618 1311
1646 749 1652
2052 986 2398
2317 1211 2901
2634 1407 3360
2949 1552 3764
3175 1717 4002
1422 354 149
1374 439 348
1499 615 872
1642 843 1605
1828 1137 2322
2083 1460 2898
2394 1746 3312
2744 2043 3716
3209 1909 4054
1518 761 128
1441 770 391
1521 910 898
1631 1131 1588
1791 1411 2317
1976 1728 2905
2186 2054 3334
2413 2382 3670
2864 2631 4008
1500 1382 190
1453 1371 441
1502 1474 920
1617 1645 1609
1762 1856 2349
1951 2104 2928
2154 2360 3339
2381 2629 3674
2683 2977 3989
1375 1999 215
1378 2001 427
1386 2093 928
1510 2202 1654
1667 2360 2352
1866 2526 2924
2086 2710 3339
2342 2910 3680
2634 3211 3980
1361 2215 182
1322 2265 407
1205 2597 949
1316 2700 1634
1533 2796 2367
1778 2915 2917
2026 3033 3338
2309 3188 3686
2591 3468 3983
1572 2536 477
1569 2852 797
1217 3039 1377
1089 3067 1671
1328 3142 2326
1610 3231 2932
1929 3326 3344
2247 3454 3722
2566 3698 4038
1569 2852 797
1569 2852 797
1217 3039 1377
897 3256 2068
1255 3298 2409
1552 3385 2940
2263 3691 3514
2125 3704 3704
2485 3851 4084
1569 2852 797
1217 3039 1377
1217 3039 1377
897 3256 2068
1255 3298 2409
1552 3385 2940
2263 3691 3514
2125 3704 3704
2125 3704 3704
1768 357 222
2200 626 522
2276 795 1435
2452 990 2064
2608 1162 2461
2765 1408 2957
2995 1614 3393
3258 1786 3787
3462 1893 4028
2172 560 322
2200 626 522
2286 791 970
2366 1011 1712
2498 1291 2419
2650 1584 2951
2822 1887 3354
3063 2211 3728
3476 2049 4065
2239 934 267
2269 944 551
2302 1073 1057
2378 1279 1706
2477 1540 2394
2594 1827 2951
2714 2142 3362
2860 2452 3688
3204 2707 4020
2274 1444 208
2283 1509 578
2310 1604 1039
2375 1756 1739
2467 1963 2438
2567 2190 2972
2681 2437 3373
2818 2693 3692
3053 3024 4000
2321 2062 324
2268 2112 597
2269 2193 1071
2326 2293 1751
2419 2437 2417
2528 2590 2978
2648 2760 3375
2801 2956 3704
3020 3239 3991
2583 2652 582
2330 2652 653
2192 2680 1076
2241 2763 1726
2344 2850 2428
2463 2963 2957
2586 3082 3354
2761 3231 3691
2978 3495 3990
2330 2652 653
2657 2907 938
2102 3085 1458
2121 3116 1767
2239 3187 2415
2368 3265 2982
2552 3361 3379
2743 3482 3736
2965 3728 4037
2657 2907 938
2657 2907 938
2102 3085 1458
1909 3332 2106
2082 3367 2475
2350 3416 2997
2540 3675 3505
2738 3769 3825
2889 3738 3981
2657 2907 938
2657 2907 938
2102 3085 1458
1909 3332 2106
2082 3367 2475
2540 3675 3505
2540 3675 3505
2738 3769 3825
2935 3826 3921
2877 789 536
3226 937 960
3039 955 1226
3018 1153 1943
3127 1345 2548
3206 1591 2999
3351 1824 3419
3568 2045 3816
3744 2097 4049
2877 789 536
2893 864 755
2936 1008 1205
3002 1206 1840
3063 1459 2514
3145 1723 3000
3236 2035 3394
3404 2358 3755
3744 2243 4071
2949 1129 540
2938 1143 742
2968 1271 1213
3005 1462 1822
3058 1691 2478
3114 1950 2995
3175 2245 3401
3257 2542 3718
3563 2752 4037
2915 1602 428
2959 1666 739
2974 1762 1205
3007 1890 1884
3047 2077 2521
3087 2294 3016
3143 2522 3391
3229 2765 3710
3412 3069 4004
2900 2145 462
2943 2232 774
2944 2301 1227
2966 2390 1851
3001 2518 2518
3053 2666 3029
3109 2827 3408
3198 3019 3723
3372 3292 3993
2965 2400 617
2938 2679 844
2883 2762 1249
2904 2838 1856
2947 2918 2505
3006 3015 3011
3077 3124 3401
3185 3269 3726
3351 3524 3991
2583 2652 582
2888 2887 1065
2695 3079 1129
2881 3170 1884
2915 3238 2488
2977 3307 3038
3053 3399 3417
3182 3522 3771
3348 3760 4043
2888 2887 1065
2695 3079 1129
2695 3079 1129
2813 3339 1994
2914 3393 2501
2953 3463 3036
3131 3718 3536
3201 3823 3872
3356 3896 4077
2695 3079 1129
2695 3079 1129
2813 3339 1994
2813 3339 1994
2914 3393 2501
3131 3718 3536
3131 3718 3536
3201 3823 3872
3466 3906 4044
3073 885 596
3352 1056 1119
3400 1182 1766
3489 1322 2090
3547 1513 2617
3598 1775 3069
3694 2015 3464
3846 2209 3839
3952 2301 4064
3316 1073 698
3330 1080 971
3390 1215 1384
3471 1406 1945
3505 1628 2590
3545 1894 3065
3599 2178 3433
3704 2476 3774
3927 2477 4071
3378 1399 638
3386 1359 937
3453 1468 1403
3479 1637 1964
3507 1852 2565
3526 2097 3053
3557 2356 3434
3591 2629 3751
3805 2849 4048
3339 1802 690
3403 1814 940
3471 1911 1388
3478 2031 2004
3483 2202 2605
3493 2403 3062
3524 2616 3422
3567 2837 3731
3693 3118 4015
3352 2328 703
3370 2324 957
3430 2414 1381
3440 2500 1977
3452 2607 2610
3472 2744 3087
3492 2900 3442
3534 3080 3739
3656 3332 4006
3479 2721 880
3343 2768 1001
3368 2850 1408
3390 2913 1978
3401 2987 2576
3423 3076 3077
3457 3186 3446
3517 3326 3752
3622 3554 3998
3479 2721 880
3367 2965 1249
3363 3178 1521
3366 3226 2016
3378 3288 2580
3410 3357 3079
3452 3439 3456
3547 3554 3788
3666 3771 4027
3479 2721 880
3363 3178 1521
3363 3178 1521
3390 3385 2036
3408 3439 2586
3688 3672 3192
3478 3585 3509
3513 3820 3852
3698 3922 4066
3363 3178 1521
3363 3178 1521
3390 3385 2036
3390 3385 2036
3732 3653 2725
3688 3672 3192
3708 3768 3553
3513 3820 3852
3793 3918 4014
3330 1080 971
3352 1056 1119
3600 1339 1769
3948 1597 2496
3878 1742 2774
3905 1954 3147
3944 2204 3502
4029 2428 3852
4095 2699 4095
3316 1073 698
3617 1360 1278
3612 1337 1471
3877 1551 2043
3858 1805 2678
3850 2045 3128
3898 2320 3492
3972 2590 3821
4089 2832 4079
3661 1576 888
3615 1463 1066
3878 1720 1660
3828 1809 2122
3835 2009 2656
3853 2234 3104
3878 2471 3480
3889 2715 3788
3984 2995 4055
3661 1576 888
3605 1892 1067
3824 2038 1542
3839 2164 2129
3830 2332 2691
3838 2522 3122
3853 2715 3474
3892 2923 3783
4020 3178 4064
3352 2328 703
3612 2382 1050
3825 2526 1550
3815 2595 2102
3808 2701 2700
3813 2840 3151
3823 2987 3485
3868 3152 3791
4014 3386 4072
3547 2840 1065
3745 2922 1369
3778 2921 1566
3758 2994 2098
3770 3071 2659
3782 3152 3163
3806 3272 3510
3851 3405 3819
3964 3612 4065
3547 2840 1065
3835 3061 1451
3718 3257 1663
3720 3315 2145
3741 3382 2682
3754 3447 3147
3783 3535 3529
3834 3645 3828
3924 3848 4038
3835 3061 1451
3573 3228 1592
3799 3440 2025
3755 3455 2196
3732 3653 2725
3845 3712 3207
3873 3788 3587
3925 3877 3902
4024 4018 4067
3573 3228 1592
3718 3257 1663
3799 3440 2025
3732 3653 2725
3732 3653 2725
3845 3712 3207
3873 3788 3587
3925 3877 3902
4024 4018 4067
3330 1080 971
3812 1510 1607
3953 1508 2155
3948 1597 2496
4095 1853 2786
4093 2080 3406
4095 2340 3613
4095 2458 3737
4095 2699 4095
3615 1463 1066
3812 1510 1607
3812 1510 1607
4072 1782 2524
4095 1848 2608
4082 2123 3175
4095 2399 3537
4095 2533 3693
4089 2832 4079
3661 1576 888
3878 1720 1660
4054 1816 1801
4076 1850 2037
4042 2121 2746
4051 2301 3133
4068 2546 3511
4095 2672 3829
3984 2995 4055
3661 1576 888
3832 2302 1280
4081 1992 1887
4095 2226 2241
4047 2402 2757
4045 2580 3168
4038 2769 3529
4060 2869 3675
4095 3182 4044
3612 2382 1050
3831 2508 1341
4078 2382 1917
4029 2681 2149
4033 2771 2771
4010 2906 3193
4040 3046 3541
4072 3332 3982
4072 3332 3982
3547 2840 1065
4055 3069 1612
4055 3069 1612
3982 3048 2168
3967 3124 2689
3978 3224 3197
4009 3330 3559
4072 3512 3897
4095 3597 4039
3835 3061 1451
3835 3061 1451
3919 3352 2022
3925 3387 2236
4095 3547 2794
4095 3650 3239
4095 3747 3727
4095 3800 3847
4070 3875 4062
3835 3061 1451
3718 3257 1663
3919 3352 2022
3930 3517 2282
3973 3702 2809
4095 3897 3347
4095 3924 3769
4095 4032 4009
4066 4039 4071
3718 3257 1663
3799 3440 2025
3799 3440 2025
3973 3702 2809
3973 3702 2809
4095 3897 3347
4095 3924 3769
4095 4032 4009
4066 4039 4071
