Fujifilm XTrans III/Classic Chrome.3dl
#Created by: Affinity Photo (Serif Europe Ltd.)
0 256 512 767 1023
0 1 1
0 121 700
720 675 2191
1887 981 3301
2716 1451 3961
0 501 0
0 688 709
53 1154 2113
594 1696 3194
1925 2115 3920
22 1497 0
0 2026 908
0 2232 2282
185 2545 3234
373 2873 3862
0 2026 908
0 2275 1418
39 2913 2648
450 3251 3303
1323 3593 3997
114 2168 321
12 2535 1726
95 3111 2646
1686 3760 3771
1686 3760 3771
577 25 1
1292 471 833
1546 818 2324
2319 1209 3337
2942 1586 3981
657 532 72
763 786 762
1140 1311 2259
1688 1985 3306
2600 2534 3996
327 1843 93
318 2018 816
782 2302 2298
1504 2667 3311
2235 3179 3979
327 1843 93
261 2785 944
511 3103 2289
1239 3305 3315
1986 3675 4045
261 2785 944
563 3037 1359
680 3279 2447
1269 3590 3414
1640 3728 3780
1768 357 222
2276 795 1435
2608 1162 2461
2995 1614 3393
3462 1893 4028
2239 934 267
2302 1073 1057
2477 1540 2394
2714 2142 3362
3204 2707 4020
2321 2062 324
2269 2193 1071
2419 2437 2417
2648 2760 3375
3020 3239 3991
2330 2652 653
2102 3085 1458
2239 3187 2415
2552 3361 3379
2965 3728 4037
2657 2907 938
2102 3085 1458
2082 3367 2475
2540 3675 3505
2935 3826 3921
3073 885 596
3400 1182 1766
3547 1513 2617
3694 2015 3464
3952 2301 4064
3378 1399 638
3453 1468 1403
3507 1852 2565
3557 2356 3434
3805 2849 4048
3352 2328 703
3430 2414 1381
3452 2607 2610
3492 2900 3442
3656 3332 4006
3479 2721 880
3363 3178 1521
3378 3288 2580
3452 3439 3456
3666 3771 4027
3363 3178 1521
3390 3385 2036
3732 3653 2725
3708 3768 3553
3793 3918 4014
3330 1080 971
3953 1508 2155
4095 1853 2786
4095 2340 3613
4095 2699 4095
3661 1576 888
4054 1816 1801
4042 2121 2746
4068 2546 3511
3984 2995 4055
3612 2382 1050
4078 2382 1917
4033 2771 2771
4040 3046 3541
4072 3332 3982
3835 3061 1451
3919 3352 2022
4095 3547 2794
4095 3747 3727
4070 3875 4062
3718 3257 1663
3799 3440 2025
3973 3702 2809
4095 3924 3769
4066 4039 4071
