Fujifilm XTrans III/Mono+R.3dl
#Created by: Affinity Photo (Serif Europe Ltd.)
0 64 128 192 256 320 384 448 512 575 639 703 767 831 895 959 1023
2 2 2
6 6 6
10 10 10
0 0 0
0 0 0
0 0 0
0 1 0
103 106 105
258 260 259
380 381 381
487 488 487
612 614 613
779 781 779
969 970 969
1159 1161 1160
1338 1339 1338
1493 1494 1493
9 9 9
15 15 15
19 19 19
1 1 1
5 5 5
11 11 11
12 12 12
55 56 56
198 200 199
355 356 356
469 470 469
597 599 598
761 763 762
953 955 954
1151 1153 1152
1337 1338 1337
1497 1498 1498
30 30 30
41 41 41
53 53 53
75 75 75
98 98 98
100 100 100
84 84 84
79 80 80
125 125 125
235 235 235
359 360 360
478 478 478
636 637 637
835 836 836
1071 1072 1071
1292 1293 1292
1472 1473 1473
69 69 68
78 78 78
105 105 105
136 136 136
157 157 157
194 194 194
200 200 200
188 188 188
177 177 177
197 198 198
252 252 252
320 320 320
405 405 405
523 523 523
733 733 733
1031 1031 1031
1293 1293 1293
193 193 193
172 172 172
207 207 207
260 260 260
294 294 294
326 326 326
351 351 351
356 356 356
342 342 342
323 323 323
314 314 314
321 321 321
348 348 348
394 394 394
455 455 455
608 608 608
881 881 881
379 379 379
371 371 371
423 423 423
436 436 436
489 489 489
526 526 526
551 551 551
555 555 555
547 547 547
535 535 535
507 507 507
473 474 474
442 442 442
434 434 434
449 449 449
497 497 497
614 614 614
379 379 379
628 628 628
604 604 604
697 697 697
706 706 706
743 743 743
784 784 784
799 799 799
794 794 794
772 772 772
740 740 740
698 698 698
642 642 642
596 596 596
569 569 569
561 561 561
614 614 614
628 628 628
628 628 628
942 942 942
697 697 697
920 920 920
971 971 971
1012 1012 1012
1032 1032 1032
1042 1042 1042
1036 1036 1036
1006 1006 1006
964 964 964
910 910 910
848 848 848
787 787 787
721 721 721
710 710 710
984 984 984
942 942 942
942 942 942
1158 1158 1158
1237 1237 1237
1221 1221 1221
1235 1235 1235
1251 1251 1251
1276 1276 1276
1279 1279 1279
1263 1263 1263
1231 1231 1231
1184 1184 1184
1132 1132 1132
1077 1077 1077
981 981 981
898 898 898
628 628 628
1252 1252 1252
1237 1237 1237
1237 1237 1237
1237 1237 1237
1379 1379 1379
1438 1438 1438
1470 1470 1470
1489 1489 1489
1506 1506 1506
1502 1502 1502
1479 1479 1479
1442 1442 1442
1399 1399 1399
1352 1352 1352
1291 1291 1291
1211 1211 1211
628 628 628
1252 1252 1252
1237 1237 1237
1237 1237 1237
1379 1379 1379
1379 1379 1379
1438 1438 1438
1622 1622 1622
1670 1670 1670
1697 1697 1697
1719 1719 1719
1711 1711 1711
1683 1683 1683
1648 1648 1648
1611 1611 1611
1582 1582 1582
1553 1553 1553
1237 1237 1237
1501 1501 1501
1501 1501 1501
1379 1379 1379
1379 1379 1379
1379 1379 1379
1622 1622 1622
1622 1622 1622
1859 1859 1859
1859 1859 1859
1889 1889 1889
1917 1917 1917
1915 1915 1915
1892 1892 1892
1860 1860 1860
1823 1823 1823
1828 1828 1828
1237 1237 1237
1501 1501 1501
1501 1501 1501
1379 1379 1379
1379 1379 1379
1622 1622 1622
1622 1622 1622
1851 1851 1851
1859 1859 1859
1859 1859 1859
2040 2040 2040
2062 2062 2062
2093 2093 2093
2100 2100 2100
2098 2098 2098
2091 2091 2091
2085 2085 2085
1237 1237 1237
1501 1501 1501
1501 1501 1501
1589 1589 1589
1379 1379 1379
2010 2010 2010
2010 2010 2010
1851 1851 1851
2044 2044 2044
2203 2203 2203
2203 2203 2203
2262 2262 2262
2214 2214 2214
2251 2251 2251
2327 2327 2327
2309 2309 2309
2316 2316 2316
1501 1501 1501
1501 1501 1501
1589 1589 1589
1589 1589 1589
1589 1589 1589
2010 2010 2010
2010 2010 2010
1851 1851 1851
2044 2044 2044
2203 2203 2203
2203 2203 2203
2262 2262 2262
2214 2214 2214
2251 2251 2251
2764 2764 2764
2764 2764 2764
2316 2316 2316
1501 1501 1501
1501 1501 1501
1589 1589 1589
1589 1589 1589
1589 1589 1589
2010 2010 2010
2010 2010 2010
2044 2044 2044
2044 2044 2044
2262 2262 2262
2203 2203 2203
2262 2262 2262
2214 2214 2214
2764 2764 2764
2764 2764 2764
2764 2764 2764
2316 2316 2316
1501 1501 1501
1501 1501 1501
1589 1589 1589
1589 1589 1589
1589 1589 1589
2010 2010 2010
2010 2010 2010
2044 2044 2044
2044 2044 2044
2262 2262 2262
2203 2203 2203
2262 2262 2262
2764 2764 2764
2764 2764 2764
2764 2764 2764
2764 2764 2764
2764 2764 2764
15 15 15
15 15 15
19 19 19
0 0 0
0 0 0
144 144 144
185 185 185
287 287 287
390 391 390
493 494 493
583 584 583
685 686 685
827 829 828
1006 1007 1006
1189 1190 1189
1365 1366 1365
1516 1517 1516
31 31 31
31 31 31
46 46 46
77 77 77
115 115 115
144 144 144
185 185 185
259 259 259
356 356 356
475 475 475
581 581 581
682 682 682
815 815 815
999 1000 999
1202 1203 1202
1392 1393 1392
1585 1586 1585
48 48 47
82 82 82
99 99 99
132 132 132
168 168 168
216 216 216
261 261 261
300 300 300
352 352 352
415 415 415
498 498 498
588 588 588
697 697 697
824 824 824
1026 1026 1026
1264 1264 1264
1582 1583 1582
110 110 109
160 160 160
187 187 187
219 219 219
248 248 248
301 301 301
358 358 358
410 410 410
453 453 453
505 505 505
554 554 554
594 594 594
653 653 653
717 717 717
803 803 803
982 982 982
1478 1478 1478
262 262 262
282 282 282
308 308 308
348 348 348
394 394 394
439 439 439
490 490 490
541 541 541
587 587 587
633 633 633
681 681 681
723 723 723
759 759 759
800 800 800
836 836 836
881 881 881
1133 1133 1133
439 439 439
463 463 463
494 494 494
524 524 524
579 579 579
626 626 626
671 671 671
713 713 713
760 760 760
808 808 808
848 848 848
884 884 884
910 910 910
947 947 947
983 983 983
1006 1006 1006
756 756 756
776 776 776
638 638 638
737 737 737
717 717 717
771 771 771
834 834 834
878 878 878
922 922 922
962 962 962
1009 1009 1009
1047 1047 1047
1078 1078 1078
1107 1107 1107
1132 1132 1132
1160 1160 1160
1188 1188 1188
701 701 701
984 984 984
942 942 942
942 942 942
956 956 956
993 993 993
1028 1028 1028
1077 1077 1077
1125 1125 1125
1166 1166 1166
1208 1208 1208
1247 1247 1247
1280 1280 1280
1313 1313 1313
1342 1342 1342
1377 1377 1377
1404 1404 1404
768 768 768
984 984 984
942 942 942
942 942 942
1158 1158 1158
1219 1219 1219
1252 1252 1252
1274 1274 1274
1314 1314 1314
1357 1357 1357
1402 1402 1402
1437 1437 1437
1478 1478 1478
1505 1505 1505
1539 1539 1539
1576 1576 1576
1608 1608 1608
929 929 929
984 984 984
1252 1252 1252
1252 1252 1252
1158 1158 1158
1443 1443 1443
1427 1427 1427
1476 1476 1476
1506 1506 1506
1541 1541 1541
1589 1589 1589
1625 1625 1625
1663 1663 1663
1693 1693 1693
1730 1730 1730
1769 1769 1769
1806 1806 1806
1211 1211 1211
984 984 984
1501 1501 1501
1501 1501 1501
1429 1429 1429
1427 1427 1427
1427 1427 1427
1589 1589 1589
1675 1675 1675
1713 1713 1713
1756 1756 1756
1804 1804 1804
1837 1837 1837
1868 1868 1868
1905 1905 1905
1948 1948 1948
1986 1986 1986
1552 1552 1552
984 984 984
1501 1501 1501
1501 1501 1501
1429 1429 1429
1589 1589 1589
1589 1589 1589
1589 1589 1589
1851 1851 1851
1851 1851 1851
1901 1901 1901
1944 1944 1944
1996 1996 1996
2030 2030 2030
2062 2062 2062
2098 2098 2098
2134 2134 2134
1858 1858 1858
984 984 984
1501 1501 1501
1501 1501 1501
1429 1429 1429
1589 1589 1589
1589 1589 1589
2010 2010 2010
1851 1851 1851
2044 2044 2044
2044 2044 2044
2074 2074 2074
2115 2115 2115
2151 2151 2151
2193 2193 2193
2234 2234 2234
2277 2277 2277
2122 2122 2122
984 984 984
1501 1501 1501
1501 1501 1501
1429 1429 1429
1589 1589 1589
2010 2010 2010
2010 2010 2010
2044 2044 2044
2044 2044 2044
2203 2203 2203
2203 2203 2203
2263 2263 2263
2283 2283 2283
2314 2314 2314
2387 2387 2387
2392 2392 2392
2413 2413 2413
1501 1501 1501
1501 1501 1501
1501 1501 1501
1589 1589 1589
1589 1589 1589
2010 2010 2010
2010 2010 2010
2044 2044 2044
2044 2044 2044
2203 2203 2203
2203 2203 2203
2263 2263 2263
2283 2283 2283
2314 2314 2314
2387 2387 2387
2392 2392 2392
2413 2413 2413
1501 1501 1501
1501 1501 1501
1501 1501 1501
1589 1589 1589
1589 1589 1589
2010 2010 2010
2010 2010 2010
2044 2044 2044
2044 2044 2044
2263 2263 2263
2203 2203 2203
2263 2263 2263
2283 2283 2283
2764 2764 2764
2764 2764 2764
2764 2764 2764
2413 2413 2413
1501 1501 1501
1501 1501 1501
1589 1589 1589
1589 1589 1589
1589 1589 1589
2010 2010 2010
2010 2010 2010
2044 2044 2044
2044 2044 2044
2263 2263 2263
2203 2203 2203
2263 2263 2263
2283 2283 2283
2764 2764 2764
2764 2764 2764
2764 2764 2764
2413 2413 2413
81 81 81
58 58 58
19 19 19
152 152 152
211 211 211
231 231 231
307 307 307
384 384 384
473 473 473
568 569 568
649 650 649
741 742 741
867 869 867
1033 1034 1033
1209 1211 1210
1384 1386 1385
1534 1535 1534
89 89 89
93 93 93
101 101 101
152 152 152
211 211 211
231 231 231
307 307 307
377 377 377
449 449 449
544 544 544
632 632 632
722 722 722
840 840 840
1007 1007 1007
1220 1220 1220
1410 1410 1410
1613 1614 1613
130 130 130
140 140 140
170 170 170
221 221 221
273 273 273
329 329 329
374 374 374
415 415 415
461 461 461
519 519 519
585 585 585
657 657 657
744 744 744
858 858 858
1038 1038 1038
1293 1293 1293
1660 1661 1660
202 202 202
228 228 228
265 265 265
300 300 300
348 348 348
404 404 404
454 454 454
505 505 505
545 545 545
595 595 595
640 640 640
687 687 687
741 741 741
789 789 789
860 860 860
1021 1021 1021
1603 1604 1603
359 359 358
369 369 369
411 411 411
436 436 436
486 486 486
539 539 539
586 586 586
634 634 634
676 676 676
720 720 720
770 770 770
805 805 805
842 842 842
875 875 875
918 918 918
954 954 954
1331 1332 1332
561 561 561
573 573 573
589 589 589
619 619 619
661 661 661
713 713 713
760 760 760
804 804 804
847 847 847
891 891 891
930 930 930
965 965 965
997 997 997
1024 1024 1024
1057 1057 1057
1077 1077 1077
928 928 928
776 776 776
807 807 807
808 808 808
826 826 826
856 856 856
907 907 907
955 955 955
999 999 999
1040 1040 1040
1085 1085 1085
1121 1121 1121
1156 1156 1156
1183 1183 1183
1207 1207 1207
1235 1235 1235
1260 1260 1260
792 792 792
984 984 984
986 986 986
1027 1027 1027
1048 1048 1048
1056 1056 1056
1100 1100 1100
1144 1144 1144
1193 1193 1193
1238 1238 1238
1279 1279 1279
1317 1317 1317
1352 1352 1352
1382 1382 1382
1404 1404 1404
1442 1442 1442
1469 1469 1469
836 836 836
984 984 984
1252 1252 1252
1252 1252 1252
1251 1251 1251
1271 1271 1271
1296 1296 1296
1335 1335 1335
1375 1375 1375
1421 1421 1421
1461 1461 1461
1498 1498 1498
1536 1536 1536
1568 1568 1568
1600 1600 1600
1636 1636 1636
1664 1664 1664
976 976 976
984 984 984
1252 1252 1252
1252 1252 1252
1429 1429 1429
1443 1443 1443
1485 1485 1485
1528 1528 1528
1557 1557 1557
1594 1594 1594
1643 1643 1643
1681 1681 1681
1714 1714 1714
1754 1754 1754
1784 1784 1784
1822 1822 1822
1857 1857 1857
1234 1234 1234
984 984 984
1501 1501 1501
1501 1501 1501
1429 1429 1429
1443 1443 1443
1643 1643 1643
1688 1688 1688
1729 1729 1729
1768 1768 1768
1807 1807 1807
1857 1857 1857
1888 1888 1888
1921 1921 1921
1956 1956 1956
1998 1998 1998
2033 2033 2033
1551 1551 1551
984 984 984
1501 1501 1501
1501 1501 1501
1637 1637 1637
1443 1443 1443
1643 1643 1643
1688 1688 1688
1866 1866 1866
1914 1914 1914
1950 1950 1950
1994 1994 1994
2044 2044 2044
2075 2075 2075
2105 2105 2105
2143 2143 2143
2175 2175 2175
1880 1880 1880
984 984 984
1501 1501 1501
1501 1501 1501
1637 1637 1637
2010 2010 2010
2010 2010 2010
2010 2010 2010
2013 2013 2013
1914 1914 1914
2059 2059 2059
2119 2119 2119
2160 2160 2160
2197 2197 2197
2236 2236 2236
2279 2279 2279
2323 2323 2323
2126 2126 2126
984 984 984
1501 1501 1501
1501 1501 1501
1637 1637 1637
1589 1589 1589
2010 2010 2010
2010 2010 2010
2013 2013 2013
2102 2102 2102
2059 2059 2059
2265 2265 2265
2289 2289 2289
2321 2321 2321
2371 2371 2371
2428 2428 2428
2450 2450 2450
2453 2453 2453
1252 1252 1252
1501 1501 1501
1501 1501 1501
1637 1637 1637
1654 1654 1654
2010 2010 2010
2010 2010 2010
2013 2013 2013
2102 2102 2102
2265 2265 2265
2265 2265 2265
2289 2289 2289
2321 2321 2321
2540 2540 2540
2428 2428 2428
2450 2450 2450
2453 2453 2453
1252 1252 1252
1501 1501 1501
1501 1501 1501
1637 1637 1637
1654 1654 1654
2010 2010 2010
2010 2010 2010
2013 2013 2013
2102 2102 2102
2265 2265 2265
2265 2265 2265
2289 2289 2289
2540 2540 2540
2540 2540 2540
2596 2596 2596
2596 2596 2596
2453 2453 2453
1252 1252 1252
1501 1501 1501
1501 1501 1501
1637 1637 1637
1654 1654 1654
2010 2010 2010
2010 2010 2010
2013 2013 2013
2102 2102 2102
2265 2265 2265
2265 2265 2265
2289 2289 2289
2540 2540 2540
2540 2540 2540
2596 2596 2596
2596 2596 2596
2453 2453 2453
218 218 218
215 215 215
275 275 275
295 295 295
401 401 401
475 475 475
594 594 594
594 594 594
613 613 613
683 684 683
747 747 747
824 825 824
936 937 936
1082 1083 1082
1254 1255 1254
1426 1427 1426
1572 1573 1573
233 233 233
215 215 215
275 275 275
295 295 295
401 401 401
475 475 475
477 477 477
538 538 538
589 589 589
656 656 656
727 727 727
800 801 800
897 897 897
1042 1042 1042
1241 1242 1241
1433 1433 1433
