Fujifilm XTrans III/Mono+G.3dl
#Created by: Affinity Photo (Serif Europe Ltd.)
0 64 128 192 256 320 384 448 512 575 639 703 767 831 895 959 1023
3 3 3
9 9 9
24 24 24
69 69 69
196 196 196
391 391 390
589 590 591
776 776 776
909 908 909
1025 1025 1025
1133 1133 1133
1239 1238 1239
1338 1337 1338
1432 1431 1432
1530 1530 1530
1634 1633 1634
1727 1726 1727
10 10 10
25 25 25
50 50 50
64 65 65
218 218 218
421 421 421
580 580 580
758 758 758
919 920 920
1049 1049 1050
1156 1155 1156
1261 1261 1261
1360 1360 1360
1458 1458 1458
1555 1555 1555
1654 1653 1654
1743 1742 1743
45 45 45
85 85 85
116 116 116
191 191 191
328 328 328
470 470 470
621 621 621
789 789 789
968 968 968
1140 1141 1141
1274 1275 1275
1384 1384 1385
1480 1480 1480
1562 1562 1562
1632 1632 1632
1702 1702 1703
1773 1773 1774
134 134 133
193 193 193
248 248 248
349 349 349
463 463 463
600 600 600
751 751 751
910 910 910
1069 1069 1069
1235 1235 1235
1399 1400 1400
1552 1552 1552
1691 1692 1692
1805 1805 1805
1892 1893 1893
1928 1928 1928
1945 1945 1945
420 420 420
400 400 400
504 504 504
580 580 580
693 693 693
813 813 813
945 945 945
1083 1083 1083
1223 1223 1223
1366 1366 1366
1512 1512 1512
1657 1657 1657
1809 1809 1809
1957 1957 1957
2109 2109 2109
2218 2218 2218
2249 2249 2249
676 676 676
691 691 691
754 754 754
815 815 815
929 929 929
1047 1047 1047
1161 1161 1161
1276 1276 1276
1404 1404 1404
1534 1534 1534
1662 1662 1662
1788 1788 1788
1917 1917 1917
2049 2049 2049
2200 2200 2200
2342 2342 2342
2448 2448 2448
676 676 676
984 984 984
1012 1012 1012
1149 1149 1149
1183 1183 1183
1272 1272 1272
1387 1387 1387
1497 1497 1497
1604 1604 1604
1715 1715 1715
1834 1834 1834
1946 1946 1946
2056 2056 2056
2168 2168 2168
2296 2296 2296
2423 2424 2424
2531 2531 2531
984 984 984
984 984 984
1360 1360 1360
1149 1149 1149
1438 1438 1438
1515 1515 1515
1614 1614 1614
1712 1712 1712
1813 1813 1813
1918 1918 1918
2019 2019 2019
2115 2115 2115
2213 2213 2213
2313 2313 2313
2420 2420 2420
2528 2528 2528
2619 2619 2619
1316 1316 1316
1360 1360 1360
1360 1360 1360
1679 1679 1679
1789 1789 1789
1801 1801 1801
1853 1853 1853
1935 1935 1935
2030 2030 2030
2116 2116 2116
2204 2204 2204
2290 2290 2290
2376 2376 2376
2465 2465 2465
2565 2565 2565
2659 2659 2659
2729 2729 2729
984 984 984
1706 1706 1706
1789 1789 1789
1789 1789 1789
1789 1789 1789
2004 2004 2004
2072 2072 2072
2152 2152 2152
2228 2228 2228
2308 2308 2308
2387 2387 2387
2464 2464 2464
2543 2543 2543
2626 2626 2626
2718 2718 2718
2809 2809 2809
2869 2869 2869
984 984 984
1706 1706 1706
1789 1789 1789
1789 1789 1789
2004 2004 2004
2004 2004 2004
2072 2072 2072
2308 2308 2308
2399 2399 2399
2478 2478 2478
2560 2560 2560
2638 2638 2638
2711 2711 2711
2782 2782 2782
2862 2862 2862
2950 2950 2950
3017 3017 3017
1789 1789 1789
1921 1921 1921
1921 1921 1921
2004 2004 2004
2004 2004 2004
2004 2004 2004
2308 2308 2308
2308 2308 2308
2625 2625 2625
2625 2625 2625
2709 2709 2709
2790 2790 2790
2855 2855 2855
2920 2920 2920
2995 2995 2995
3079 3079 3079
3149 3149 3149
1789 1789 1789
1921 1921 1921
1921 1921 1921
2004 2004 2004
2004 2004 2004
2308 2308 2308
2308 2308 2308
2575 2575 2575
2625 2625 2625
2625 2625 2625
2855 2855 2855
2913 2913 2913
2981 2981 2981
3055 3055 3055
3142 3142 3142
3230 3230 3230
3290 3290 3290
1789 1789 1789
1921 1921 1921
1921 1921 1921
2233 2233 2233
2004 2004 2004
2650 2650 2650
2650 2650 2650
2575 2575 2575
2801 2801 2801
3011 3011 3011
3011 3011 3011
3126 3126 3126
3105 3105 3105
3186 3186 3186
3297 3297 3297
3371 3371 3371
3422 3422 3422
1921 1921 1921
1921 1921 1921
2233 2233 2233
2233 2233 2233
2233 2233 2233
2650 2650 2650
2650 2650 2650
2575 2575 2575
2801 2801 2801
3011 3011 3011
3011 3011 3011
3126 3126 3126
3105 3105 3105
3186 3186 3186
3542 3542 3542
3542 3542 3542
3422 3422 3422
1921 1921 1921
1921 1921 1921
2233 2233 2233
2233 2233 2233
2233 2233 2233
2650 2650 2650
2650 2650 2650
2801 2801 2801
2801 2801 2801
3126 3126 3126
3011 3011 3011
3126 3126 3126
3105 3105 3105
3542 3542 3542
3542 3542 3542
3542 3542 3542
3422 3422 3422
1921 1921 1921
1921 1921 1921
2233 2233 2233
2233 2233 2233
2233 2233 2233
2650 2650 2650
2650 2650 2650
2801 2801 2801
2801 2801 2801
3126 3126 3126
3011 3011 3011
3126 3126 3126
3542 3542 3542
3542 3542 3542
3542 3542 3542
3542 3542 3542
3542 3542 3542
10 10 10
15 15 15
31 31 31
69 69 69
196 196 196
460 460 460
624 624 624
825 825 825
952 952 952
1074 1074 1074
1181 1180 1181
1284 1283 1284
1384 1383 1384
1482 1481 1482
1577 1576 1577
1673 1673 1673
1759 1758 1759
20 20 20
32 32 32
61 61 61
131 131 131
328 328 328
460 460 460
624 624 624
824 824 824
997 997 997
1142 1142 1142
1270 1270 1270
1390 1390 1390
1506 1506 1506
1621 1621 1621
1728 1728 1728
1820 1820 1820
1785 1785 1785
51 51 51
89 89 89
135 135 135
228 228 228
349 349 349
498 498 498
664 664 664
847 847 847
1044 1044 1044
1242 1242 1242
1406 1406 1406
1551 1551 1551
1681 1681 1681
1802 1802 1802
1908 1908 1908
1981 1981 1981
1816 1815 1816
147 147 147
213 213 213
278 278 278
373 373 373
480 480 480
622 622 622
787 787 787
966 966 966
1143 1143 1143
1339 1339 1339
1523 1523 1523
1684 1684 1684
1852 1852 1852
1998 1998 1998
2132 2132 2132
2228 2228 2228
1924 1924 1924
402 402 402
438 438 438
502 502 502
600 600 600
709 709 709
834 834 834
979 979 979
1136 1136 1136
1302 1302 1302
1468 1468 1468
1637 1637 1637
1799 1799 1799
1956 1956 1956
2109 2109 2109
2259 2259 2259
2403 2403 2403
2214 2214 2214
645 645 645
714 714 714
782 782 782
861 861 861
959 959 959
1067 1067 1067
1189 1189 1189
1321 1321 1321
1472 1472 1472
1625 1625 1625
1775 1775 1775
1925 1925 1925
2064 2064 2064
2208 2208 2208
2353 2353 2353
2492 2492 2492
2484 2484 2484
1015 1015 1015
946 946 946
1099 1099 1099
1099 1099 1099
1189 1189 1189
1303 1303 1303
1411 1411 1411
1527 1527 1527
1650 1650 1650
1792 1792 1792
1934 1934 1934
2061 2061 2061
2191 2191 2191
2321 2321 2321
2451 2451 2451
2590 2590 2590
2591 2591 2591
1316 1316 1316
1360 1360 1360
1360 1360 1360
1409 1409 1409
1464 1464 1464
1534 1534 1534
1634 1634 1634
1741 1741 1741
1854 1854 1854
1974 1974 1974
2091 2091 2091
2208 2208 2208
2323 2323 2323
2445 2445 2445
2575 2575 2575
2710 2710 2710
2674 2674 2674
1316 1316 1316
1360 1360 1360
1360 1360 1360
1679 1679 1679
1740 1740 1740
1800 1800 1800
1863 1863 1863
1955 1955 1955
2054 2054 2054
2155 2155 2155
2255 2255 2255
2362 2362 2362
2465 2465 2465
2577 2577 2577
2701 2701 2701
2826 2826 2826
2781 2781 2781
1316 1316 1316
1706 1706 1706
1706 1706 1706
1679 1679 1679
1969 1969 1969
2007 2007 2007
2093 2093 2093
2157 2157 2157
2242 2242 2242
2337 2337 2337
2426 2426 2426
2520 2520 2520
2617 2617 2617
2721 2721 2721
2828 2828 2828
2936 2936 2936
2909 2909 2909
1316 1316 1316
1921 1921 1921
1921 1921 1921
1939 1939 1939
2007 2007 2007
2007 2007 2007
2233 2233 2233
2337 2337 2337
2411 2411 2411
2501 2501 2501
2593 2593 2593
2682 2682 2682
2764 2764 2764
2846 2846 2846
2939 2939 2939
3049 3049 3049
3050 3050 3050
1316 1316 1316
1921 1921 1921
1921 1921 1921
1939 1939 1939
2233 2233 2233
2233 2233 2233
2233 2233 2233
2575 2575 2575
2575 2575 2575
2648 2648 2648
2731 2731 2731
2817 2817 2817
2891 2891 2891
2968 2968 2968
3052 3052 3052
3156 3156 3156
3182 3182 3182
1316 1316 1316
1921 1921 1921
1921 1921 1921
1939 1939 1939
2233 2233 2233
2233 2233 2233
2650 2650 2650
2575 2575 2575
2801 2801 2801
2801 2801 2801
2870 2870 2870
2927 2927 2927
2996 2996 2996
3082 3082 3082
3182 3182 3182
3288 3288 3288
3322 3322 3322
1316 1316 1316
1921 1921 1921
1921 1921 1921
1939 1939 1939
2233 2233 2233
2650 2650 2650
2650 2650 2650
2801 2801 2801
2801 2801 2801
3011 3011 3011
3011 3011 3011
3080 3080 3080
3129 3129 3129
3200 3200 3200
3318 3318 3318
3383 3383 3383
3468 3468 3468
1921 1921 1921
1921 1921 1921
1921 1921 1921
2233 2233 2233
2233 2233 2233
2650 2650 2650
2650 2650 2650
2801 2801 2801
2801 2801 2801
3011 3011 3011
3011 3011 3011
3080 3080 3080
3129 3129 3129
3200 3200 3200
3318 3318 3318
3383 3383 3383
3468 3468 3468
1921 1921 1921
1921 1921 1921
1921 1921 1921
2233 2233 2233
2233 2233 2233
2650 2650 2650
2650 2650 2650
2801 2801 2801
2801 2801 2801
3080 3080 3080
3011 3011 3011
3080 3080 3080
3129 3129 3129
3542 3542 3542
3542 3542 3542
3542 3542 3542
3468 3468 3468
1921 1921 1921
1921 1921 1921
2233 2233 2233
2233 2233 2233
2233 2233 2233
2650 2650 2650
2650 2650 2650
2801 2801 2801
2801 2801 2801
3080 3080 3080
3011 3011 3011
3080 3080 3080
3129 3129 3129
3542 3542 3542
3542 3542 3542
3542 3542 3542
3468 3468 3468
22 22 21
30 30 30
31 31 31
171 171 171
330 330 330
480 480 480
674 674 674
883 883 883
983 983 983
1106 1106 1106
1211 1210 1211
1318 1317 1318
1420 1419 1420
1517 1516 1517
1608 1607 1608
1699 1699 1699
1782 1781 1782
35 35 35
55 55 55
87 87 87
171 171 171
330 330 330
480 480 480
674 674 674
857 857 857
1028 1028 1028
1178 1178 1178
1307 1307 1307
1427 1427 1427
1551 1551 1551
1671 1671 1671
1766 1766 1766
1853 1853 1853
1830 1830 1830
103 103 103
124 124 124
172 172 172
270 270 270
393 393 393
539 539 539
701 701 701
881 881 881
1071 1071 1071
1273 1273 1273
1443 1443 1443
1573 1573 1573
1708 1708 1708
1837 1837 1837
1944 1944 1944
2006 2006 2006
1837 1837 1838
247 247 247
244 244 244
307 307 307
400 400 400
516 516 516
661 661 661
820 820 820
999 999 999
1175 1175 1175
1363 1363 1363
1540 1540 1540
1707 1707 1707
1871 1871 1871
2018 2018 2018
2151 2151 2151
2247 2247 2247
1935 1935 1935
457 457 457
459 459 459
515 515 515
613 613 613
737 737 737
868 868 868
1013 1013 1013
1167 1167 1167
1332 1332 1332
1498 1498 1498
1664 1664 1664
1819 1819 1819
1976 1976 1976
2120 2120 2120
2277 2277 2277
2422 2422 2422
2187 2187 2187
726 726 726
757 757 757
774 774 774
872 872 872
978 978 978
1093 1093 1093
1217 1217 1217
1356 1356 1356
1501 1501 1501
1646 1646 1646
1801 1801 1801
1944 1944 1944
2085 2085 2085
2224 2224 2224
2366 2366 2366
2505 2505 2505
2488 2489 2489
1015 1015 1015
1086 1086 1086
1087 1087 1087
1143 1143 1143
1220 1220 1220
1322 1322 1322
1434 1434 1434
1554 1554 1554
1677 1677 1677
1817 1817 1817
1949 1949 1949
2081 2081 2081
2206 2206 2206
2336 2336 2336
2467 2467 2467
2606 2606 2606
2639 2639 2639
1316 1316 1316
1326 1326 1326
1397 1397 1397
1439 1439 1439
1477 1477 1477
1560 1560 1560
1653 1653 1653
1764 1764 1764
1880 1880 1880
1997 1997 1997
2109 2109 2109
2225 2225 2225
2342 2342 2342
2456 2456 2456
2588 2588 2588
2723 2723 2723
2723 2723 2723
1316 1316 1316
1706 1706 1706
1706 1706 1706
1706 1706 1706
1749 1749 1749
1802 1802 1802
1883 1883 1883
1975 1975 1975
2075 2075 2075
2173 2173 2173
2272 2272 2272
2378 2378 2378
2483 2483 2483
2594 2594 2594
2718 2718 2718
2837 2837 2837
2824 2824 2824
1316 1316 1316
1706 1706 1706
1706 1706 1706
1939 1939 1939
1969 1969 1969
2027 2027 2027
2101 2101 2101
2173 2173 2173
2259 2259 2259
2354 2354 2354
2443 2443 2443
2532 2532 2532
2636 2636 2636
2733 2733 2733
2838 2838 2838
2946 2946 2946
2944 2944 2944
1316 1316 1316
1921 1921 1921
1921 1921 1921
1939 1939 1939
1969 1969 1969
2214 2214 2214
2285 2285 2285
2357 2357 2357
2435 2435 2435
2518 2518 2518
2613 2613 2613
2696 2696 2696
2777 2777 2777
2858 2858 2858
2952 2952 2952
3059 3059 3059
3073 3073 3073
1316 1316 1316
1921 1921 1921
1921 1921 1921
2128 2128 2128
1969 1969 1969
2214 2214 2214
2285 2285 2285
2555 2555 2555
2592 2592 2592
2667 2667 2667
2750 2750 2750
2833 2833 2833
2902 2902 2902
2976 2976 2976
3066 3066 3066
3167 3167 3167
3205 3205 3205
1316 1316 1316
1921 1921 1921
1921 1921 1921
2128 2128 2128
2650 2650 2650
2650 2650 2650
2650 2650 2650
2682 2682 2682
2592 2592 2592
2809 2809 2809
2879 2879 2879
2941 2941 2941
3012 3012 3012
3099 3099 3099
3195 3195 3195
3298 3298 3298
3341 3341 3341
1316 1316 1316
1921 1921 1921
1921 1921 1921
2128 2128 2128
2233 2233 2233
2650 2650 2650
2650 2650 2650
2682 2682 2682
2775 2775 2775
2809 2809 2809
3023 3023 3023
3084 3084 3084
3143 3143 3143
3223 3223 3223
3328 3328 3328
3409 3409 3409
3483 3483 3483
1706 1706 1706
1921 1921 1921
1921 1921 1921
2128 2128 2128
2172 2172 2172
2650 2650 2650
2650 2650 2650
2682 2682 2682
2775 2775 2775
3023 3023 3023
3023 3023 3023
3084 3084 3084
3143 3143 3143
3358 3358 3358
3328 3328 3328
3409 3409 3409
3483 3483 3483
1706 1706 1706
1921 1921 1921
1921 1921 1921
2128 2128 2128
2172 2172 2172
2650 2650 2650
2650 2650 2650
2682 2682 2682
2775 2775 2775
3023 3023 3023
3023 3023 3023
3084 3084 3084
3358 3358 3358
3358 3358 3358
3426 3426 3426
3426 3426 3426
3483 3483 3483
1706 1706 1706
1921 1921 1921
1921 1921 1921
2128 2128 2128
2172 2172 2172
2650 2650 2650
2650 2650 2650
2682 2682 2682
2775 2775 2775
3023 3023 3023
3023 3023 3023
3084 3084 3084
3358 3358 3358
3358 3358 3358
3426 3426 3426
3426 3426 3426
3483 3483 3483
36 36 35
87 87 87
137 137 137
198 198 198
391 391 391
515 515 515
940 940 940
940 940 940
1031 1031 1031
1156 1156 1156
1262 1261 1262
1373 1372 1373
1482 1481 1482
1576 1575 1576
1663 1663 1663
1751 1750 1751
1827 1826 1826
54 54 54
87 87 87
137 137 137
198 198 198
391 391 391
515 515 515
708 708 708
902 902 902
1083 1083 1083
1234 1234 1234
1366 1366 1366
1489 1489 1489
1613 1613 1613
1732 1732 1732
1825 1825 1825
1907 1907 1907
