Fujifilm XTrans III/Mono+R.3dl
#Created by: Affinity Photo (Serif Europe Ltd.)
0 256 512 767 1023
2 2 2
0 0 0
258 260 259
779 781 779
1493 1494 1493
193 193 193
294 294 294
342 342 342
348 348 348
881 881 881
984 984 984
1237 1237 1237
1276 1276 1276
1184 1184 1184
898 898 898
1237 1237 1237
1379 1379 1379
1859 1859 1859
2093 2093 2093
2085 2085 2085
1501 1501 1501
1589 1589 1589
2044 2044 2044
2764 2764 2764
2764 2764 2764
454 454 454
1031 1031 1031
800 801 800
1026 1027 1027
1631 1632 1631
713 713 713
861 861 861
1019 1019 1019
1139 1139 1139
1338 1338 1338
1373 1373 1373
1475 1475 1475
1658 1658 1658
1786 1786 1786
1727 1727 1727
1373 1373 1373
1919 1919 1919
2186 2186 2186
2356 2356 2356
2365 2365 2365
1919 1919 1919
2175 2175 2175
2331 2331 2331
2588 2588 2588
2687 2687 2687
1374 1374 1374
1753 1753 1753
1871 1871 1871
1838 1838 1838
2093 2093 2093
1815 1815 1815
1882 1882 1882
1989 1989 1989
2050 2050 2050
2068 2068 2068
2212 2212 2212
2238 2238 2238
2362 2362 2362
2434 2434 2434
2406 2406 2406
2448 2448 2448
2630 2630 2630
2744 2744 2744
2869 2869 2869
2905 2905 2905
2724 2724 2724
2630 2630 2630
2804 2804 2804
3077 3077 3077
3243 3243 3243
2396 2396 2396
2700 2700 2700
2814 2814 2814
2820 2820 2820
2833 2833 2833
2714 2714 2714
2793 2793 2793
2871 2871 2871
2903 2903 2903
2883 2883 2883
2878 2878 2878
2975 2975 2975
3058 3058 3058
3113 3113 3113
3085 3085 3085
3054 3054 3054
3207 3207 3207
3309 3309 3309
3395 3395 3395
3428 3428 3428
3207 3207 3207
3342 3342 3342
3681 3681 3681
3731 3731 3731
3761 3761 3761
2655 2655 2655
3153 3153 3153
3362 3362 3362
3338 3338 3338
3226 3226 3226
2909 2909 2909
3281 3281 3281
3360 3360 3360
3421 3421 3421
3248 3248 3248
3065 3065 3065
3410 3410 3410
3508 3508 3508
3582 3582 3582
3643 3643 3643
3417 3417 3417
3621 3621 3621
3884 3884 3884
4001 4001 4001
3846 3846 3846
3446 3446 3446
3582 3582 3582
3835 3835 3835
4013 4013 4013
3937 3937 3937
