Fujifilm XTrans III/Mono+G.3dl
#Created by: Affinity Photo (Serif Europe Ltd.)
0 256 512 767 1023
3 3 3
196 196 196
909 908 909
1338 1337 1338
1727 1726 1727
420 420 420
693 693 693
1223 1223 1223
1809 1809 1809
2249 2249 2249
1316 1316 1316
1789 1789 1789
2030 2030 2030
2376 2376 2376
2729 2729 2729
1789 1789 1789
2004 2004 2004
2625 2625 2625
2981 2981 2981
3290 3290 3290
1921 1921 1921
2233 2233 2233
2801 2801 2801
3542 3542 3542
3542 3542 3542
66 66 65
580 580 580
1100 1099 1100
1554 1554 1554
1890 1890 1890
540 540 540
858 858 858
1426 1426 1426
2039 2039 2039
2539 2539 2539
1643 1643 1643
1824 1824 1824
2150 2150 2150
2537 2537 2537
3001 3001 3001
1643 1643 1643
2434 2434 2434
2802 2802 2802
3068 3068 3068
3398 3398 3398
2434 2434 2434
2698 2698 2698
2957 2957 2957
3330 3330 3330
3501 3501 3501
468 468 468
933 933 933
1396 1396 1396
1906 1906 1906
2224 2224 2224
998 998 998
1137 1137 1137
1683 1683 1683
2239 2239 2239
2725 2725 2725
1934 1934 1934
2063 2063 2063
2363 2363 2363
2726 2726 2726
3124 3124 3124
2408 2408 2408
2829 2829 2829
2979 2979 2979
3224 3224 3224
3528 3528 3528
2666 2666 2666
2829 2829 2829
3131 3131 3131
3511 3511 3511
3708 3708 3708
992 992 992
1162 1162 1162
1570 1570 1570
2199 2199 2199
2576 2576 2576
1438 1438 1438
1445 1445 1445
1890 1890 1890
2432 2432 2432
2885 2885 2885
2163 2163 2163
2212 2212 2212
2537 2537 2537
2899 2899 2899
3258 3258 3258
2462 2462 2462
2948 2948 2948
3154 3154 3154
3386 3386 3386
3659 3659 3659
2948 2948 2948
3190 3190 3190
3506 3506 3506
3704 3704 3704
3870 3870 3870
1111 1111 1111
1358 1358 1358
1668 1668 1668
2345 2345 2345
2836 2836 2836
1545 1545 1545
1661 1661 1661
1965 1965 1965
2531 2531 2531
2999 2999 2999
2193 2193 2193
2161 2161 2161
2604 2604 2604
3011 3011 3011
3331 3331 3331
2755 2755 2755
3084 3084 3084
3348 3348 3348
3688 3688 3688
3822 3822 3822
2985 2985 2985
3207 3207 3207
3545 3545 3545
3835 3835 3835
3972 3972 3972
