Fujifilm XTrans III/Mono.3dl
#Created by: Affinity Photo (Serif Europe Ltd.)
0 128 256 384 512 639 767 895 1023
2 2 2
23 23 23
184 185 185
581 582 583
949 949 949
1235 1235 1235
1523 1523 1523
1815 1815 1815
2090 2090 2091
37 37 36
100 100 100
297 297 297
583 583 583
943 944 944
1307 1307 1307
1595 1596 1596
1867 1867 1867
2115 2115 2115
308 308 309
402 402 402
594 594 594
865 865 865
1158 1158 1158
1470 1470 1470
1779 1779 1779
2096 2097 2097
2318 2318 2318
538 538 538
846 846 846
1032 1032 1032
1257 1257 1257
1501 1501 1501
1754 1754 1754
2001 2001 2001
2250 2250 2250
2467 2467 2467
1126 1126 1126
1152 1152 1152
1563 1563 1563
1663 1663 1663
1872 1872 1872
2083 2083 2083
2284 2284 2284
2497 2497 2497
2660 2660 2660
820 820 820
1563 1563 1563
1772 1772 1772
1859 1859 1859
2203 2203 2203
2397 2397 2397
2577 2577 2577
2771 2771 2771
2928 2928 2928
1563 1563 1563
1676 1676 1676
1772 1772 1772
2100 2100 2100
2420 2420 2420
2648 2648 2648
2830 2830 2830
3015 3015 3015
3174 3174 3174
1676 1676 1676
2001 2001 2001
2001 2001 2001
2348 2348 2348
2562 2562 2562
2796 2796 2796
2920 2920 2920
3385 3385 3385
3289 3289 3289
1676 1676 1676
2001 2001 2001
2001 2001 2001
2348 2348 2348
2562 2562 2562
2796 2796 2796
3385 3385 3385
3385 3385 3385
3385 3385 3385
29 29 29
31 31 31
342 342 342
684 684 684
1048 1048 1048
1328 1328 1328
1604 1603 1604
1883 1883 1883
2136 2136 2136
100 100 100
171 171 171
390 390 390
702 702 702
1076 1076 1076
1469 1469 1469
1779 1779 1779
2087 2087 2087
2230 2230 2231
384 384 384
466 466 466
676 676 676
969 969 969
1305 1305 1305
1650 1650 1650
1971 1971 1971
2279 2279 2279
2375 2376 2376
870 870 870
951 951 951
1091 1091 1091
1324 1324 1324
1600 1600 1600
1898 1898 1898
2172 2172 2172
2448 2448 2448
2583 2584 2584
1126 1126 1126
1462 1462 1462
1543 1543 1543
1703 1703 1703
1933 1933 1933
2174 2174 2174
2414 2414 2414
2672 2672 2672
2741 2741 2741
1126 1126 1126
1676 1676 1676
1727 1727 1727
2053 2053 2053
2246 2246 2246
2455 2455 2455
2664 2664 2664
2882 2882 2882
2982 2982 2982
1126 1126 1126
1676 1676 1676
2348 2348 2348
2348 2348 2348
2377 2377 2377
2690 2690 2690
2864 2864 2864
3078 3078 3078
3227 3227 3227
1462 1462 1462
1676 1676 1676
1912 1912 1912
2348 2348 2348
2522 2522 2522
2806 2806 2806
2967 2967 2967
3184 3184 3184
3360 3360 3360
1462 1462 1462
1676 1676 1676
1912 1912 1912
2348 2348 2348
2522 2522 2522
2806 2806 2806
3180 3180 3180
3260 3260 3260
3360 3360 3360
117 117 117
313 313 313
729 729 729
858 858 858
1190 1190 1190
1458 1458 1458
1734 1734 1734
2002 2002 2002
2229 2229 2229
262 262 262
377 377 377
597 597 597
894 894 894
1226 1226 1226
1579 1579 1579
1879 1878 1879
2181 2181 2181
2339 2339 2339
553 553 553
655 655 655
862 862 862
1127 1127 1127
1429 1429 1429
1744 1744 1744
2046 2046 2046
2339 2339 2339
2617 2617 2617
1052 1052 1052
1110 1110 1110
1252 1252 1252
1474 1474 1474
1721 1721 1721
1988 1988 1988
2245 2245 2245
2507 2507 2507
2795 2795 2795
1460 1460 1460
1507 1507 1507
1644 1644 1644
1824 1824 1824
2042 2042 2042
2260 2260 2260
2482 2482 2482
2730 2730 2730
2965 2965 2965
1460 1460 1460
1697 1697 1697
1996 1996 1996
2153 2153 2153
2332 2332 2332
2531 2531 2531
2731 2731 2731
2933 2933 2933
3094 3094 3094
1460 1460 1460
2155 2155 2155
2155 2155 2155
2407 2407 2407
2561 2561 2561
2755 2755 2755
2928 2928 2928
3128 3128 3128
3301 3301 3301
2155 2155 2155
2155 2155 2155
2412 2412 2412
2699 2699 2699
2724 2724 2724
2849 2849 2849
3142 3142 3142
3343 3343 3343
3417 3417 3417
2155 2155 2155
2412 2412 2412
2412 2412 2412
2699 2699 2699
2724 2724 2724
3142 3142 3142
3142 3142 3142
3343 3343 3343
3343 3343 3343
484 484 484
435 435 435
923 923 923
1062 1062 1062
1379 1379 1379
1646 1646 1646
1900 1900 1900
2160 2160 2160
2365 2365 2365
598 598 598
675 675 675
884 884 884
1130 1130 1130
1425 1425 1425
1736 1736 1736
2022 2022 2022
2316 2316 2316
2466 2466 2466
894 894 894
945 945 945
1108 1108 1108
1339 1339 1339
1605 1605 1605
1892 1892 1892
2162 2162 2162
2431 2431 2431
2709 2709 2709
1349 1349 1349
1358 1358 1358
1482 1482 1482
1668 1668 1668
1890 1890 1890
2123 2123 2123
2354 2354 2354
2604 2604 2604
2870 2870 2870
1735 1735 1735
1745 1745 1745
1853 1853 1853
2005 2005 2005
2191 2191 2191
2385 2385 2385
2592 2592 2592
2818 2818 2818
3037 3037 3037
1879 1879 1879
1916 1916 1916
2164 2164 2164
2310 2310 2310
2473 2473 2473
2657 2657 2657
2829 2829 2829
3016 3016 3016
3219 3219 3219
2130 2130 2130
2359 2359 2359
2499 2499 2499
2538 2538 2538
2697 2697 2697
2864 2864 2864
3024 3024 3024
3214 3214 3214
3383 3383 3383
2359 2359 2359
2359 2359 2359
2499 2499 2499
2699 2699 2699
2802 2802 2802
2960 2960 2960
3365 3365 3365
3389 3389 3389
3484 3484 3484
2359 2359 2359
2499 2499 2499
2499 2499 2499
2699 2699 2699
2802 2802 2802
2960 2960 2960
3365 3365 3365
3389 3389 3389
3389 3389 3389
686 686 686
989 989 989
1199 1199 1199
1400 1400 1400
1594 1594 1594
1859 1859 1859
2085 2085 2085
2341 2341 2341
2535 2535 2535
913 913 913
989 989 989
1162 1162 1162
1390 1390 1390
1653 1653 1653
1925 1925 1925
2184 2184 2184
2455 2455 2455
2622 2622 2622
1187 1187 1187
1233 1233 1233
1380 1380 1380
1580 1580 1580
1815 1815 1815
2059 2059 2059
2305 2305 2305
2555 2555 2555
2820 2820 2820
1567 1567 1567
1610 1610 1610
1718 1718 1718
1884 1884 1884
2082 2082 2082
2282 2282 2282
2494 2494 2494
2730 2730 2730
2966 2966 2966
1972 1972 1972
1982 1982 1982
2070 2070 2070
2200 2200 2200
2363 2363 2363
2537 2537 2537
2728 2728 2728
2918 2918 2918
3121 3121 3121
2386 2386 2386
2339 2339 2339
2373 2373 2373
2493 2493 2493
2640 2640 2640
2799 2799 2799
2941 2941 2941
3120 3120 3120
3306 3306 3306
2339 2339 2339
2599 2599 2599
2673 2673 2673
2733 2733 2733
2861 2861 2861
2995 2995 2995
3145 3145 3145
3315 3315 3315
3472 3472 3472
2599 2599 2599
2599 2599 2599
2673 2673 2673
2879 2879 2879
2965 2965 2965
3106 3106 3106
3392 3392 3392
3536 3536 3536
3519 3519 3519
2599 2599 2599
2599 2599 2599
2673 2673 2673
2879 2879 2879
2965 2965 2965
3392 3392 3392
3392 3392 3392
3536 3536 3536
3621 3621 3621
1251 1251 1251
1468 1468 1468
1463 1463 1463
1636 1636 1636
1841 1841 1841
2057 2057 2057
2265 2265 2265
2530 2530 2530
2715 2715 2715
1251 1251 1251
1324 1324 1324
1472 1472 1472
1665 1665 1665
1892 1892 1892
2111 2111 2111
2351 2351 2351
2600 2600 2600
2794 2794 2794
1513 1513 1513
1529 1529 1529
1658 1658 1658
1835 1835 1835
2033 2033 2033
2239 2239 2239
2461 2461 2461
2702 2702 2702
2933 2933 2933
1826 1826 1825
1865 1865 1865
1968 1968 1968
2102 2102 2102
2270 2270 2270
2450 2450 2450
2645 2645 2645
2854 2854 2854
3066 3066 3066
2167 2167 2167
2207 2207 2207
2284 2284 2284
2394 2394 2394
2538 2538 2538
2705 2705 2705
2860 2860 2860
3036 3036 3036
3222 3222 3222
2337 2337 2337
2499 2499 2499
2579 2579 2579
2690 2690 2690
2812 2812 2812
2936 2936 2936
3068 3068 3068
3232 3232 3232
3402 3402 3402
2386 2386 2386
2653 2653 2653
2749 2749 2749
2911 2911 2911
3021 3021 3021
3143 3143 3143
3271 3271 3271
3432 3432 3432
3580 3580 3580
2653 2653 2653
2749 2749 2749
2749 2749 2749
3021 3021 3021
3136 3136 3136
3252 3252 3252
3535 3535 3535
3669 3669 3669
3675 3675 3675
2749 2749 2749
2749 2749 2749
3021 3021 3021
3021 3021 3021
3136 3136 3136
3535 3535 3535
3535 3535 3535
3669 3669 3669
3757 3757 3757
1378 1378 1378
1590 1590 1590
1724 1724 1724
1864 1864 1864
2037 2037 2037
2239 2239 2239
2434 2434 2434
2672 2672 2672
2874 2874 2874
1564 1564 1564
1591 1591 1591
1721 1721 1721
1906 1906 1906
2096 2096 2096
2298 2298 2298
2508 2508 2508
2735 2735 2735
2944 2944 2944
1817 1817 1817
1783 1783 1783
1911 1911 1911
2056 2056 2056
2230 2230 2230
2419 2419 2419
2615 2615 2615
2829 2829 2829
3038 3038 3038
2059 2059 2059
2073 2073 2073
2181 2181 2181
2299 2299 2299
2447 2447 2447
2613 2613 2613
2793 2793 2793
2966 2966 2966
3156 3156 3156
2360 2360 2360
2373 2373 2373
2475 2475 2475
2581 2581 2581
2712 2712 2712
2849 2849 2849
2984 2984 2984
3148 3148 3148
3309 3309 3309
2656 2656 2656
2671 2671 2671
2769 2769 2769
2858 2858 2858
2957 2957 2957
3070 3070 3070
3196 3196 3196
3344 3344 3344
3484 3484 3484
2656 2656 2656
2836 2836 2836
2993 2993 2993
3073 3073 3073
3170 3170 3170
3276 3276 3276
3390 3390 3390
3532 3532 3532
3661 3661 3661
2656 2656 2656
2993 2993 2993
2993 2993 2993
3188 3188 3188
3284 3284 3284
3582 3582 3582
3508 3508 3508
3731 3731 3731
3792 3792 3792
2993 2993 2993
2993 2993 2993
3188 3188 3188
3188 3188 3188
3522 3522 3522
3582 3582 3582
3697 3697 3697
3731 3731 3731
3858 3858 3858
1591 1591 1591
1590 1590 1590
1879 1879 1879
2134 2134 2134
2240 2240 2240
2396 2396 2396
2575 2575 2575
2788 2788 2788
3062 3062 3062
1564 1564 1564
1856 1856 1856
1851 1851 1851
2064 2064 2064
2273 2273 2273
2455 2455 2455
2655 2655 2655
2855 2855 2855
3068 3068 3068
1957 1957 1957
1908 1908 1908
2156 2156 2156
2240 2240 2240
2400 2400 2400
2573 2573 2573
2765 2765 2765
2936 2936 2936
3137 3137 3137
1957 1957 1957
2172 2172 2172
2337 2337 2337
2459 2459 2459
2610 2610 2610
2773 2773 2773
2919 2919 2919
3090 3090 3090
3271 3271 3271
2360 2360 2360
2464 2464 2464
2645 2645 2645
2739 2739 2739
2854 2854 2854
2984 2984 2984
3117 3117 3117
3269 3269 3269
3430 3430 3430
2769 2769 2769
2883 2883 2883
2906 2906 2906
2995 2995 2995
3098 3098 3098
3210 3210 3210
3337 3337 3337
3474 3474 3474
3609 3609 3609
2769 2769 2769
2995 2995 2995
3140 3140 3140
3227 3227 3227
3329 3329 3329
3428 3428 3428
3540 3540 3540
3664 3664 3664
3788 3788 3788
2995 2995 2995
3082 3082 3082
3317 3317 3317
3340 3340 3340
3522 3522 3522
3644 3644 3644
3749 3749 3749
3861 3861 3861
3961 3961 3961
3082 3082 3082
3140 3140 3140
3317 3317 3317
3522 3522 3522
3522 3522 3522
3644 3644 3644
3749 3749 3749
3861 3861 3861
3961 3961 3961
1591 1591 1591
2013 2013 2013
2053 2053 2053
2134 2134 2134
2345 2345 2345
2539 2539 2539
2695 2695 2695
2787 2787 2787
3062 3062 3062
1908 1908 1908
2013 2013 2013
2013 2013 2013
2272 2272 2272
2328 2328 2328
2533 2533 2533
2747 2747 2747
2830 2830 2830
3068 3068 3068
1957 1957 1957
2156 2156 2156
2248 2248 2248
2286 2286 2286
2502 2502 2502
2659 2659 2659
2844 2844 2844
2933 2933 2933
3137 3137 3137
1957 1957 1957
2471 2471 2471
2375 2375 2375
2537 2537 2537
2698 2698 2698
2846 2846 2846
2989 2989 2989
3073 3073 3073
3333 3333 3333
2464 2464 2464
2612 2612 2612
2617 2617 2617
2830 2830 2830
2937 2937 2937
3068 3068 3068
3202 3202 3202
3458 3458 3458
3458 3458 3458
2769 2769 2769
3054 3054 3054
3054 3054 3054
3078 3078 3078
3176 3176 3176
3301 3301 3301
3424 3424 3424
3607 3607 3607
3673 3673 3673
2995 2995 2995
2995 2995 2995
3283 3283 3283
3326 3326 3326
3534 3534 3534
3661 3661 3661
3785 3785 3785
3828 3828 3828
3861 3861 3861
2995 2995 2995
3140 3140 3140
3283 3283 3283
3426 3426 3426
3613 3613 3613
3806 3806 3806
3886 3886 3886
3995 3995 3995
3988 3988 3988
3140 3140 3140
3317 3317 3317
3317 3317 3317
3613 3613 3613
3613 3613 3613
3806 3806 3806
3886 3886 3886
3995 3995 3995
3988 3988 3988
