Fujifilm XTrans III/Mono+Ye.3dl
#Created by: Affinity Photo (Serif Europe Ltd.)
0 64 128 192 256 320 384 448 512 575 639 703 767 831 895 959 1023
3 3 3
7 7 7
16 16 16
5 6 6
46 47 47
179 181 180
351 352 352
506 507 507
661 662 662
815 816 816
962 962 962
1112 1113 1113
1278 1279 1279
1451 1452 1451
1626 1627 1626
1797 1797 1797
1946 1946 1946
9 9 9
19 19 19
31 31 31
6 6 6
55 56 56
196 197 197
330 330 330
463 463 463
625 626 626
803 804 804
955 956 956
1110 1111 1111
1275 1276 1275
1452 1452 1452
1631 1632 1632
1804 1805 1804
1955 1956 1956
33 33 33
56 56 56
78 78 78
119 119 119
194 194 194
270 270 270
360 360 360
465 465 465
590 590 590
752 752 752
924 924 924
1085 1086 1086
1254 1254 1254
1428 1428 1428
1615 1615 1615
1796 1796 1796
1951 1952 1952
78 78 78
109 109 109
149 149 149
210 210 210
278 278 278
374 374 374
459 459 459
545 545 545
648 648 648
767 767 767
901 901 901
1047 1047 1047
1205 1205 1205
1363 1363 1363
1543 1543 1543
1738 1738 1738
1908 1908 1908
251 251 251
239 239 239
309 309 309
377 377 377
451 451 451
536 536 536
623 623 623
704 704 704
784 784 784
874 874 874
979 979 979
1091 1092 1092
1217 1218 1218
1352 1352 1352
1495 1496 1496
1653 1653 1653
1819 1819 1819
461 461 461
468 468 468
529 529 529
572 572 572
661 661 661
748 748 748
834 834 834
908 908 908
984 984 984
1061 1061 1061
1135 1135 1135
1210 1210 1210
1295 1295 1295
1397 1397 1397
1525 1525 1525
1651 1651 1651
1771 1771 1771
461 461 461
728 728 728
736 736 736
853 853 853
889 889 889
964 964 964
1052 1052 1052
1126 1126 1126
1195 1195 1195
1260 1260 1260
1326 1326 1326
1383 1383 1383
1437 1437 1437
1505 1505 1505
1594 1594 1594
1692 1692 1692
1791 1791 1791
728 728 728
728 728 728
1059 1059 1059
853 853 853
1102 1102 1102
1178 1178 1178
1259 1259 1259
1331 1331 1331
1402 1402 1402
1469 1469 1469
1526 1526 1526
1577 1577 1577
1627 1627 1627
1675 1675 1675
1731 1731 1731
1784 1784 1784
1843 1843 1843
1058 1058 1058
1059 1059 1059
1059 1059 1059
1312 1312 1312
1420 1420 1420
1430 1430 1430
1476 1476 1476
1537 1537 1537
1610 1610 1610
1670 1670 1670
1727 1727 1727
1776 1776 1776
1820 1820 1820
1866 1866 1866
1917 1917 1917
1942 1942 1942
1961 1961 1961
728 728 728
1370 1370 1370
1420 1420 1420
1420 1420 1420
1420 1420 1420
1608 1608 1608
1679 1679 1679
1748 1748 1748
1808 1808 1808
1872 1872 1872
1928 1928 1928
1977 1977 1977
2020 2020 2020
2062 2062 2062
2107 2107 2107
2145 2145 2145
2165 2165 2165
728 728 728
1370 1370 1370
1420 1420 1420
1420 1420 1420
1608 1608 1608
1608 1608 1608
1679 1679 1679
1899 1899 1899
1978 1978 1978
2047 2047 2047
2113 2113 2113
2165 2165 2165
2209 2209 2209
2250 2250 2250
2300 2300 2300
2353 2353 2353
2386 2386 2386
1420 1420 1420
1601 1601 1601
1601 1601 1601
1608 1608 1608
1608 1608 1608
1608 1608 1608
1899 1899 1899
1899 1899 1899
2184 2184 2184
2184 2184 2184
2258 2258 2258
2330 2330 2330
2384 2384 2384
2433 2433 2433
2482 2482 2482
2530 2530 2530
2573 2573 2573
1420 1420 1420
1601 1601 1601
1601 1601 1601
1608 1608 1608
1608 1608 1608
1899 1899 1899
1899 1899 1899
2140 2140 2140
2184 2184 2184
2184 2184 2184
2393 2393 2393
2459 2459 2459
2529 2529 2529
2593 2593 2593
2664 2664 2664
2724 2724 2724
2754 2754 2754
1420 1420 1420
1601 1601 1601
1601 1601 1601
1826 1826 1826
1608 1608 1608
2210 2210 2210
2210 2210 2210
2140 2140 2140
2346 2346 2346
2551 2551 2551
2551 2551 2551
2652 2652 2652
2641 2641 2641
2721 2721 2721
2829 2829 2829
2878 2878 2878
2916 2916 2916
1601 1601 1601
1601 1601 1601
1826 1826 1826
1826 1826 1826
1826 1826 1826
2210 2210 2210
2210 2210 2210
2140 2140 2140
2346 2346 2346
2551 2551 2551
2551 2551 2551
2652 2652 2652
2641 2641 2641
2721 2721 2721
3126 3126 3126
3126 3126 3126
2916 2916 2916
1601 1601 1601
1601 1601 1601
1826 1826 1826
1826 1826 1826
1826 1826 1826
2210 2210 2210
2210 2210 2210
2346 2346 2346
2346 2346 2346
2652 2652 2652
2551 2551 2551
2652 2652 2652
2641 2641 2641
3126 3126 3126
3126 3126 3126
3126 3126 3126
2916 2916 2916
1601 1601 1601
1601 1601 1601
1826 1826 1826
1826 1826 1826
1826 1826 1826
2210 2210 2210
2210 2210 2210
2346 2346 2346
2346 2346 2346
2652 2652 2652
2551 2551 2551
2652 2652 2652
3126 3126 3126
3126 3126 3126
3126 3126 3126
3126 3126 3126
3126 3126 3126
12 12 12
15 15 15
25 25 25
5 6 6
46 47 47
326 326 326
438 438 438
610 610 610
753 753 753
905 905 905
1039 1039 1039
1173 1174 1173
1326 1327 1326
1495 1496 1495
1664 1664 1664
1829 1830 1829
1972 1973 1972
26 26 26
32 32 32
54 54 54
104 104 104
231 231 231
326 326 326
438 438 438
577 577 577
734 734 734
904 904 904
1062 1062 1062
1209 1209 1209
1367 1368 1367
1549 1550 1550
1735 1735 1735
1904 1904 1904
2035 2035 2035
47 47 46
85 85 85
114 114 114
175 175 175
254 254 254
360 360 360
472 472 472
589 589 589
726 726 726
879 879 879
1044 1044 1044
1206 1206 1206
1372 1372 1372
1528 1528 1528
1713 1713 1713
1896 1896 1896
2045 2045 2045
111 111 110
173 173 173
218 218 218
280 280 280
350 350 350
452 452 452
565 565 565
687 687 687
812 812 812
959 959 959
1101 1101 1101
1241 1241 1241
1400 1400 1400
1548 1548 1548
1694 1694 1694
1862 1862 1862
2021 2021 2021
288 288 288
324 324 324
374 374 374
444 444 444
525 525 525
617 617 617
724 724 724
840 840 840
965 965 965
1091 1091 1091
1230 1230 1230
1364 1364 1364
1496 1496 1496
1623 1623 1623
1748 1748 1748
1879 1879 1879
1943 1943 1943
485 485 486
534 534 534
586 586 586
645 645 645
728 728 728
819 819 819
915 915 915
1016 1016 1016
1131 1131 1131
1255 1255 1255
1376 1376 1376
1498 1498 1498
1611 1611 1611
1731 1731 1731
1855 1855 1855
1969 1969 1969
1869 1869 1869
826 826 826
725 725 725
845 845 845
850 850 850
927 927 927
1025 1025 1025
1111 1111 1111
1202 1202 1202
1303 1303 1303
1418 1418 1418
1532 1532 1532
1637 1637 1637
1746 1746 1746
1858 1858 1858
1966 1966 1966
2077 2077 2077
1873 1873 1873
1058 1058 1058
1059 1059 1059
1059 1059 1059
1096 1096 1096
1153 1153 1153
1217 1217 1217
1303 1303 1303
1393 1393 1393
1485 1485 1485
1585 1585 1585
1685 1685 1685
1788 1788 1788
1889 1889 1889
1992 1992 1992
2097 2097 2097
2201 2201 2201
1912 1912 1912
1058 1058 1058
1059 1059 1059
1059 1059 1059
1312 1312 1312
1389 1389 1389
1447 1447 1447
1502 1502 1502
1579 1579 1579
1663 1663 1663
1754 1754 1754
1848 1848 1848
1945 1945 1945
2034 2034 2034
2128 2128 2128
2226 2226 2226
2329 2329 2329
2017 2017 2017
1058 1058 1058
1370 1370 1370
1370 1370 1370
1312 1312 1312
1606 1606 1606
1630 1630 1630
1707 1707 1707
1768 1768 1768
1842 1842 1842
1929 1929 1929
2012 2012 2012
2101 2101 2101
2183 2183 2183
2270 2270 2270
2364 2364 2364
2464 2464 2464
2200 2200 2200
1058 1058 1058
1601 1601 1601
1601 1601 1601
1569 1569 1569
1630 1630 1630
1630 1630 1630
1826 1826 1826
1937 1937 1937
2006 2006 2006
2087 2087 2087
2169 2169 2169
2246 2246 2246
2324 2324 2324
2405 2405 2405
2496 2496 2496
2595 2595 2595
2413 2413 2413
1058 1058 1058
1601 1601 1601
1601 1601 1601
1569 1569 1569
1826 1826 1826
1826 1826 1826
1826 1826 1826
2140 2140 2140
2140 2140 2140
2218 2218 2218
2297 2297 2297
2381 2381 2381
2457 2457 2457
2536 2536 2536
2620 2620 2620
2714 2714 2714
2611 2611 2611
1058 1058 1058
1601 1601 1601
1601 1601 1601
1569 1569 1569
1826 1826 1826
1826 1826 1826
2210 2210 2210
2140 2140 2140
2346 2346 2346
2346 2346 2346
2420 2420 2420
2493 2493 2493
2564 2564 2564
2650 2650 2650
2744 2744 2744
2835 2835 2835
2791 2791 2791
1058 1058 1058
1601 1601 1601
1601 1601 1601
1569 1569 1569
1826 1826 1826
2210 2210 2210
2210 2210 2210
2346 2346 2346
2346 2346 2346
2551 2551 2551
2551 2551 2551
2631 2631 2631
2691 2691 2691
2758 2758 2758
2862 2862 2862
2922 2922 2922
2983 2983 2983
1601 1601 1601
1601 1601 1601
1601 1601 1601
1826 1826 1826
1826 1826 1826
2210 2210 2210
2210 2210 2210
2346 2346 2346
2346 2346 2346
2551 2551 2551
2551 2551 2551
2631 2631 2631
2691 2691 2691
2758 2758 2758
2862 2862 2862
2922 2922 2922
2983 2983 2983
1601 1601 1601
1601 1601 1601
1601 1601 1601
1826 1826 1826
1826 1826 1826
2210 2210 2210
2210 2210 2210
2346 2346 2346
2346 2346 2346
2631 2631 2631
2551 2551 2551
2631 2631 2631
2691 2691 2691
3126 3126 3126
3126 3126 3126
3126 3126 3126
2983 2983 2983
1601 1601 1601
1601 1601 1601
1826 1826 1826
1826 1826 1826
1826 1826 1826
2210 2210 2210
2210 2210 2210
2346 2346 2346
2346 2346 2346
2631 2631 2631
2551 2551 2551
2631 2631 2631
2691 2691 2691
3126 3126 3126
3126 3126 3126
3126 3126 3126
2983 2983 2983
51 51 51
45 45 45
25 25 25
169 169 169
288 288 288
380 380 380
515 515 515
688 688 688
813 813 813
961 961 961
1088 1088 1088
1220 1220 1220
1364 1365 1364
1526 1526 1526
1689 1689 1689
1852 1852 1852
1992 1992 1992
63 63 63
77 77 77
98 98 98
169 169 169
288 288 288
380 380 380
515 515 515
647 647 647
794 794 794
955 955 955
1102 1102 1102
1243 1243 1243
1398 1399 1398
1573 1573 1573
1761 1761 1761
1927 1927 1927
2067 2068 2067
113 113 113
133 133 133
171 171 171
247 247 247
336 336 336
440 440 440
545 545 545
662 662 662
793 793 793
944 944 944
1100 1100 1100
1248 1248 1248
1402 1402 1402
1559 1559 1559
1734 1734 1734
1924 1924 1924
2107 2108 2107
202 202 202
227 227 227
277 277 277
341 341 341
425 425 425
528 528 528
637 637 637
760 760 760
881 881 881
1018 1018 1018
1153 1153 1153
1298 1298 1298
1445 1445 1445
1585 1585 1585
1724 1724 1724
1887 1887 1887
2109 2109 2109
372 372 372
390 390 390
440 440 440
501 501 501
588 588 588
687 687 687
793 793 793
907 907 907
1028 1028 1028
1152 1152 1152
1290 1290 1290
1414 1414 1414
1542 1542 1542
1657 1657 1657
1789 1789 1789
1915 1915 1915
2047 2047 2047
591 591 591
620 620 620
641 641 641
706 706 706
785 785 785
877 877 877
975 975 975
1078 1078 1078
1189 1189 1189
1307 1307 1307
1430 1430 1430
1543 1543 1543
1656 1656 1656
1770 1770 1770
1889 1889 1889
1999 1999 1999
1968 1968 1968
826 826 826
879 879 879
887 887 887
928 928 928
988 988 988
1072 1072 1072
1159 1159 1159
1255 1255 1255
1357 1357 1357
1470 1470 1470
1574 1574 1574
1681 1681 1681
1786 1786 1786
1894 1894 1894
1999 1999 1999
2109 2109 2109
1953 1953 1953
1058 1058 1058
1070 1070 1070
1126 1126 1126
1161 1161 1161
1194 1194 1194
1268 1268 1268
1348 1348 1348
1439 1439 1439
1535 1535 1535
1633 1633 1633
1729 1729 1729
1830 1830 1830
1929 1929 1929
2021 2021 2021
2126 2126 2126
2229 2229 2229
1984 1984 1984
1058 1058 1058
1370 1370 1370
1370 1370 1370
1379 1379 1379
1422 1422 1422
1472 1472 1472
1543 1543 1543
1619 1619 1619
1706 1706 1706
1796 1796 1796
1889 1889 1889
1982 1982 1982
2071 2071 2071
2161 2161 2161
2257 2257 2257
2356 2356 2356
2074 2074 2074
1058 1058 1058
1370 1370 1370
1370 1370 1370
1569 1569 1569
1606 1606 1606
1668 1668 1668
1738 1738 1738
1802 1802 1802
1878 1878 1878
1965 1965 1965
2050 2050 2050
2132 2132 2132
2219 2219 2219
2298 2298 2298
2390 2390 2390
2488 2488 2488
2237 2237 2237
1058 1058 1058
1601 1601 1601
1601 1601 1601
1569 1569 1569
1606 1606 1606
1834 1834 1834
1901 1901 1901
1973 1973 1973
2045 2045 2045
2120 2120 2120
2204 2204 2204
2277 2277 2277
2354 2354 2354
2432 2432 2432
2524 2524 2524
2620 2620 2620
2432 2432 2432
1058 1058 1058
1601 1601 1601
1601 1601 1601
1769 1769 1769
1606 1606 1606
1834 1834 1834
1901 1901 1901
2097 2097 2097
2183 2183 2183
2251 2251 2251
2330 2330 2330
2412 2412 2412
2484 2484 2484
2560 2560 2560
2648 2648 2648
2737 2737 2737
2638 2638 2638
1058 1058 1058
1601 1601 1601
1601 1601 1601
1769 1769 1769
2210 2210 2210
2210 2210 2210
2210 2210 2210
2234 2234 2234
2183 2183 2183
2362 2362 2362
2450 2450 2450
2523 2523 2523
2594 2594 2594
2680 2680 2680
2770 2770 2770
2858 2858 2858
2805 2805 2805
1058 1058 1058
1601 1601 1601
1601 1601 1601
1769 1769 1769
1826 1826 1826
2210 2210 2210
2210 2210 2210
2234 2234 2234
2349 2349 2349
2362 2362 2362
2584 2584 2584
2650 2650 2650
2715 2715 2715
2793 2793 2793
2884 2884 2884
2957 2957 2957
3013 3013 3013
1370 1370 1370
1601 1601 1601
1601 1601 1601
1769 1769 1769
1802 1802 1802
2210 2210 2210
2210 2210 2210
2234 2234 2234
2349 2349 2349
2584 2584 2584
2584 2584 2584
2650 2650 2650
2715 2715 2715
2918 2918 2918
2884 2884 2884
2957 2957 2957
3013 3013 3013
1370 1370 1370
1601 1601 1601
1601 1601 1601
1769 1769 1769
1802 1802 1802
2210 2210 2210
2210 2210 2210
2234 2234 2234
2349 2349 2349
2584 2584 2584
2584 2584 2584
2650 2650 2650
2918 2918 2918
2918 2918 2918
2987 2987 2987
2987 2987 2987
3013 3013 3013
1370 1370 1370
1601 1601 1601
1601 1601 1601
1769 1769 1769
1802 1802 1802
2210 2210 2210
2210 2210 2210
2234 2234 2234
2349 2349 2349
2584 2584 2584
2584 2584 2584
2650 2650 2650
2918 2918 2918
2918 2918 2918
2987 2987 2987
2987 2987 2987
3013 3013 3013
123 123 123
159 159 159
225 225 225
267 267 267
421 421 421
523 523 523
834 834 834
834 834 834
910 910 910
1043 1043 1043
1161 1161 1161
1287 1287 1287
1429 1429 1429
1579 1579 1579
1739 1739 1739
1897 1898 1897
2032 2032 2032
150 150 150
159 159 159
225 225 225
267 267 267
421 421 421
523 523 523
616 616 616
749 749 749
891 891 891
1034 1034 1034
1172 1172 1172
1306 1306 1306
1451 1451 1451
1616 1616 1616
1796 1796 1796
1962 1962 1962
