Fujifilm XTrans III/Mono+G.3dl
#Created by: Affinity Photo (Serif Europe Ltd.)
0 128 256 384 512 639 767 895 1023
3 3 3
24 24 24
196 196 196
589 590 591
909 908 909
1133 1133 1133
1338 1337 1338
1530 1530 1530
1727 1726 1727
45 45 45
116 116 116
328 328 328
621 621 621
968 968 968
1274 1275 1275
1480 1480 1480
1632 1632 1632
1773 1773 1774
420 420 420
504 504 504
693 693 693
945 945 945
1223 1223 1223
1512 1512 1512
1809 1809 1809
2109 2109 2109
2249 2249 2249
676 676 676
1012 1012 1012
1183 1183 1183
1387 1387 1387
1604 1604 1604
1834 1834 1834
2056 2056 2056
2296 2296 2296
2531 2531 2531
1316 1316 1316
1360 1360 1360
1789 1789 1789
1853 1853 1853
2030 2030 2030
2204 2204 2204
2376 2376 2376
2565 2565 2565
2729 2729 2729
984 984 984
1789 1789 1789
2004 2004 2004
2072 2072 2072
2399 2399 2399
2560 2560 2560
2711 2711 2711
2862 2862 2862
3017 3017 3017
1789 1789 1789
1921 1921 1921
2004 2004 2004
2308 2308 2308
2625 2625 2625
2855 2855 2855
2981 2981 2981
3142 3142 3142
3290 3290 3290
1921 1921 1921
2233 2233 2233
2233 2233 2233
2650 2650 2650
2801 2801 2801
3011 3011 3011
3105 3105 3105
3542 3542 3542
3422 3422 3422
1921 1921 1921
2233 2233 2233
2233 2233 2233
2650 2650 2650
2801 2801 2801
3011 3011 3011
3542 3542 3542
3542 3542 3542
3542 3542 3542
22 22 21
31 31 31
330 330 330
674 674 674
983 983 983
1211 1210 1211
1420 1419 1420
1608 1607 1608
1782 1781 1782
103 103 103
172 172 172
393 393 393
701 701 701
1071 1071 1071
1443 1443 1443
1708 1708 1708
1944 1944 1944
1837 1837 1838
457 457 457
515 515 515
737 737 737
1013 1013 1013
1332 1332 1332
1664 1664 1664
1976 1976 1976
2277 2277 2277
2187 2187 2187
1015 1015 1015
1087 1087 1087
1220 1220 1220
1434 1434 1434
1677 1677 1677
1949 1949 1949
2206 2206 2206
2467 2467 2467
2639 2639 2639
1316 1316 1316
1706 1706 1706
1749 1749 1749
1883 1883 1883
2075 2075 2075
2272 2272 2272
2483 2483 2483
2718 2718 2718
2824 2824 2824
1316 1316 1316
1921 1921 1921
1969 1969 1969
2285 2285 2285
2435 2435 2435
2613 2613 2613
2777 2777 2777
2952 2952 2952
3073 3073 3073
1316 1316 1316
1921 1921 1921
2650 2650 2650
2650 2650 2650
2592 2592 2592
2879 2879 2879
3012 3012 3012
3195 3195 3195
3341 3341 3341
1706 1706 1706
1921 1921 1921
2172 2172 2172
2650 2650 2650
2775 2775 2775
3023 3023 3023
3143 3143 3143
3328 3328 3328
3483 3483 3483
1706 1706 1706
1921 1921 1921
2172 2172 2172
2650 2650 2650
2775 2775 2775
3023 3023 3023
3358 3358 3358
3426 3426 3426
3483 3483 3483
66 66 65
216 216 216
580 580 580
796 796 796
1100 1099 1100
1334 1333 1334
1554 1554 1554
1737 1736 1737
1890 1890 1890
189 189 189
314 314 314
540 540 540
848 848 848
1192 1192 1192
1547 1547 1547
1809 1809 1809
2056 2056 2056
1988 1987 1988
540 540 540
649 649 649
858 858 858
1123 1123 1123
1426 1426 1426
1739 1739 1739
2039 2039 2039
2328 2328 2328
2539 2539 2539
1167 1167 1167
1202 1202 1202
1337 1337 1337
1540 1540 1540
1769 1769 1769
2019 2019 2019
2265 2265 2265
2517 2517 2517
2807 2807 2807
1643 1643 1643
1698 1698 1698
1824 1824 1824
1965 1965 1965
2150 2150 2150
2338 2338 2338
2537 2537 2537
2765 2765 2765
3001 3001 3001
1643 1643 1643
1931 1931 1931
2227 2227 2227
2356 2356 2356
2503 2503 2503
2669 2669 2669
2822 2822 2822
2995 2995 2995
3179 3179 3179
1643 1643 1643
2434 2434 2434
2434 2434 2434
2696 2696 2696
2802 2802 2802
2923 2923 2923
3068 3068 3068
3232 3232 3232
3398 3398 3398
2434 2434 2434
2434 2434 2434
2698 2698 2698
2939 2939 2939
2957 2957 2957
3055 3055 3055
3330 3330 3330
3501 3501 3501
3535 3535 3535
2434 2434 2434
2698 2698 2698
2698 2698 2698
2939 2939 2939
2957 2957 2957
3330 3330 3330
3330 3330 3330
3501 3501 3501
3501 3501 3501
287 287 287
297 297 297
782 782 782
932 932 932
1259 1259 1259
1518 1518 1518
1723 1722 1723
1908 1907 1908
2043 2042 2043
456 456 456
530 530 530
723 723 723
1009 1009 1009
1333 1333 1333
1671 1671 1671
1953 1953 1953
2209 2209 2209
2140 2139 2140
791 791 791
828 828 828
1002 1002 1002
1261 1261 1261
1552 1552 1552
1851 1851 1851
2132 2132 2132
2406 2406 2406
2631 2631 2631
1337 1337 1337
1350 1350 1350
1476 1476 1476
1666 1666 1666
1887 1887 1887
2120 2120 2120
2350 2350 2350
2598 2598 2598
2868 2868 2868
1829 1829 1829
1838 1838 1838
1942 1942 1942
2076 2076 2076
2250 2250 2250
2429 2429 2429
2624 2624 2624
2835 2835 2835
3058 3058 3058
2002 2002 2002
2046 2046 2046
2332 2332 2332
2459 2459 2459
2597 2597 2597
2756 2756 2756
2892 2892 2892
3064 3064 3064
3265 3265 3265
2276 2276 2276
2553 2553 2553
2736 2736 2736
2772 2772 2772
2880 2880 2880
3006 3006 3006
3138 3138 3138
3298 3298 3298
3459 3459 3459
2553 2553 2553
2553 2553 2553
2736 2736 2736
2939 2939 2939
3009 3009 3009
3136 3136 3136
3502 3502 3502
3520 3520 3520
3584 3584 3584
2553 2553 2553
2736 2736 2736
2736 2736 2736
2939 2939 2939
3009 3009 3009
3136 3136 3136
3502 3502 3502
3520 3520 3520
3520 3520 3520
468 468 468
750 750 750
933 933 933
1176 1176 1176
1396 1396 1396
1705 1705 1705
1906 1906 1906
2102 2102 2102
2224 2224 2224
693 693 693
750 750 750
867 867 867
1150 1150 1150
1483 1483 1483
1801 1801 1801
2094 2094 2094
2360 2360 2360
2317 2316 2316
998 998 998
1015 1015 1015
1137 1137 1137
1396 1396 1396
1683 1683 1683
1968 1968 1968
2239 2239 2239
2503 2503 2503
2725 2725 2725
1454 1454 1454
1479 1479 1479
1596 1596 1596
1792 1792 1792
2017 2017 2017
2232 2232 2232
2456 2456 2456
2700 2700 2700
2944 2944 2944
1934 1934 1934
1962 1962 1962
2063 2063 2063
2198 2198 2198
2363 2363 2363
2536 2536 2536
2726 2726 2726
2915 2915 2915
3124 3124 3124
2414 2414 2414
2408 2408 2408
2454 2454 2454
2570 2570 2570
2705 2705 2705
2846 2846 2846
2977 2977 2977
3145 3145 3145
3333 3333 3333
2408 2408 2408
2666 2666 2666
2829 2829 2829
2876 2876 2876
2979 2979 2979
3096 3096 3096
3224 3224 3224
3373 3373 3373
3528 3528 3528
2666 2666 2666
2666 2666 2666
2829 2829 2829
3068 3068 3068
3131 3131 3131
3230 3230 3230
3511 3511 3511
3635 3635 3635
3591 3591 3591
2666 2666 2666
2666 2666 2666
2829 2829 2829
3068 3068 3068
3131 3131 3131
3511 3511 3511
3511 3511 3511
3635 3635 3635
3708 3708 3708
909 909 909
1001 1001 1001
1010 1010 1010
1229 1229 1229
1524 1524 1524
1842 1842 1842
2078 2078 2078
2309 2309 2309
2410 2409 2410
909 909 909
962 962 962
1051 1051 1051
1263 1263 1263
1609 1609 1609
1918 1918 1918
2215 2215 2215
2491 2491 2491
2507 2507 2507
1190 1190 1190
1195 1195 1195
1294 1294 1294
1514 1514 1514
1810 1810 1810
2080 2080 2080
2347 2347 2347
2613 2613 2613
2794 2794 2794
1623 1623 1623
1634 1634 1634
1710 1710 1710
1900 1900 1900
2122 2122 2122
2340 2340 2340
2558 2558 2558
2798 2798 2798
3018 3018 3018
2043 2043 2043
2059 2059 2059
2150 2150 2150
2295 2295 2295
2462 2462 2462
2646 2646 2646
2821 2821 2821
3005 3005 3005
3199 3199 3199
2224 2224 2224
2440 2440 2440
2557 2557 2557
2683 2683 2683
2810 2810 2810
2935 2935 2935
3067 3067 3067
3230 3230 3230
3404 3404 3404
2414 2414 2414
2659 2659 2659
2834 2834 2834
2969 2969 2969
3077 3077 3077
3189 3189 3189
3309 3309 3309
3460 3460 3460
3609 3609 3609
2659 2659 2659
2834 2834 2834
2834 2834 2834
3124 3124 3124
3222 3222 3222
3324 3324 3324
3608 3608 3608
3738 3738 3738
3720 3720 3720
2834 2834 2834
2834 2834 2834
3124 3124 3124
3124 3124 3124
3222 3222 3222
3608 3608 3608
3608 3608 3608
3738 3738 3738
3803 3803 3803
992 992 992
1080 1080 1080
1162 1162 1162
1267 1267 1267
1570 1570 1570
1929 1929 1929
2199 2199 2199
2439 2439 2439
2576 2576 2576
1120 1120 1120
1111 1111 1111
1190 1190 1190
1344 1344 1344
1676 1676 1676
2013 2013 2013
2305 2305 2305
2578 2578 2578
2689 2689 2689
1438 1438 1438
1359 1359 1359
1445 1445 1445
1585 1585 1585
1890 1890 1890
2174 2174 2174
2432 2432 2432
2701 2701 2701
2885 2885 2885
1787 1787 1787
1763 1763 1763
1832 1832 1832
1953 1953 1953
2195 2195 2195
2422 2422 2422
2650 2650 2650
2872 2872 2872
3079 3079 3079
2163 2163 2163
2146 2146 2146
2212 2212 2212
2351 2351 2351
2537 2537 2537
2729 2729 2729
2899 2899 2899
3082 3082 3082
3258 3258 3258
2462 2462 2462
2501 2501 2501
2617 2617 2617
2751 2751 2751
2880 2880 2880
3012 3012 3012
3153 3153 3153
3312 3312 3312
3463 3463 3463
2462 2462 2462
2720 2720 2720
2948 2948 2948
3043 3043 3043
3154 3154 3154
3267 3267 3267
3386 3386 3386
3529 3529 3529
3659 3659 3659
2462 2462 2462
2948 2948 2948
2948 2948 2948
3190 3190 3190
3293 3293 3293
3582 3582 3582
3522 3522 3522
3766 3766 3766
3806 3806 3806
2948 2948 2948
2948 2948 2948
3190 3190 3190
3190 3190 3190
3506 3506 3506
3582 3582 3582
3704 3704 3704
3766 3766 3766
3870 3870 3870
1111 1111 1111
1080 1080 1080
1260 1260 1260
1451 1451 1451
1668 1668 1668
1987 1987 1987
2271 2271 2271
2545 2545 2545
2836 2836 2836
1120 1120 1120
1316 1316 1316
1269 1269 1269
1411 1411 1411
1709 1709 1709
2069 2069 2069
2367 2367 2367
2645 2645 2645
2897 2897 2897
1545 1545 1545
1429 1429 1429
1612 1612 1612
1675 1675 1675
1921 1921 1921
2223 2223 2223
2496 2496 2496
2762 2762 2762
2999 2999 2999
1545 1545 1545
1820 1820 1820
1912 1912 1912
1998 1998 1998
2223 2223 2223
2479 2479 2479
2722 2722 2722
2936 2936 2936
3149 3149 3149
2163 2163 2163
2193 2193 2193
2293 2293 2293
2363 2363 2363
2575 2575 2575
2793 2793 2793
2968 2968 2968
3154 3154 3154
3333 3333 3333
2557 2557 2557
2631 2631 2631
2633 2633 2633
2778 2778 2778
2930 2930 2930
3083 3083 3083
3243 3243 3243
3404 3404 3404
3551 3551 3551
2557 2557 2557
2755 2755 2755
2985 2985 2985
3112 3112 3112
3243 3243 3243
3367 3367 3367
3497 3497 3497
3632 3632 3632
3764 3764 3764
2755 2755 2755
2976 2976 2976
3207 3207 3207
3255 3255 3255
3506 3506 3506
3622 3622 3622
3734 3734 3734
3851 3851 3851
3951 3951 3951
2976 2976 2976
2985 2985 2985
3207 3207 3207
3506 3506 3506
3506 3506 3506
3622 3622 3622
3734 3734 3734
3851 3851 3851
3951 3951 3951
1111 1111 1111
1403 1403 1403
1358 1358 1358
1451 1451 1451
1668 1668 1668
2096 2096 2096
2345 2345 2345
2464 2464 2464
2836 2836 2836
1429 1429 1429
1403 1403 1403
1403 1403 1403
1586 1586 1586
1648 1648 1648
2076 2076 2076
2383 2383 2383
2535 2535 2535
2897 2897 2897
1545 1545 1545
1612 1612 1612
1661 1661 1661
1672 1672 1672
1965 1965 1965
2231 2231 2231
2531 2531 2531
2689 2689 2689
2999 2999 2999
1545 1545 1545
2124 2124 2124
1828 1828 1828
2029 2029 2029
2225 2225 2225
2495 2495 2495
2754 2754 2754
2861 2861 2861
3177 3177 3177
2193 2193 2193
2282 2282 2282
2161 2161 2161
2409 2409 2409
2604 2604 2604
2827 2827 2827
3011 3011 3011
3331 3331 3331
3331 3331 3331
2557 2557 2557
2759 2759 2759
2759 2759 2759
2783 2783 2783
2947 2947 2947
3136 3136 3136
3298 3298 3298
3517 3517 3517
3588 3588 3588
2755 2755 2755
2755 2755 2755
3084 3084 3084
3159 3159 3159
3348 3348 3348
3540 3540 3540
3688 3688 3688
3742 3742 3742
3822 3822 3822
2755 2755 2755
2985 2985 2985
3084 3084 3084
3302 3302 3302
3545 3545 3545
3738 3738 3738
3835 3835 3835
3955 3955 3955
3972 3972 3972
2985 2985 2985
3207 3207 3207
3207 3207 3207
3545 3545 3545
3545 3545 3545
3738 3738 3738
3835 3835 3835
3955 3955 3955
3972 3972 3972
