Fujifilm XTrans III/Mono+Ye.3dl
#Created by: Affinity Photo (Serif Europe Ltd.)
0 128 256 384 512 639 767 895 1023
3 3 3
16 16 16
46 47 47
351 352 352
661 662 662
962 962 962
1278 1279 1279
1626 1627 1626
1946 1946 1946
33 33 33
78 78 78
194 194 194
360 360 360
590 590 590
924 924 924
1254 1254 1254
1615 1615 1615
1951 1952 1952
251 251 251
309 309 309
451 451 451
623 623 623
784 784 784
979 979 979
1217 1218 1218
1495 1496 1496
1819 1819 1819
461 461 461
736 736 736
889 889 889
1052 1052 1052
1195 1195 1195
1326 1326 1326
1437 1437 1437
1594 1594 1594
1791 1791 1791
1058 1058 1058
1059 1059 1059
1420 1420 1420
1476 1476 1476
1610 1610 1610
1727 1727 1727
1820 1820 1820
1917 1917 1917
1961 1961 1961
728 728 728
1420 1420 1420
1608 1608 1608
1679 1679 1679
1978 1978 1978
2113 2113 2113
2209 2209 2209
2300 2300 2300
2386 2386 2386
1420 1420 1420
1601 1601 1601
1608 1608 1608
1899 1899 1899
2184 2184 2184
2393 2393 2393
2529 2529 2529
2664 2664 2664
2754 2754 2754
1601 1601 1601
1826 1826 1826
1826 1826 1826
2210 2210 2210
2346 2346 2346
2551 2551 2551
2641 2641 2641
3126 3126 3126
2916 2916 2916
1601 1601 1601
1826 1826 1826
1826 1826 1826
2210 2210 2210
2346 2346 2346
2551 2551 2551
3126 3126 3126
3126 3126 3126
3126 3126 3126
51 51 51
25 25 25
288 288 288
515 515 515
813 813 813
1088 1088 1088
1364 1365 1364
1689 1689 1689
1992 1992 1992
113 113 113
171 171 171
336 336 336
545 545 545
793 793 793
1100 1100 1100
1402 1402 1402
1734 1734 1734
2107 2108 2107
372 372 372
440 440 440
588 588 588
793 793 793
1028 1028 1028
1290 1290 1290
1542 1542 1542
1789 1789 1789
2047 2047 2047
826 826 826
887 887 887
988 988 988
1159 1159 1159
1357 1357 1357
1574 1574 1574
1786 1786 1786
1999 1999 1999
1953 1953 1953
1058 1058 1058
1370 1370 1370
1422 1422 1422
1543 1543 1543
1706 1706 1706
1889 1889 1889
2071 2071 2071
2257 2257 2257
2074 2074 2074
1058 1058 1058
1601 1601 1601
1606 1606 1606
1901 1901 1901
2045 2045 2045
2204 2204 2204
2354 2354 2354
2524 2524 2524
2432 2432 2432
1058 1058 1058
1601 1601 1601
2210 2210 2210
2210 2210 2210
2183 2183 2183
2450 2450 2450
2594 2594 2594
2770 2770 2770
2805 2805 2805
1370 1370 1370
1601 1601 1601
1802 1802 1802
2210 2210 2210
2349 2349 2349
2584 2584 2584
2715 2715 2715
2884 2884 2884
3013 3013 3013
1370 1370 1370
1601 1601 1601
1802 1802 1802
2210 2210 2210
2349 2349 2349
2584 2584 2584
2918 2918 2918
2987 2987 2987
3013 3013 3013
294 294 294
421 421 421
883 883 883
799 799 799
1038 1038 1038
1259 1260 1259
1505 1506 1506
1809 1809 1809
2090 2091 2090
392 392 392
460 460 460
628 628 628
829 829 829
1045 1045 1045
1294 1294 1294
1544 1544 1544
1837 1837 1837
2202 2202 2202
629 629 629
709 709 709
864 864 864
1046 1046 1046
1252 1252 1252
1482 1482 1482
1694 1694 1694
1919 1919 1919
2205 2205 2205
1045 1045 1045
1101 1101 1101
1209 1209 1209
1377 1377 1377
1554 1554 1554
1738 1738 1738
1925 1925 1925
2115 2115 2115
2320 2320 2320
1425 1425 1425
1456 1456 1456
1570 1570 1570
1706 1706 1706
1875 1875 1875
2033 2033 2033
2190 2190 2190
2360 2360 2360
2523 2523 2523
1425 1425 1425
1637 1637 1637
1911 1911 1911
2037 2037 2037
2171 2171 2171
2324 2324 2324
2458 2458 2458
2623 2623 2623
2585 2585 2585
1425 1425 1425
2057 2057 2057
2057 2057 2057
2286 2286 2286
2404 2404 2404
2551 2551 2551
2700 2700 2700
2851 2851 2851
2943 2943 2943
2057 2057 2057
2057 2057 2057
2317 2317 2317
2574 2574 2574
2558 2558 2558
2666 2666 2666
2912 2912 2912
3068 3068 3068
3095 3095 3095
2057 2057 2057
2317 2317 2317
2317 2317 2317
2574 2574 2574
2558 2558 2558
2912 2912 2912
2912 2912 2912
3068 3068 3068
3068 3068 3068
764 764 764
589 589 589
1039 1039 1039
1142 1142 1142
1357 1357 1357
1527 1527 1527
1725 1726 1726
1993 1994 1994
2244 2245 2244
865 865 865
911 911 911
1063 1063 1063
1217 1217 1217
1397 1397 1397
1592 1592 1592
1787 1787 1787
2022 2022 2022
2340 2340 2340
1108 1108 1108
1127 1127 1127
1239 1239 1239
1392 1392 1392
1562 1562 1562
1742 1742 1742
1927 1927 1927
2108 2108 2108
2356 2356 2356
1443 1443 1443
1442 1442 1442
1532 1532 1532
1670 1670 1670
1820 1820 1820
1977 1977 1977
2130 2130 2130
2295 2295 2295
2475 2475 2475
1761 1761 1761
1767 1767 1767
1850 1850 1850
1968 1968 1968
2105 2105 2105
2236 2236 2236
2371 2371 2371
2524 2524 2524
2672 2672 2672
1889 1889 1889
1915 1915 1915
2124 2124 2124
2246 2246 2246
2370 2370 2370
2504 2504 2504
2624 2624 2624
2776 2776 2776
2893 2893 2893
2127 2127 2127
2330 2330 2330
2434 2434 2434
2450 2450 2450
2579 2579 2579
2720 2720 2720
2848 2848 2848
2980 2980 2980
3095 3095 3095
2330 2330 2330
2330 2330 2330
2434 2434 2434
2574 2574 2574
2679 2679 2679
2819 2819 2819
3201 3201 3201
3176 3176 3176
3205 3205 3205
2330 2330 2330
2434 2434 2434
2434 2434 2434
2574 2574 2574
2679 2679 2679
2819 2819 2819
3201 3201 3201
3176 3176 3176
3176 3176 3176
1032 1032 1032
1396 1396 1396
1507 1507 1507
1630 1630 1630
1748 1748 1748
1877 1877 1877
2018 2018 2018
2238 2238 2238
2455 2455 2455
1334 1334 1334
1396 1396 1396
1526 1526 1526
1643 1643 1643
1787 1787 1787
1935 1935 1935
2085 2085 2085
2266 2266 2266
2526 2526 2526
1522 1522 1522
1558 1558 1558
1644 1644 1644
1769 1769 1769
1910 1910 1910
2052 2052 2052
2199 2199 2199
2356 2356 2356
2562 2562 2562
1777 1777 1777
1803 1803 1803
1881 1881 1881
1994 1994 1994
2124 2124 2124
2247 2247 2247
2376 2376 2376
2520 2520 2520
2671 2671 2671
2084 2084 2084
2080 2080 2080
2148 2148 2148
2246 2246 2246
2364 2364 2364
2478 2478 2478
2595 2595 2595
2738 2738 2738
2853 2853 2853
2457 2457 2457
2385 2385 2385
2397 2397 2397
2497 2497 2497
2606 2606 2606
2725 2725 2725
2825 2825 2825
2944 2944 2944
3057 3057 3057
2385 2385 2385
2652 2652 2652
2653 2653 2653
2704 2704 2704
2811 2811 2811
2909 2909 2909
3021 3021 3021
3145 3145 3145
3247 3247 3247
2652 2652 2652
2652 2652 2652
2653 2653 2653
2818 2818 2818
2896 2896 2896
3012 3012 3012
3253 3253 3253
3365 3365 3365
3323 3323 3323
2652 2652 2652
2652 2652 2652
2653 2653 2653
2818 2818 2818
2896 2896 2896
3253 3253 3253
3253 3253 3253
3365 3365 3365
3455 3455 3455
1824 1824 1824
2101 2101 2101
2011 2011 2011
2047 2047 2047
2146 2146 2146
2234 2234 2234
2336 2336 2336
2524 2524 2524
2701 2701 2701
1824 1824 1824
1867 1867 1867
1960 1960 1960
2061 2061 2061
2162 2162 2162
2271 2271 2271
2397 2397 2397
2540 2540 2540
2756 2757 2757
1970 1970 1970
1967 1967 1967
2049 2049 2049
2151 2151 2151
2257 2257 2257
2369 2369 2369
2489 2489 2489
2629 2629 2629
2805 2805 2805
2133 2133 2133
2161 2161 2161
2233 2233 2233
2323 2323 2323
2428 2428 2428
2534 2534 2534
2647 2647 2647
2778 2778 2778
2898 2898 2898
2362 2362 2362
2392 2392 2392
2452 2452 2452
2535 2535 2535
2637 2637 2637
2743 2743 2743
2834 2834 2834
2945 2945 2945
3055 3055 3055
2497 2497 2497
2617 2617 2617
2676 2676 2676
2763 2763 2763
2849 2849 2849
2937 2937 2937
3023 3023 3023
3136 3136 3136
3243 3243 3243
2457 2457 2457
2733 2733 2733
2782 2782 2782
2942 2942 2942
3029 3029 3029
3119 3119 3119
3210 3210 3210
3330 3330 3330
3422 3422 3422
2733 2733 2733
2782 2782 2782
2782 2782 2782
3031 3031 3031
3133 3133 3133
3217 3217 3217
3464 3464 3464
3555 3555 3555
3520 3520 3520
2782 2782 2782
2782 2782 2782
3031 3031 3031
3031 3031 3031
3133 3133 3133
3464 3464 3464
3464 3464 3464
3555 3555 3555
3647 3647 3647
1978 1978 1978
2224 2224 2224
2291 2291 2291
2394 2394 2394
2476 2476 2476
2562 2562 2562
2656 2656 2656
2787 2787 2787
2933 2933 2933
2169 2169 2169
2206 2206 2206
2298 2298 2298
2411 2411 2411
2500 2500 2500
2602 2602 2602
2708 2708 2708
2810 2810 2810
2968 2968 2968
2305 2305 2305
2296 2296 2296
2398 2398 2398
2486 2486 2486
2584 2584 2584
2688 2688 2688
2784 2784 2784
2882 2882 2882
3010 3010 3010
2424 2424 2424
2453 2453 2453
2556 2556 2556
2640 2640 2640
2730 2730 2730
2817 2817 2817
2901 2901 2901
2997 2997 2997
3095 3095 3095
2618 2618 2618
2643 2643 2643
2745 2745 2745
2818 2818 2818
2891 2891 2891
2972 2972 2972
3053 3053 3053
3149 3149 3149
3231 3231 3231
2850 2850 2850
2835 2835 2835
2915 2915 2915
2992 2992 2992
3067 3067 3067
3144 3144 3144
3224 3224 3224
3322 3322 3322
3400 3400 3400
2850 2850 2850
2957 2957 2957
3089 3089 3089
3157 3157 3157
3235 3235 3235
3314 3314 3314
3393 3393 3393
3500 3500 3500
3574 3574 3574
2850 2850 2850
3089 3089 3089
3089 3089 3089
3256 3256 3256
3334 3334 3334
3627 3627 3627
3499 3499 3499
3672 3672 3672
3708 3708 3708
3089 3089 3089
3089 3089 3089
3256 3256 3256
3256 3256 3256
3592 3592 3592
3627 3627 3627
3711 3711 3711
3672 3672 3672
3817 3817 3817
2206 2206 2206
2224 2224 2224
2474 2474 2474
2746 2746 2746
2777 2777 2777
2839 2839 2839
2906 2906 2906
2999 2999 2999
3184 3184 3184
2169 2169 2169
2450 2450 2450
2460 2460 2460
2689 2689 2689
2799 2799 2799
2872 2872 2872
2953 2953 2953
3046 3046 3046
3184 3184 3184
2476 2476 2476
2461 2461 2461
2738 2738 2738
2778 2778 2778
2864 2864 2864
2945 2945 2945
3028 3028 3028
3110 3110 3110
3216 3216 3216
2476 2476 2476
2602 2602 2602
2810 2810 2810
2892 2892 2892
2976 2976 2976
3061 3061 3061
3138 3138 3138
3228 3228 3228
3334 3334 3334
2618 2618 2618
2787 2787 2787
2975 2975 2975
3040 3040 3040
3116 3116 3116
3203 3203 3203
3276 3276 3276
3364 3364 3364
3461 3461 3461
2947 2947 2947
3096 3096 3096
3130 3130 3130
3199 3199 3199
3276 3276 3276
3352 3352 3352
3435 3435 3435
3524 3524 3524
3608 3608 3608
2947 2947 2947
3198 3198 3198
3281 3281 3281
3356 3356 3356
3441 3441 3441
3515 3515 3515
3593 3593 3593
3683 3683 3683
3762 3762 3762
3198 3198 3198
3202 3202 3202
3436 3436 3436
3448 3448 3448
3592 3592 3592
3709 3709 3709
3788 3788 3788
3868 3868 3868
3944 3944 3944
3202 3202 3202
3281 3281 3281
3436 3436 3436
3592 3592 3592
3592 3592 3592
3709 3709 3709
3788 3788 3788
3868 3868 3868
3944 3944 3944
2206 2206 2206
2643 2643 2643
2712 2712 2712
2746 2746 2746
2948 2948 2948
3016 3016 3016
3060 3060 3060
3119 3119 3119
3184 3184 3184
2461 2461 2461
2643 2643 2643
2643 2643 2643
2883 2883 2883
2924 2924 2924
3009 3009 3009
3125 3125 3125
3136 3136 3136
3184 3184 3184
2476 2476 2476
2738 2738 2738
2860 2860 2860
2893 2893 2893
3002 3002 3002
3087 3087 3087
3170 3170 3170
3204 3204 3204
3216 3216 3216
2476 2476 2476
2870 2870 2870
2952 2952 2952
3019 3019 3019
3113 3113 3113
3195 3195 3195
3262 3262 3262
3311 3311 3311
3463 3463 3463
2787 2787 2787
2948 2948 2948
3059 3059 3059
3170 3170 3170
3250 3250 3250
3331 3331 3331
3410 3410 3410
3559 3559 3559
3559 3559 3559
2947 2947 2947
3304 3304 3304
3304 3304 3304
3320 3320 3320
3392 3392 3392
3477 3477 3477
3562 3562 3562
3691 3691 3691
3730 3730 3730
3198 3198 3198
3198 3198 3198
3444 3444 3444
3480 3480 3480
3705 3705 3705
3804 3804 3804
3900 3900 3900
3927 3927 3927
3868 3868 3868
3198 3198 3198
3281 3281 3281
3444 3444 3444
3552 3552 3552
3713 3713 3713
3906 3906 3906
3955 3955 3955
4041 4041 4041
3979 3979 3979
3281 3281 3281
3436 3436 3436
3436 3436 3436
3713 3713 3713
3713 3713 3713
3906 3906 3906
3955 3955 3955
4041 4041 4041
3979 3979 3979
