Fujifilm XTrans III/Mono.3dl
#Created by: Affinity Photo (Serif Europe Ltd.)
0 256 512 767 1023
2 2 2
184 185 185
949 949 949
1523 1523 1523
2090 2090 2091
308 308 309
594 594 594
1158 1158 1158
1779 1779 1779
2318 2318 2318
1126 1126 1126
1563 1563 1563
1872 1872 1872
2284 2284 2284
2660 2660 2660
1563 1563 1563
1772 1772 1772
2420 2420 2420
2830 2830 2830
3174 3174 3174
1676 1676 1676
2001 2001 2001
2562 2562 2562
3385 3385 3385
3385 3385 3385
117 117 117
729 729 729
1190 1190 1190
1734 1734 1734
2229 2229 2229
553 553 553
862 862 862
1429 1429 1429
2046 2046 2046
2617 2617 2617
1460 1460 1460
1644 1644 1644
2042 2042 2042
2482 2482 2482
2965 2965 2965
1460 1460 1460
2155 2155 2155
2561 2561 2561
2928 2928 2928
3301 3301 3301
2155 2155 2155
2412 2412 2412
2724 2724 2724
3142 3142 3142
3343 3343 3343
686 686 686
1199 1199 1199
1594 1594 1594
2085 2085 2085
2535 2535 2535
1187 1187 1187
1380 1380 1380
1815 1815 1815
2305 2305 2305
2820 2820 2820
1972 1972 1972
2070 2070 2070
2363 2363 2363
2728 2728 2728
3121 3121 3121
2339 2339 2339
2673 2673 2673
2861 2861 2861
3145 3145 3145
3472 3472 3472
2599 2599 2599
2673 2673 2673
2965 2965 2965
3392 3392 3392
3621 3621 3621
1378 1378 1378
1724 1724 1724
2037 2037 2037
2434 2434 2434
2874 2874 2874
1817 1817 1817
1911 1911 1911
2230 2230 2230
2615 2615 2615
3038 3038 3038
2360 2360 2360
2475 2475 2475
2712 2712 2712
2984 2984 2984
3309 3309 3309
2656 2656 2656
2993 2993 2993
3170 3170 3170
3390 3390 3390
3661 3661 3661
2993 2993 2993
3188 3188 3188
3522 3522 3522
3697 3697 3697
3858 3858 3858
1591 1591 1591
2053 2053 2053
2345 2345 2345
2695 2695 2695
3062 3062 3062
1957 1957 1957
2248 2248 2248
2502 2502 2502
2844 2844 2844
3137 3137 3137
2464 2464 2464
2617 2617 2617
2937 2937 2937
3202 3202 3202
3458 3458 3458
2995 2995 2995
3283 3283 3283
3534 3534 3534
3785 3785 3785
3861 3861 3861
3140 3140 3140
3317 3317 3317
3613 3613 3613
3886 3886 3886
3988 3988 3988
