Fujifilm XTrans III/Mono+Ye.3dl
#Created by: Affinity Photo (Serif Europe Ltd.)
0 256 512 767 1023
3 3 3
46 47 47
661 662 662
1278 1279 1279
1946 1946 1946
251 251 251
451 451 451
784 784 784
1217 1218 1218
1819 1819 1819
1058 1058 1058
1420 1420 1420
1610 1610 1610
1820 1820 1820
1961 1961 1961
1420 1420 1420
1608 1608 1608
2184 2184 2184
2529 2529 2529
2754 2754 2754
1601 1601 1601
1826 1826 1826
2346 2346 2346
3126 3126 3126
3126 3126 3126
294 294 294
883 883 883
1038 1038 1038
1505 1506 1506
2090 2091 2090
629 629 629
864 864 864
1252 1252 1252
1694 1694 1694
2205 2205 2205
1425 1425 1425
1570 1570 1570
1875 1875 1875
2190 2190 2190
2523 2523 2523
1425 1425 1425
2057 2057 2057
2404 2404 2404
2700 2700 2700
2943 2943 2943
2057 2057 2057
2317 2317 2317
2558 2558 2558
2912 2912 2912
3068 3068 3068
1032 1032 1032
1507 1507 1507
1748 1748 1748
2018 2018 2018
2455 2455 2455
1522 1522 1522
1644 1644 1644
1910 1910 1910
2199 2199 2199
2562 2562 2562
2084 2084 2084
2148 2148 2148
2364 2364 2364
2595 2595 2595
2853 2853 2853
2385 2385 2385
2653 2653 2653
2811 2811 2811
3021 3021 3021
3247 3247 3247
2652 2652 2652
2653 2653 2653
2896 2896 2896
3253 3253 3253
3455 3455 3455
1978 1978 1978
2291 2291 2291
2476 2476 2476
2656 2656 2656
2933 2933 2933
2305 2305 2305
2398 2398 2398
2584 2584 2584
2784 2784 2784
3010 3010 3010
2618 2618 2618
2745 2745 2745
2891 2891 2891
3053 3053 3053
3231 3231 3231
2850 2850 2850
3089 3089 3089
3235 3235 3235
3393 3393 3393
3574 3574 3574
3089 3089 3089
3256 3256 3256
3592 3592 3592
3711 3711 3711
3817 3817 3817
2206 2206 2206
2712 2712 2712
2948 2948 2948
3060 3060 3060
3184 3184 3184
2476 2476 2476
2860 2860 2860
3002 3002 3002
3170 3170 3170
3216 3216 3216
2787 2787 2787
3059 3059 3059
3250 3250 3250
3410 3410 3410
3559 3559 3559
3198 3198 3198
3444 3444 3444
3705 3705 3705
3900 3900 3900
3868 3868 3868
3281 3281 3281
3436 3436 3436
3713 3713 3713
3955 3955 3955
3979 3979 3979
