Fujifilm XTrans III/Mono.3dl
#Created by: Affinity Photo (Serif Europe Ltd.)
0 64 128 192 256 320 384 448 512 575 639 703 767 831 895 959 1023
2 2 2
9 9 9
23 23 23
61 62 62
184 185 185
376 378 377
581 582 583
787 788 787
949 949 949
1094 1094 1095
1235 1235 1235
1378 1377 1378
1523 1523 1523
1667 1667 1667
1815 1815 1815
1962 1962 1962
2090 2090 2091
9 9 9
23 23 23
45 45 45
48 48 48
193 193 193
393 393 393
553 554 554
746 747 747
939 939 939
1104 1104 1104
1245 1245 1245
1389 1389 1389
1534 1534 1534
1682 1682 1682
1831 1831 1831
1976 1976 1976
2102 2102 2103
37 37 36
70 70 70
100 100 100
165 165 165
297 297 297
435 435 435
583 583 583
752 752 752
943 944 944
1142 1142 1142
1307 1307 1307
1452 1452 1452
1595 1596 1596
1732 1732 1732
1867 1867 1867
1998 1998 1998
2115 2115 2115
95 95 94
144 144 144
197 197 197
287 287 287
401 401 401
545 545 545
695 695 695
854 854 854
1022 1022 1022
1200 1200 1200
1379 1379 1379
1544 1544 1544
1704 1704 1704
1850 1850 1850
1989 1989 1989
2097 2097 2097
2184 2184 2184
308 308 309
304 304 304
402 402 402
483 483 483
594 594 594
725 725 725
865 865 865
1011 1011 1011
1158 1158 1158
1311 1311 1311
1470 1470 1470
1622 1622 1622
1779 1779 1779
1933 1933 1933
2096 2097 2097
2234 2234 2234
2318 2318 2318
538 538 538
558 558 558
624 624 624
692 692 692
807 807 807
932 932 932
1060 1060 1060
1185 1185 1185
1322 1322 1322
1463 1463 1463
1604 1604 1604
1737 1737 1737
1874 1874 1874
2009 2009 2009
2162 2162 2162
2304 2304 2304
2412 2412 2412
538 538 538
820 820 820
846 846 846
978 978 978
1032 1032 1032
1132 1132 1132
1257 1257 1257
1379 1379 1379
1501 1501 1501
1623 1623 1623
1754 1754 1754
1879 1879 1879
2001 2001 2001
2121 2121 2121
2250 2250 2250
2372 2372 2372
2467 2467 2467
820 820 820
820 820 820
1152 1152 1152
978 978 978
1247 1247 1247
1343 1343 1343
1456 1456 1456
1567 1567 1567
1679 1679 1679
1801 1801 1801
1919 1919 1919
2029 2029 2029
2140 2140 2140
2251 2251 2251
2368 2368 2368
2476 2476 2476
2546 2546 2546
1126 1126 1126
1152 1152 1152
1152 1152 1152
1438 1438 1438
1563 1563 1563
1596 1596 1596
1663 1663 1663
1759 1759 1759
1872 1872 1872
1977 1977 1977
2083 2083 2083
2185 2185 2185
2284 2284 2284
2387 2387 2387
2497 2497 2497
2597 2597 2597
2660 2660 2660
820 820 820
1462 1462 1462
1563 1563 1563
1563 1563 1563
1563 1563 1563
1772 1772 1772
1859 1859 1859
1959 1959 1959
2052 2052 2052
2148 2148 2148
2244 2244 2244
2340 2340 2340
2432 2432 2432
2526 2526 2526
2632 2632 2632
2734 2734 2734
2790 2790 2790
820 820 820
1462 1462 1462
1563 1563 1563
1563 1563 1563
1772 1772 1772
1772 1772 1772
1859 1859 1859
2100 2100 2100
2203 2203 2203
2300 2300 2300
2397 2397 2397
2488 2488 2488
2577 2577 2577
2670 2670 2670
2771 2771 2771
2869 2869 2869
2928 2928 2928
1563 1563 1563
1676 1676 1676
1676 1676 1676
1772 1772 1772
1772 1772 1772
1772 1772 1772
2100 2100 2100
2100 2100 2100
2420 2420 2420
2420 2420 2420
2523 2523 2523
2626 2626 2626
2717 2717 2717
2804 2804 2804
2889 2889 2889
2980 2980 2980
3050 3050 3050
1563 1563 1563
1676 1676 1676
1676 1676 1676
1772 1772 1772
1772 1772 1772
2100 2100 2100
2100 2100 2100
2351 2351 2351
2420 2420 2420
2420 2420 2420
2648 2648 2648
2744 2744 2744
2830 2830 2830
2916 2916 2916
3015 3015 3015
3112 3112 3112
3174 3174 3174
1563 1563 1563
1676 1676 1676
1676 1676 1676
2001 2001 2001
1772 1772 1772
2348 2348 2348
2348 2348 2348
2351 2351 2351
2562 2562 2562
2796 2796 2796
2796 2796 2796
2908 2908 2908
2920 2920 2920
3017 3017 3017
3148 3148 3148
3234 3234 3234
3289 3289 3289
1676 1676 1676
1676 1676 1676
2001 2001 2001
2001 2001 2001
2001 2001 2001
2348 2348 2348
2348 2348 2348
2351 2351 2351
2562 2562 2562
2796 2796 2796
2796 2796 2796
2908 2908 2908
2920 2920 2920
3017 3017 3017
3385 3385 3385
3385 3385 3385
3289 3289 3289
1676 1676 1676
1676 1676 1676
2001 2001 2001
2001 2001 2001
2001 2001 2001
2348 2348 2348
2348 2348 2348
2562 2562 2562
2562 2562 2562
2908 2908 2908
2796 2796 2796
2908 2908 2908
2920 2920 2920
3385 3385 3385
3385 3385 3385
3385 3385 3385
3289 3289 3289
1676 1676 1676
1676 1676 1676
2001 2001 2001
2001 2001 2001
2001 2001 2001
2348 2348 2348
2348 2348 2348
2562 2562 2562
2562 2562 2562
2908 2908 2908
2796 2796 2796
2908 2908 2908
3385 3385 3385
3385 3385 3385
3385 3385 3385
3385 3385 3385
3385 3385 3385
10 10 10
15 15 15
31 31 31
61 62 62
184 185 185
456 456 456
621 621 621
857 857 857
1009 1009 1009
1158 1157 1158
1292 1292 1292
1427 1427 1427
1568 1568 1568
1713 1713 1713
1856 1856 1856
1996 1996 1996
2117 2117 2117
21 21 21
32 32 32
61 61 61
129 129 129
324 324 324
456 456 456
621 621 621
830 830 830
1026 1026 1026
1197 1197 1197
1351 1351 1351
1500 1500 1500
1653 1653 1653
1814 1814 1814
1968 1968 1968
2101 2101 2101
2167 2167 2167
46 46 46
86 86 86
127 127 127
213 213 213
330 330 330
480 480 480
649 649 649
835 835 835
1038 1038 1038
1248 1248 1248
1431 1431 1431
1595 1595 1595
1755 1755 1755
1908 1908 1908
2060 2060 2060
2183 2183 2183
2185 2185 2185
115 115 114
185 185 185
248 248 248
336 336 336
440 440 440
584 584 584
754 754 754
937 937 937
1123 1123 1123
1328 1328 1328
1519 1519 1519
1685 1685 1685
1862 1862 1862
2024 2024 2024
2178 2178 2178
2310 2310 2310
2227 2227 2227
314 314 314
363 363 363
432 432 432
525 525 525
635 635 635
767 767 767
921 921 921
1087 1087 1087
1266 1266 1266
1443 1443 1443
1618 1618 1618
1786 1786 1786
1948 1948 1948
2106 2106 2106
2259 2259 2259
2409 2409 2409
2346 2346 2346
527 527 527
599 599 599
666 666 666
749 749 749
851 851 851
973 973 973
1103 1103 1103
1248 1248 1248
1413 1413 1413
1580 1580 1580
1737 1737 1737
1897 1897 1897
2043 2043 2043
2193 2193 2193
2343 2343 2343
2485 2485 2485
2470 2470 2470
870 870 870
802 802 802
935 935 935
956 956 956
1048 1048 1048
1173 1173 1173
1294 1294 1294
1423 1423 1423
1564 1564 1564
1719 1719 1719
1877 1877 1877
2016 2016 2016
2154 2154 2154
2293 2293 2293
2430 2430 2430
2572 2572 2572
2527 2527 2527
1126 1126 1126
1152 1152 1152
1152 1152 1152
1210 1210 1210
1283 1283 1283
1369 1369 1369
1485 1485 1485
1604 1604 1604
1731 1731 1731
1875 1875 1875
2013 2013 2013
2143 2143 2143
2270 2270 2270
2404 2404 2404
2541 2541 2541
2682 2682 2682
2593 2593 2593
1126 1126 1126
1152 1152 1152
1152 1152 1152
1438 1438 1438
1524 1524 1524
1601 1601 1601
1677 1677 1677
1787 1787 1787
1905 1905 1905
2028 2028 2028
2150 2150 2150
2275 2275 2275
2394 2394 2394
2517 2517 2517
2652 2652 2652
2788 2788 2788
2702 2702 2702
1126 1126 1126
1462 1462 1462
1462 1462 1462
1438 1438 1438
1727 1727 1727
1779 1779 1779
1882 1882 1882
1969 1969 1969
2071 2071 2071
2183 2183 2183
2293 2293 2293
2409 2409 2409
2521 2521 2521
2641 2641 2641
2769 2769 2769
2889 2889 2889
2828 2828 2828
1126 1126 1126
1676 1676 1676
1676 1676 1676
1674 1674 1674
1779 1779 1779
1779 1779 1779
2001 2001 2001
2124 2124 2124
2219 2219 2219
2327 2327 2327
2432 2432 2432
2537 2537 2537
2646 2646 2646
2758 2758 2758
2867 2867 2867
2985 2985 2985
2960 2960 2960
1126 1126 1126
1676 1676 1676
1676 1676 1676
1674 1674 1674
2001 2001 2001
2001 2001 2001
2001 2001 2001
2351 2351 2351
2351 2351 2351
2447 2447 2447
2549 2549 2549
2659 2659 2659
2763 2763 2763
2860 2860 2860
2957 2957 2957
3073 3073 3073
3085 3085 3085
1126 1126 1126
1676 1676 1676
1676 1676 1676
1674 1674 1674
2001 2001 2001
2001 2001 2001
2348 2348 2348
2351 2351 2351
2562 2562 2562
2562 2562 2562
2670 2670 2670
2764 2764 2764
2847 2847 2847
2945 2945 2945
3061 3061 3061
3180 3180 3180
3209 3209 3209
1126 1126 1126
1676 1676 1676
1676 1676 1676
1674 1674 1674
2001 2001 2001
2348 2348 2348
2348 2348 2348
2562 2562 2562
2562 2562 2562
2796 2796 2796
2796 2796 2796
2876 2876 2876
2952 2952 2952
3036 3036 3036
3169 3169 3169
3259 3259 3259
3337 3337 3337
1676 1676 1676
1676 1676 1676
1676 1676 1676
2001 2001 2001
2001 2001 2001
2348 2348 2348
2348 2348 2348
2562 2562 2562
2562 2562 2562
2796 2796 2796
2796 2796 2796
2876 2876 2876
2952 2952 2952
3036 3036 3036
3169 3169 3169
3259 3259 3259
3337 3337 3337
1676 1676 1676
1676 1676 1676
1676 1676 1676
2001 2001 2001
2001 2001 2001
2348 2348 2348
2348 2348 2348
2562 2562 2562
2562 2562 2562
2876 2876 2876
2796 2796 2796
2876 2876 2876
2952 2952 2952
3385 3385 3385
3385 3385 3385
3385 3385 3385
3337 3337 3337
1676 1676 1676
1676 1676 1676
2001 2001 2001
2001 2001 2001
2001 2001 2001
2348 2348 2348
2348 2348 2348
2562 2562 2562
2562 2562 2562
2876 2876 2876
2796 2796 2796
2876 2876 2876
2952 2952 2952
3385 3385 3385
3385 3385 3385
3385 3385 3385
3337 3337 3337
29 29 29
35 35 35
31 31 31
183 183 183
342 342 342
488 488 488
684 684 684
925 925 925
1048 1048 1048
1197 1197 1197
1328 1328 1328
1465 1465 1465
1604 1603 1604
1745 1745 1745
1883 1883 1883
2019 2019 2019
2136 2136 2136
42 42 42
63 63 63
92 92 92
183 183 183
342 342 342
488 488 488
684 684 684
874 874 874
1063 1063 1063
1236 1236 1236
1386 1386 1386
1533 1533 1533
1690 1690 1690
1851 1851 1851
1999 1999 1999
2127 2127 2127
2201 2201 2201
100 100 100
125 125 125
171 171 171
267 267 267
390 390 390
537 537 537
702 702 702
883 883 883
1076 1076 1076
1285 1285 1285
1469 1469 1469
1619 1619 1619
1779 1779 1779
1938 1938 1938
2087 2087 2087
2207 2207 2207
2230 2230 2231
203 203 203
227 227 227
287 287 287
376 376 376
492 492 492
639 639 639
803 803 803
985 985 985
1166 1166 1166
1359 1359 1359
1541 1541 1541
1711 1711 1711
1883 1883 1883
2044 2044 2044
2196 2196 2196
2329 2329 2329
2276 2276 2276
384 384 384
409 409 409
466 466 466
557 557 557
676 676 676
813 813 813
969 969 969
1130 1130 1130
1305 1305 1305
1479 1479 1479
1650 1650 1650
1810 1810 1810
1971 1971 1971
2119 2119 2119
2279 2279 2279
2429 2429 2429
2375 2376 2376
619 619 619
663 663 663
688 688 688
781 781 781
886 886 886
1007 1007 1007
1142 1142 1142
1293 1293 1293
1450 1450 1450
1607 1607 1607
1767 1767 1767
1919 1919 1919
2066 2066 2066
2211 2211 2211
2358 2358 2358
2500 2500 2500
2510 2511 2511
870 870 870
941 941 941
951 951 951
1011 1011 1011
1091 1091 1091
1203 1203 1203
1324 1324 1324
1461 1461 1461
1600 1600 1600
1750 1750 1750
1898 1898 1898
2039 2039 2039
2172 2172 2172
2311 2311 2311
2448 2448 2448
2590 2590 2590
2583 2584 2584
1126 1126 1126
1141 1141 1141
1205 1205 1205
1254 1254 1254
1307 1307 1307
1405 1405 1405
1513 1513 1513
1633 1633 1633
1766 1766 1766
1906 1906 1906
2036 2036 2036
2164 2164 2164
2293 2293 2293
2417 2417 2417
2556 2556 2556
2697 2697 2697
2642 2642 2642
1126 1126 1126
1462 1462 1462
1462 1462 1462
1481 1481 1481
1543 1543 1543
1610 1610 1610
1703 1703 1703
1814 1814 1814
1933 1933 1933
2054 2054 2054
2174 2174 2174
2297 2297 2297
2414 2414 2414
2537 2537 2537
2672 2672 2672
2802 2802 2802
2741 2741 2741
1126 1126 1126
1462 1462 1462
1462 1462 1462
1674 1674 1674
1727 1727 1727
1806 1806 1806
1899 1899 1899
1990 1990 1990
2093 2093 2093
2205 2205 2205
2317 2317 2317
2427 2427 2427
2543 2543 2543
2657 2657 2657
2782 2782 2782
2900 2900 2900
2861 2861 2861
1126 1126 1126
1676 1676 1676
1676 1676 1676
1674 1674 1674
1727 1727 1727
1974 1974 1974
2053 2053 2053
2147 2147 2147
2246 2246 2246
2347 2347 2347
2455 2455 2455
2556 2556 2556
2664 2664 2664
2773 2773 2773
2882 2882 2882
2997 2997 2997
2982 2982 2982
1126 1126 1126
1676 1676 1676
1676 1676 1676
1866 1866 1866
1727 1727 1727
1974 1974 1974
2053 2053 2053
2265 2265 2265
2377 2377 2377
2469 2469 2469
2571 2571 2571
2680 2680 2680
2780 2780 2780
2872 2872 2872
2974 2974 2974
3086 3086 3086
3110 3110 3110
1126 1126 1126
1676 1676 1676
1676 1676 1676
1866 1866 1866
2348 2348 2348
2348 2348 2348
2348 2348 2348
2390 2390 2390
2377 2377 2377
2581 2581 2581
2690 2690 2690
2783 2783 2783
2864 2864 2864
2964 2964 2964
3078 3078 3078
3193 3193 3193
3227 3227 3227
1126 1126 1126
1676 1676 1676
1676 1676 1676
1866 1866 1866
2001 2001 2001
2348 2348 2348
2348 2348 2348
2390 2390 2390
2522 2522 2522
2581 2581 2581
2806 2806 2806
2890 2890 2890
2967 2967 2967
3062 3062 3062
3184 3184 3184
3284 3284 3284
3360 3360 3360
1462 1462 1462
1676 1676 1676
1676 1676 1676
1866 1866 1866
1912 1912 1912
2348 2348 2348
2348 2348 2348
2390 2390 2390
2522 2522 2522
2806 2806 2806
2806 2806 2806
2890 2890 2890
2967 2967 2967
3180 3180 3180
3184 3184 3184
3284 3284 3284
3360 3360 3360
1462 1462 1462
1676 1676 1676
1676 1676 1676
1866 1866 1866
1912 1912 1912
2348 2348 2348
2348 2348 2348
2390 2390 2390
2522 2522 2522
2806 2806 2806
2806 2806 2806
2890 2890 2890
3180 3180 3180
3180 3180 3180
3260 3260 3260
3260 3260 3260
3360 3360 3360
1462 1462 1462
1676 1676 1676
1676 1676 1676
1866 1866 1866
1912 1912 1912
2348 2348 2348
2348 2348 2348
2390 2390 2390
2522 2522 2522
2806 2806 2806
2806 2806 2806
2890 2890 2890
3180 3180 3180
3180 3180 3180
3260 3260 3260
3260 3260 3260
3360 3360 3360
54 54 54
109 109 109
174 174 174
238 238 238
433 433 433
560 560 560
1007 1007 1007
1007 1007 1007
1109 1109 1109
1254 1254 1254
1384 1384 1384
1522 1521 1522
1665 1664 1665
1800 1799 1800
1934 1934 1934
2064 2064 2064
2175 2175 2175
78 78 78
109 109 109
174 174 174
238 238 238
433 433 433
560 560 560
741 741 741
934 934 934
1126 1126 1126
1294 1294 1294
1444 1444 1444
1590 1590 1590
1744 1744 1744
1901 1901 1901
2043 2043 2043
2168 2168 2168
