Fujifilm XTrans III/Mono+R.3dl
#Created by: Affinity Photo (Serif Europe Ltd.)
0 128 256 384 512 639 767 895 1023
2 2 2
10 10 10
0 0 0
0 1 0
258 260 259
487 488 487
779 781 779
1159 1161 1160
1493 1494 1493
30 30 30
53 53 53
98 98 98
84 84 84
125 125 125
359 360 360
636 637 637
1071 1072 1071
1472 1473 1473
193 193 193
207 207 207
294 294 294
351 351 351
342 342 342
314 314 314
348 348 348
455 455 455
881 881 881
379 379 379
604 604 604
706 706 706
784 784 784
794 794 794
740 740 740
642 642 642
569 569 569
614 614 614
984 984 984
942 942 942
1237 1237 1237
1235 1235 1235
1276 1276 1276
1263 1263 1263
1184 1184 1184
1077 1077 1077
898 898 898
628 628 628
1237 1237 1237
1379 1379 1379
1438 1438 1438
1670 1670 1670
1719 1719 1719
1683 1683 1683
1611 1611 1611
1553 1553 1553
1237 1237 1237
1501 1501 1501
1379 1379 1379
1622 1622 1622
1859 1859 1859
2040 2040 2040
2093 2093 2093
2098 2098 2098
2085 2085 2085
1501 1501 1501
1589 1589 1589
1589 1589 1589
2010 2010 2010
2044 2044 2044
2203 2203 2203
2214 2214 2214
2764 2764 2764
2316 2316 2316
1501 1501 1501
1589 1589 1589
1589 1589 1589
2010 2010 2010
2044 2044 2044
2203 2203 2203
2764 2764 2764
2764 2764 2764
2764 2764 2764
81 81 81
19 19 19
211 211 211
307 307 307
473 473 473
649 650 649
867 869 867
1209 1211 1210
1534 1535 1534
130 130 130
170 170 170
273 273 273
374 374 374
461 461 461
585 585 585
744 744 744
1038 1038 1038
1660 1661 1660
359 359 358
411 411 411
486 486 486
586 586 586
676 676 676
770 770 770
842 842 842
918 918 918
1331 1332 1332
776 776 776
808 808 808
856 856 856
955 955 955
1040 1040 1040
1121 1121 1121
1183 1183 1183
1235 1235 1235
792 792 792
984 984 984
1252 1252 1252
1271 1271 1271
1335 1335 1335
1421 1421 1421
1498 1498 1498
1568 1568 1568
1636 1636 1636
976 976 976
984 984 984
1501 1501 1501
1443 1443 1443
1688 1688 1688
1768 1768 1768
1857 1857 1857
1921 1921 1921
1998 1998 1998
1551 1551 1551
984 984 984
1501 1501 1501
2010 2010 2010
2010 2010 2010
1914 1914 1914
2119 2119 2119
2197 2197 2197
2279 2279 2279
2126 2126 2126
1252 1252 1252
1501 1501 1501
1654 1654 1654
2010 2010 2010
2102 2102 2102
2265 2265 2265
2321 2321 2321
2428 2428 2428
2453 2453 2453
1252 1252 1252
1501 1501 1501
1654 1654 1654
2010 2010 2010
2102 2102 2102
2265 2265 2265
2540 2540 2540
2596 2596 2596
2453 2453 2453
454 454 454
534 534 534
1031 1031 1031
724 724 724
800 801 800
887 887 887
1026 1027 1027
1321 1323 1322
1631 1632 1631
535 535 535
555 555 555
656 656 656
748 748 748
819 819 819
893 893 893
974 974 974
1159 1159 1159
1735 1735 1735
713 713 713
765 765 765
861 861 861
945 945 945
1019 1019 1019
1091 1091 1091
1139 1139 1139
1187 1187 1187
1338 1338 1338
1041 1041 1041
1088 1088 1088
1158 1158 1158
1257 1257 1257
1334 1334 1334
1400 1400 1400
1452 1452 1452
1498 1498 1498
1372 1372 1372
1373 1373 1373
1390 1390 1390
1475 1475 1475
1564 1564 1564
1658 1658 1658
1729 1729 1729
1786 1786 1786
1841 1841 1841
1727 1727 1727
1373 1373 1373
1556 1556 1556
1793 1793 1793
1878 1878 1878
1955 1955 1955
2046 2046 2046
2099 2099 2099
2166 2166 2166
1731 1731 1731
1373 1373 1373
1919 1919 1919
1919 1919 1919
2107 2107 2107
2186 2186 2186
2274 2274 2274
2356 2356 2356
2430 2430 2430
2365 2365 2365
1919 1919 1919
1919 1919 1919
2175 2175 2175
2404 2404 2404
2331 2331 2331
2391 2391 2391
2588 2588 2588
2687 2687 2687
2580 2580 2580
1919 1919 1919
2175 2175 2175
2175 2175 2175
2404 2404 2404
2331 2331 2331
2588 2588 2588
2588 2588 2588
2687 2687 2687
2687 2687 2687
1063 1063 1062
760 760 760
1145 1145 1145
1211 1211 1211
1295 1295 1295
1301 1301 1301
1350 1350 1350
1536 1537 1536
1808 1809 1808
1143 1143 1143
1149 1149 1149
1238 1238 1238
1294 1294 1294
1342 1342 1342
1378 1378 1378
1412 1412 1412
1467 1467 1467
1891 1892 1892
1322 1322 1322
1305 1305 1305
1366 1366 1366
1437 1437 1437
1495 1495 1495
1543 1543 1543
1574 1574 1574
1596 1596 1596
1631 1631 1631
1551 1551 1551
1532 1532 1532
1587 1587 1587
1669 1669 1669
1732 1732 1732
1785 1785 1785
1823 1823 1823
1853 1853 1853
1728 1728 1728
1793 1793 1793
1796 1796 1796
1847 1847 1847
1923 1923 1923
1998 1998 1998
2049 2049 2049
2089 2089 2089
2131 2131 2131
2044 2044 2044
1903 1903 1903
1918 1918 1918
2077 2077 2077
2165 2165 2165
2243 2243 2243
2318 2318 2318
2356 2356 2356
2412 2412 2412
2360 2360 2360
2130 2130 2130
2301 2301 2301
2343 2343 2343
2331 2331 2331
2422 2422 2422
2511 2511 2511
2596 2596 2596
2663 2663 2663
2644 2644 2644
2301 2301 2301
2301 2301 2301
2343 2343 2343
2404 2404 2404
2501 2501 2501
2612 2612 2612
2990 2990 2990
2891 2891 2891
2776 2776 2776
2301 2301 2301
2343 2343 2343
2343 2343 2343
2404 2404 2404
2501 2501 2501
2612 2612 2612
2990 2990 2990
2891 2891 2891
2891 2891 2891
1374 1374 1374
1729 1729 1729
1753 1753 1753
1808 1808 1808
1871 1871 1871
1855 1855 1855
1838 1838 1838
1911 1912 1912
2093 2093 2093
1684 1684 1684
1729 1729 1729
1817 1817 1817
1852 1852 1852
1894 1894 1894
1920 1920 1920
1935 1935 1935
1962 1962 1962
2144 2144 2144
1815 1815 1815
1837 1837 1837
1882 1882 1882
1940 1940 1940
1989 1989 1989
2024 2024 2024
2050 2050 2050
2074 2074 2074
2068 2068 2068
1996 1996 1996
1999 1999 1999
2044 2044 2044
2102 2102 2102
2160 2160 2160
2196 2196 2196
2222 2222 2222
2248 2248 2248
2160 2160 2160
2212 2212 2212
2195 2195 2195
2238 2238 2238
2297 2297 2297
2362 2362 2362
2406 2406 2406
2434 2434 2434
2471 2471 2471
2406 2406 2406
2550 2550 2550
2448 2448 2448
2431 2431 2431
2502 2502 2502
2567 2567 2567
2631 2631 2631
2665 2665 2665
2715 2715 2715
2660 2660 2660
2448 2448 2448
2724 2724 2724
2630 2630 2630
2666 2666 2666
2744 2744 2744
2802 2802 2802
2869 2869 2869
2926 2926 2926
2905 2905 2905
2724 2724 2724
2724 2724 2724
2630 2630 2630
2734 2734 2734
2804 2804 2804
2898 2898 2898
3077 3077 3077
3143 3143 3143
3049 3049 3049
2724 2724 2724
2724 2724 2724
2630 2630 2630
2734 2734 2734
2804 2804 2804
3077 3077 3077
3077 3077 3077
3143 3143 3143
3243 3243 3243
2232 2232 2232
2540 2540 2540
2392 2392 2392
2349 2349 2349
2381 2381 2381
2377 2377 2377
2362 2362 2362
2400 2400 2400
2465 2466 2466
2232 2232 2232
2263 2263 2263
2315 2315 2315
2361 2361 2361
2381 2381 2381
2401 2401 2401
2416 2416 2416
2435 2435 2435
2500 2500 2500
2330 2330 2330
2324 2324 2324
2369 2369 2369
2418 2418 2418
2453 2453 2453
2479 2479 2479
2493 2493 2493
2515 2515 2515
2526 2526 2526
2420 2420 2420
2441 2441 2441
2483 2483 2483
2531 2531 2531
2578 2578 2578
2611 2611 2611
2631 2631 2631
2657 2657 2657
2609 2609 2609
2573 2573 2573
2595 2595 2595
2634 2634 2634
2684 2684 2684
2733 2733 2733
2777 2777 2777
2796 2796 2796
2830 2830 2830
2777 2777 2777
2683 2683 2683
2758 2758 2758
2786 2786 2786
2840 2840 2840
2889 2889 2889
2936 2936 2936
2967 2967 2967
3013 3013 3013
2994 2994 2994
2550 2550 2550
2829 2829 2829
2829 2829 2829
2982 2982 2982
3041 3041 3041
3091 3091 3091
3138 3138 3138
3204 3204 3204
3181 3181 3181
2829 2829 2829
2829 2829 2829
2829 2829 2829
3045 3045 3045
3131 3131 3131
3176 3176 3176
3378 3378 3378
3416 3416 3416
3289 3289 3289
2829 2829 2829
2829 2829 2829
3045 3045 3045
3045 3045 3045
3131 3131 3131
3378 3378 3378
3378 3378 3378
3416 3416 3416
3499 3499 3499
2396 2396 2396
2674 2674 2674
2700 2700 2700
2787 2787 2787
2814 2814 2814
2821 2821 2821
2820 2820 2820
2833 2833 2833
2833 2833 2833
2614 2614 2614
2655 2655 2655
2724 2724 2724
2797 2797 2797
2822 2822 2822
2844 2844 2844
2852 2852 2852
2850 2850 2850
2846 2846 2846
2714 2714 2714
2716 2716 2716
2793 2793 2793
2838 2838 2838
2871 2871 2871
2895 2895 2895
2903 2903 2903
2909 2909 2909
2883 2883 2883
2765 2765 2765
2801 2801 2801
2880 2880 2880
2918 2918 2918
2951 2951 2951
2976 2976 2976
2993 2993 2993
3009 3009 3009
2961 2961 2961
2878 2878 2878
2897 2897 2897
2975 2975 2975
3019 3019 3019
3058 3058 3058
3094 3094 3094
3113 3113 3113
3137 3137 3137
3085 3085 3085
3054 3054 3054
3010 3010 3010
3077 3077 3077
3136 3136 3136
3179 3179 3179
3217 3217 3217
3249 3249 3249
3291 3291 3291
3258 3258 3258
3054 3054 3054
3110 3110 3110
3207 3207 3207
3257 3257 3257
3309 3309 3309
3355 3355 3355
3395 3395 3395
3462 3462 3462
3428 3428 3428
3054 3054 3054
3207 3207 3207
3207 3207 3207
3342 3342 3342
3395 3395 3395
3676 3676 3676
3490 3490 3490
3604 3604 3604
3579 3579 3579
3207 3207 3207
3207 3207 3207
3342 3342 3342
3342 3342 3342
3681 3681 3681
3676 3676 3676
3731 3731 3731
3604 3604 3604
3761 3761 3761
2655 2655 2655
2674 2674 2674
2900 2900 2900
3152 3152 3152
3137 3137 3137
3145 3145 3145
3152 3152 3152
3165 3165 3165
3226 3226 3226
2614 2614 2614
2896 2896 2896
2903 2903 2903
3112 3112 3112
3155 3155 3155
3168 3168 3168
3184 3184 3184
3195 3195 3195
3248 3248 3248
2909 2909 2909
2897 2897 2897
3146 3146 3146
3151 3151 3151
3193 3193 3193
3225 3225 3225
3241 3241 3241
3244 3244 3244
3248 3248 3248
2909 2909 2909
2960 2960 2960
3161 3161 3161
3219 3219 3219
3263 3263 3263
3298 3298 3298
3315 3315 3315
3338 3338 3338
3350 3350 3350
2878 2878 2878
3065 3065 3065
3266 3266 3266
3304 3304 3304
3343 3343 3343
3387 3387 3387
3409 3409 3409
3440 3440 3440
3448 3448 3448
3154 3154 3154
3321 3321 3321
3354 3354 3354
3396 3396 3396
3447 3447 3447
3486 3486 3486
3527 3527 3527
3568 3568 3568
3570 3570 3570
3154 3154 3154
3417 3417 3417
3446 3446 3446
3499 3499 3499
3561 3561 3561
3606 3606 3606
3649 3649 3649
3699 3699 3699
3699 3699 3699
3417 3417 3417
3346 3346 3346
3582 3582 3582
3579 3579 3579
3681 3681 3681
3785 3785 3785
3833 3833 3833
3875 3875 3875
3898 3898 3898
3346 3346 3346
3446 3446 3446
3582 3582 3582
3681 3681 3681
3681 3681 3681
3785 3785 3785
3833 3833 3833
3875 3875 3875
3898 3898 3898
2655 2655 2655
3079 3079 3079
3153 3153 3153
3152 3152 3152
3362 3362 3362
3356 3356 3356
3338 3338 3338
3377 3377 3377
3226 3226 3226
2897 2897 2897
3079 3079 3079
3079 3079 3079
3298 3298 3298
3334 3334 3334
3349 3349 3349
3411 3411 3411
3375 3375 3375
3248 3248 3248
2909 2909 2909
3146 3146 3146
3281 3281 3281
3317 3317 3317
3360 3360 3360
3402 3402 3402
3421 3421 3421
3415 3415 3415
3248 3248 3248
2909 2909 2909
3197 3197 3197
3368 3368 3368
3386 3386 3386
3431 3431 3431
3464 3464 3464
3470 3470 3470
3495 3495 3495
3558 3558 3558
3065 3065 3065
3250 3250 3250
3410 3410 3410
3460 3460 3460
3508 3508 3508
3545 3545 3545
3582 3582 3582
3643 3643 3643
3643 3643 3643
3154 3154 3154
3556 3556 3556
3556 3556 3556
3549 3549 3549
3592 3592 3592
3639 3639 3639
3689 3689 3689
3768 3768 3768
3773 3773 3773
3417 3417 3417
3417 3417 3417
3621 3621 3621
3650 3650 3650
3884 3884 3884
3948 3948 3948
4001 4001 4001
4006 4006 4006
3846 3846 3846
3417 3417 3417
3446 3446 3446
3621 3621 3621
3702 3702 3702
3835 3835 3835
4003 4003 4003
4013 4013 4013
4069 4069 4069
3937 3937 3937
3446 3446 3446
3582 3582 3582
3582 3582 3582
3835 3835 3835
3835 3835 3835
4003 4003 4003
4013 4013 4013
4069 4069 4069
3937 3937 3937
