Fujifilm XTrans III/Pro Neg Std.3dl
#Created by: Affinity Photo (Serif Europe Ltd.)
0 64 128 192 256 320 384 448 512 575 639 703 767 831 895 959 1023
16 21 21
23 41 60
37 77 150
80 172 605
132 279 926
135 387 1353
266 491 1817
502 564 2252
715 592 2625
947 614 2963
1202 636 3249
1471 650 3485
1748 643 3697
2013 636 3873
2255 672 3999
2460 794 4073
2621 1007 4094
18 49 22
30 79 98
20 133 198
7 193 479
60 321 880
70 454 1312
160 546 1709
393 621 2149
640 656 2564
898 672 2946
1161 686 3243
1444 697 3485
1720 690 3696
1993 686 3877
2253 715 4006
2466 827 4075
2633 1039 4094
2 165 8
7 211 123
26 262 280
71 354 486
156 453 838
181 544 1205
194 636 1607
276 731 2045
459 824 2465
703 889 2870
957 922 3207
1234 946 3474
1550 938 3682
1854 912 3855
2159 881 3999
2415 923 4077
2609 1088 4094
1 373 8
7 397 131
19 449 322
31 536 522
85 609 826
180 698 1196
224 795 1588
253 893 1986
299 993 2386
407 1102 2758
603 1207 3104
830 1298 3413
1103 1375 3665
1416 1420 3829
1766 1415 3954
2103 1361 4058
2381 1367 4094
0 702 1
2 639 98
4 723 324
18 772 550
24 858 832
91 936 1194
182 1023 1566
246 1118 1947
283 1208 2323
315 1302 2675
356 1406 3014
455 1518 3319
628 1636 3592
891 1758 3810
1208 1876 3962
1559 1926 4034
1883 1894 4083
0 960 0
0 952 69
1 1002 214
11 1020 583
12 1117 834
22 1207 1176
105 1284 1558
216 1364 1926
293 1455 2289
356 1544 2628
385 1636 2957
402 1734 3246
409 1837 3516
479 1956 3742
701 2093 3930
976 2214 4041
1239 2290 4084
0 960 0
6 1295 3
1 1304 198
0 1433 502
8 1420 853
11 1482 1166
44 1563 1542
123 1640 1905
253 1717 2256
365 1798 2596
431 1884 2916
450 1972 3198
436 2067 3461
450 2169 3690
501 2283 3887
522 2387 4015
577 2468 4080
6 1295 3
6 1295 3
10 1717 5
0 1433 502
2 1731 853
19 1772 1178
27 1845 1531
60 1915 1890
161 1986 2226
327 2060 2565
458 2137 2877
522 2213 3159
531 2298 3415
523 2390 3649
530 2492 3851
505 2580 3995
403 2641 4064
27 1665 0
10 1717 5
10 1717 5
12 2037 448
1 2132 795
5 2110 1199
28 2128 1538
61 2180 1894
121 2253 2216
222 2317 2531
411 2382 2834
570 2448 3115
630 2520 3371
648 2603 3607
646 2696 3821
553 2781 3977
423 2838 4053
6 1295 3
41 2087 37
1 2132 795
1 2132 795
1 2132 795
0 2349 1275
26 2389 1553
38 2443 1890
121 2493 2219
220 2558 2508
341 2617 2798
567 2676 3077
719 2737 3328
796 2806 3563
819 2888 3787
720 2976 3962
577 3040 4050
6 1295 3
41 2087 37
1 2132 795
1 2132 795
0 2349 1275
0 2349 1275
26 2389 1553
85 2627 1942
123 2708 2214
228 2766 2509
376 2833 2775
551 2890 3044
769 2942 3289
917 2999 3520
1006 3074 3754
1026 3161 3956
942 3232 4060
1 2132 795
156 2278 111
156 2278 111
0 2349 1275
0 2349 1275
0 2349 1275
85 2627 1942
85 2627 1942
269 2955 2480
269 2955 2480
422 3006 2778
601 3074 3018
820 3126 3256
1023 3179 3492
1166 3244 3720
1246 3325 3954
1289 3410 4081
1 2132 795
156 2278 111
156 2278 111
0 2349 1275
0 2349 1275
85 2627 1942
85 2627 1942
212 2937 2195
269 2955 2480
269 2955 2480
467 3217 2736
636 3242 3017
858 3290 3235
1096 3344 3476
1303 3415 3716
1452 3509 3959
1530 3610 4091
1 2132 795
156 2278 111
156 2278 111
42 2592 1560
0 2349 1275
177 3128 1421
177 3128 1421
212 2937 2195
228 3187 2424
570 3422 2779
570 3422 2779
729 3530 3026
827 3463 3225
1084 3519 3455
1408 3596 3709
1595 3686 3989
1718 3791 4094
156 2278 111
156 2278 111
42 2592 1560
42 2592 1560
42 2592 1560
177 3128 1421
177 3128 1421
212 2937 2195
228 3187 2424
570 3422 2779
570 3422 2779
729 3530 3026
827 3463 3225
1084 3519 3455
1794 3816 3718
1794 3816 3718
1718 3791 4094
156 2278 111
156 2278 111
42 2592 1560
42 2592 1560
42 2592 1560
177 3128 1421
177 3128 1421
228 3187 2424
228 3187 2424
729 3530 3026
570 3422 2779
729 3530 3026
827 3463 3225
1794 3816 3718
1794 3816 3718
1794 3816 3718
1718 3791 4094
156 2278 111
156 2278 111
42 2592 1560
42 2592 1560
42 2592 1560
177 3128 1421
177 3128 1421
228 3187 2424
228 3187 2424
729 3530 3026
570 3422 2779
729 3530 3026
1794 3816 3718
1794 3816 3718
1794 3816 3718
1794 3816 3718
1794 3816 3718
52 34 33
46 53 66
66 87 161
80 172 605
132 279 926
462 519 1327
588 630 1723
805 598 2288
982 613 2649
1196 636 2993
1413 663 3267
1636 685 3492
1877 690 3698
2117 693 3877
2330 729 4002
2516 839 4072
2666 1047 4094
74 58 39
79 90 104
101 149 196
182 244 416
363 419 990
462 519 1327
588 630 1723
763 717 2182
960 753 2591
1173 780 2956
1409 820 3265
1654 872 3500
1925 904 3696
2194 933 3874
2433 975 4011
2633 1047 4080
2715 1230 4095
30 170 11
129 203 146
146 258 273
204 363 496
284 467 801
421 577 1208
561 701 1637
710 836 2076
875 967 2476
1064 1072 2860
1271 1116 3212
1481 1189 3493
1740 1266 3701
2002 1325 3837
2277 1352 3972
2514 1360 4071
2724 1280 4095
29 386 8
120 391 152
168 439 341
203 526 537
274 610 823
389 717 1193
528 838 1613
672 970 2029
825 1108 2422
1000 1262 2803
1170 1413 3127
1337 1534 3422
1536 1641 3697
1763 1747 3893
2031 1829 3954
2296 1863 4025
2603 1426 4094
44 669 3
76 662 119
115 698 349
150 775 570
220 854 850
310 946 1191
453 1052 1583
627 1170 1991
795 1298 2388
959 1430 2744
1135 1573 3090
1300 1716 3381
1464 1860 3640
1628 2011 3871
1806 2160 4050
2021 2293 4061
2190 1847 4093
63 925 0
32 968 74
40 1019 256
77 1056 589
120 1134 825
206 1208 1193
333 1302 1552
530 1398 1943
725 1516 2337
918 1640 2707
1095 1762 3034
1270 1890 3335
1433 2017 3596
1595 2159 3825
1756 2308 4011
1926 2456 4083
1563 2311 4094
111 1309 0
21 1233 20
19 1406 71
40 1347 528
55 1416 806
105 1500 1160
223 1571 1543
378 1657 1894
602 1749 2271
840 1858 2650
1046 1972 2991
1231 2082 3284
1400 2202 3537
1571 2323 3768
1727 2452 3969
1890 2593 4079
856 2518 4094
27 1665 0
10 1717 5
10 1717 5
16 1720 458
31 1740 841
75 1780 1162
145 1850 1522
251 1928 1870
451 2010 2223
722 2093 2592
960 2187 2928
1176 2285 3232
1355 2388 3476
1542 2500 3713
1716 2620 3925
1883 2745 4070
475 2679 4088
27 1665 0
10 1717 5
10 1717 5
12 2037 448
25 2066 824
40 2098 1169
89 2129 1515
203 2190 1871
343 2266 2197
551 2342 2532
836 2411 2862
1087 2495 3160
1304 2580 3424
1505 2675 3657
1694 2779 3867
1873 2900 4049
473 2869 4080
27 1665 0
41 2087 37
41 2087 37
12 2037 448
49 2323 792
24 2343 1173
65 2409 1545
122 2441 1868
273 2502 2199
444 2580 2489
684 2642 2797
984 2706 3100
1233 2776 3366
1451 2856 3600
1666 2948 3822
1869 3057 4018
603 3071 4076
27 1665 0
156 2278 111
156 2278 111
55 2329 295
24 2343 1173
24 2343 1173
42 2592 1560
127 2664 1893
252 2715 2184
403 2782 2496
597 2855 2759
860 2913 3040
1148 2966 3304
1396 3029 3541
1620 3108 3769
1862 3208 3996
915 3263 4082
27 1665 0
156 2278 111
156 2278 111
55 2329 295
42 2592 1560
42 2592 1560
42 2592 1560
212 2937 2195
212 2937 2195
396 2965 2500
580 3020 2771
788 3094 3003
1052 3151 3251
1326 3205 3501
1575 3262 3729
1831 3350 3976
1378 3441 4093
27 1665 0
156 2278 111
156 2278 111
55 2329 295
42 2592 1560
42 2592 1560
177 3128 1421
212 2937 2195
228 3187 2424
228 3187 2424
558 3227 2751
791 3247 3014
998 3295 3225
1259 3359 3468
1507 3435 3717
1760 3534 3982
1622 3649 4094
27 1665 0
156 2278 111
156 2278 111
55 2329 295
42 2592 1560
177 3128 1421
177 3128 1421
228 3187 2424
228 3187 2424
570 3422 2779
570 3422 2779
755 3464 2975
1015 3466 3249
1234 3515 3455
1481 3611 3701
1775 3667 3984
1867 3838 4095
156 2278 111
156 2278 111
156 2278 111
42 2592 1560
42 2592 1560
177 3128 1421
177 3128 1421
228 3187 2424
228 3187 2424
570 3422 2779
570 3422 2779
755 3464 2975
1015 3466 3249
1234 3515 3455
1481 3611 3701
1775 3667 3984
1867 3838 4095
156 2278 111
156 2278 111
156 2278 111
42 2592 1560
42 2592 1560
177 3128 1421
177 3128 1421
228 3187 2424
228 3187 2424
755 3464 2975
570 3422 2779
755 3464 2975
1015 3466 3249
1794 3816 3718
1794 3816 3718
1794 3816 3718
1867 3838 4095
156 2278 111
156 2278 111
42 2592 1560
42 2592 1560
42 2592 1560
177 3128 1421
177 3128 1421
228 3187 2424
228 3187 2424
755 3464 2975
570 3422 2779
755 3464 2975
1015 3466 3249
1794 3816 3718
1794 3816 3718
1794 3816 3718
1867 3838 4095
196 39 28
137 60 58
66 87 161
323 286 495
469 419 940
573 531 1322
735 672 1777
963 633 2378
1126 628 2671
1337 649 3019
1541 679 3282
1754 710 3508
1971 726 3705
2188 734 3880
2381 768 4004
2557 867 4074
2700 1076 4094
208 74 49
203 129 125
219 194 229
323 286 495
469 419 940
573 531 1322
735 672 1777
908 751 2195
1091 786 2599
1289 815 2971
1494 864 3269
1724 922 3505
1978 976 3695
2231 1022 3868
2476 1033 4011
2670 1092 4080
2773 1277 4095
220 219 76
228 254 176
269 300 287
343 398 517
442 500 846
567 606 1242
702 722 1664
840 859 2088
1000 990 2481
1180 1107 2869
1372 1167 3223
1570 1213 3503
1799 1308 3705
2059 1378 3840
2314 1411 3967
2566 1388 4073
2786 1419 4095
115 482 19
256 417 181
288 469 298
339 548 532
429 637 842
545 741 1228
675 856 1643
811 991 2058
958 1128 2443
1116 1281 2809
1277 1433 3136
1442 1567 3431
1623 1674 3697
1836 1782 3903
2084 1864 3961
2346 1894 4021
2746 1542 4094
150 708 6
235 667 168
276 710 278
315 778 560
369 875 835
481 965 1203
617 1069 1617
766 1185 2010
921 1314 2402
1082 1451 2763
1251 1600 3104
1408 1739 3394
1564 1888 3647
1719 2032 3871
1886 2192 4055
2085 2326 4069
2435 1859 4093
146 992 0
157 994 98
215 991 244
251 1058 542
296 1137 838
374 1224 1166
519 1314 1561
689 1414 1964
865 1527 2351
1037 1650 2712
1208 1782 3052
1371 1907 3342
1535 2043 3600
1692 2179 3829
1846 2324 4019
2001 2473 4087
1896 2316 4094
111 1309 0
72 1382 23
113 1357 161
157 1380 495
190 1429 820
275 1501 1160
383 1583 1513
568 1668 1912
764 1761 2288
970 1869 2663
1156 1977 2997
1330 2096 3294
1495 2212 3545
1659 2337 3773
1817 2469 3980
1977 2609 4085
1268 2571 4094
27 1665 0
50 1667 8
53 1725 104
77 1737 432
114 1739 812
194 1793 1148
300 1857 1498
419 1938 1857
634 2019 2236
876 2101 2612
1077 2194 2937
1274 2293 3235
1452 2399 3490
1621 2505 3720
1795 2628 3928
1961 2754 4074
749 2722 4094
27 1665 0
41 2087 37
41 2087 37
54 2046 376
74 2062 796
120 2087 1139
204 2136 1494
350 2200 1848
493 2278 2182
724 2345 2546
973 2416 2873
1195 2501 3171
1395 2589 3427
1588 2684 3664
1773 2789 3876
1947 2907 4052
618 2899 4091
27 1665 0
41 2087 37
41 2087 37
55 2329 295
49 2323 792
95 2355 1145
170 2407 1496
256 2451 1844
414 2512 2177
593 2588 2481
841 2648 2809
1105 2708 3109
1332 2785 3371
1534 2858 3603
1739 2950 3825
1935 3061 4020
678 3096 4088
27 1665 0
156 2278 111
156 2278 111
55 2329 295
49 2323 792
67 2591 1186
126 2646 1478
224 2683 1841
380 2733 2171
535 2793 2482
730 2866 2758
993 2915 3048
1252 2968 3308
1480 3032 3547
1699 3112 3777
1929 3211 3998
906 3282 4090
27 1665 0
156 2278 111
156 2278 111
149 2541 462
49 2323 792
67 2591 1186
126 2646 1478
132 3026 1589
333 2934 2178
521 2974 2483
703 3034 2759
905 3104 2996
1161 3154 3255
1421 3202 3508
1658 3266 3740
1898 3353 3982
1442 3461 4094
27 1665 0
156 2278 111
156 2278 111
149 2541 462
177 3128 1421
177 3128 1421
177 3128 1421
301 3141 1629
333 2934 2178
406 3186 2449
679 3222 2753
913 3251 3019
1096 3305 3224
1340 3369 3474
1595 3438 3727
1827 3535 3974
1611 3673 4095
27 1665 0
156 2278 111
156 2278 111
149 2541 462
42 2592 1560
177 3128 1421
177 3128 1421
301 3141 1629
477 3173 2084
406 3186 2449
668 3426 2691
888 3449 3014
1108 3475 3248
1324 3528 3457
1563 3609 3708
1831 3689 3990
1992 3841 4095
41 2087 37
156 2278 111
156 2278 111
149 2541 462
155 2591 736
177 3128 1421
177 3128 1421
301 3141 1629
477 3173 2084
668 3426 2691
668 3426 2691
888 3449 3014
1108 3475 3248
1425 3684 3473
1563 3609 3708
1831 3689 3990
1992 3841 4095
41 2087 37
156 2278 111
156 2278 111
149 2541 462
155 2591 736
177 3128 1421
177 3128 1421
301 3141 1629
477 3173 2084
668 3426 2691
668 3426 2691
888 3449 3014
1425 3684 3473
1425 3684 3473
1589 3728 3622
1589 3728 3622
1992 3841 4095
41 2087 37
156 2278 111
156 2278 111
149 2541 462
155 2591 736
177 3128 1421
177 3128 1421
301 3141 1629
477 3173 2084
668 3426 2691
668 3426 2691
888 3449 3014
1425 3684 3473
1425 3684 3473
1589 3728 3622
1589 3728 3622
1992 3841 4095
425 73 53
395 175 160
465 242 309
511 304 514
691 454 972
819 535 1282
1251 633 2438
1251 633 2438
1336 652 2700
1522 684 3036
1709 718 3304
1909 762 3522
2116 795 3718
2300 811 3883
2477 837 4008
2640 922 4077
2770 1136 4094
438 127 75
395 175 160
465 242 309
511 304 514
691 454 972
819 535 1282
918 678 1784
1091 782 2212
1268 831 2632
1442 874 2990
1628 932 3284
1835 1005 3521
2070 1071 3701
2304 1119 3865
2533 1127 4006
2722 1167 4080
