Fujifilm XTrans III/Pro Neg Std.3dl
#Created by: Affinity Photo (Serif Europe Ltd.)
0 128 256 384 512 639 767 895 1023
16 21 21
37 77 150
132 279 926
266 491 1817
715 592 2625
1202 636 3249
1748 643 3697
2255 672 3999
2621 1007 4094
2 165 8
26 262 280
156 453 838
194 636 1607
459 824 2465
957 922 3207
1550 938 3682
2159 881 3999
2609 1088 4094
0 702 1
4 723 324
24 858 832
182 1023 1566
283 1208 2323
356 1406 3014
628 1636 3592
1208 1876 3962
1883 1894 4083
0 960 0
1 1304 198
8 1420 853
44 1563 1542
253 1717 2256
431 1884 2916
436 2067 3461
501 2283 3887
577 2468 4080
27 1665 0
10 1717 5
1 2132 795
28 2128 1538
121 2253 2216
411 2382 2834
630 2520 3371
646 2696 3821
423 2838 4053
6 1295 3
1 2132 795
0 2349 1275
26 2389 1553
123 2708 2214
376 2833 2775
769 2942 3289
1006 3074 3754
942 3232 4060
1 2132 795
156 2278 111
0 2349 1275
85 2627 1942
269 2955 2480
467 3217 2736
858 3290 3235
1303 3415 3716
1530 3610 4091
156 2278 111
42 2592 1560
42 2592 1560
177 3128 1421
228 3187 2424
570 3422 2779
827 3463 3225
1794 3816 3718
1718 3791 4094
156 2278 111
42 2592 1560
42 2592 1560
177 3128 1421
228 3187 2424
570 3422 2779
1794 3816 3718
1794 3816 3718
1794 3816 3718
196 39 28
66 87 161
469 419 940
735 672 1777
1126 628 2671
1541 679 3282
1971 726 3705
2381 768 4004
2700 1076 4094
220 219 76
269 300 287
442 500 846
702 722 1664
1000 990 2481
1372 1167 3223
1799 1308 3705
2314 1411 3967
2786 1419 4095
150 708 6
276 710 278
369 875 835
617 1069 1617
921 1314 2402
1251 1600 3104
1564 1888 3647
1886 2192 4055
2435 1859 4093
111 1309 0
113 1357 161
190 1429 820
383 1583 1513
764 1761 2288
1156 1977 2997
1495 2212 3545
1817 2469 3980
1268 2571 4094
27 1665 0
41 2087 37
74 2062 796
204 2136 1494
493 2278 2182
973 2416 2873
1395 2589 3427
1773 2789 3876
618 2899 4091
27 1665 0
156 2278 111
49 2323 792
126 2646 1478
380 2733 2171
730 2866 2758
1252 2968 3308
1699 3112 3777
906 3282 4090
27 1665 0
156 2278 111
177 3128 1421
177 3128 1421
333 2934 2178
679 3222 2753
1096 3305 3224
1595 3438 3727
1611 3673 4095
41 2087 37
156 2278 111
155 2591 736
177 3128 1421
477 3173 2084
668 3426 2691
1108 3475 3248
1563 3609 3708
1992 3841 4095
41 2087 37
156 2278 111
155 2591 736
177 3128 1421
477 3173 2084
668 3426 2691
1425 3684 3473
1589 3728 3622
1992 3841 4095
683 132 122
759 312 403
1361 565 1078
1181 728 1826
1580 696 2743
1909 787 3323
2264 889 3722
2604 928 4016
2873 1216 4094
740 311 126
741 423 379
895 598 947
1115 806 1747
1377 1063 2532
1685 1290 3237
2055 1432 3738
2490 1580 3960
2949 1571 4095
762 716 137
777 796 365
916 934 915
1102 1111 1676
1335 1348 2447
1598 1630 3130
1864 1926 3666
2144 2234 4067
2659 2409 4078
495 1425 0
645 1418 263
785 1490 844
993 1622 1566
1252 1792 2343
1525 2002 3030
1797 2237 3570
2085 2493 3999
2442 2854 4094
401 1977 12
363 2025 133
481 2113 731
756 2179 1482
1080 2298 2224
1404 2435 2906
1715 2603 3452
2031 2803 3894
2358 3112 4093
401 1977 12
316 2293 99
418 2612 724
549 2695 1424
831 2782 2130
1233 2875 2784
1609 2975 3336
1971 3119 3799
1578 3355 4094
401 1977 12
311 2902 767
311 2902 767
371 3154 1401
682 3185 2044
1080 3235 2726
1440 3332 3235
1870 3438 3742
2119 3672 4095
311 2902 767
311 2902 767
592 3166 1153
943 3373 1809
832 3381 2179
1023 3429 2656
1436 3658 3288
1784 3785 3748
2198 3872 4095
311 2902 767
592 3166 1153
592 3166 1153
943 3373 1809
832 3381 2179
1436 3658 3288
1436 3658 3288
1784 3785 3748
1784 3785 3748
1347 290 303
999 368 465
1572 693 1575
1708 797 1917
2075 868 2775
2326 995 3365
2621 1099 3741
2905 1139 4026
3122 1430 4095
1408 459 289
1399 554 508
1544 709 1098
1700 902 1850
1896 1147 2589
2139 1386 3274
2429 1570 3774
2761 1796 3966
3174 1757 4095
1468 864 140
1455 905 477
1554 1010 1048
1682 1184 1750
1858 1411 2506
2054 1685 3177
2257 1969 3702
2474 2267 4079
2911 2516 4082
1450 1487 80
1441 1482 417
1510 1555 946
1654 1678 1646
1825 1839 2412
2023 2041 3084
2221 2264 3609
2439 2519 4026
2748 2877 4093
1328 2087 39
1349 2085 289
1389 2151 850
1551 2215 1572
1733 2331 2284
1939 2462 2958
2150 2628 3484
2390 2824 3919
2704 3131 4094
1311 2296 19
1288 2339 233
1208 2660 798
1352 2738 1458
1586 2799 2195
1829 2892 2829
2070 2991 3368
2343 3135 3824
2668 3421 4093
1480 2608 279
1453 2949 608
1180 3148 1169
1100 3165 1448
1364 3204 2077
1655 3261 2755
1968 3331 3278
2281 3444 3777
2610 3683 4095
1453 2949 608
1453 2949 608
1180 3148 1169
943 3373 1809
1291 3387 2134
1592 3440 2730
2253 3735 3401
2161 3743 3655
2543 3860 4095
1453 2949 608
1180 3148 1169
1180 3148 1169
943 3373 1809
1291 3387 2134
1592 3440 2730
2253 3735 3401
2161 3743 3655
2161 3743 3655
1709 434 372
2119 696 684
2230 818 1671
2418 939 2326
2593 1037 2796
2776 1191 3402
3007 1306 3773
3248 1384 4034
3418 1720 4095
2073 625 430
2119 696 684
2220 834 1185
2316 1020 1937
2465 1251 2674
2639 1483 3312
2843 1694 3813
3094 1972 3973
3437 2011 4095
2107 989 277
2168 1020 650
2220 1120 1193
2316 1280 1860
2437 1497 2577
2577 1744 3228
2720 2022 3743
2881 2310 4088
3238 2603 4084
2113 1484 123
2154 1569 568
2203 1637 1060
2294 1746 1769
2413 1908 2498
2543 2094 3136
2682 2312 3650
2841 2557 4045
3102 2907 4094
2148 2100 108
2116 2151 497
2138 2208 987
2226 2274 1663
2352 2375 2353
2491 2499 3017
2637 2655 3537
2805 2848 3959
3063 3145 4094
2374 2697 316
2136 2702 448
2032 2717 908
2118 2772 1544
2255 2827 2259
2405 2916 2874
2559 3016 3396
2756 3158 3837
3022 3434 4094
2136 2702 448
2432 2969 724
1927 3172 1236
1969 3186 1533
2123 3222 2166
2293 3269 2817
2506 3342 3328
2721 3453 3804
2978 3694 4095
2432 2969 724
2432 2969 724
1927 3172 1236
1799 3428 1839
1977 3437 2197
2269 3445 2794
2486 3703 3395
2709 3785 3817
2871 3726 4064
2432 2969 724
2432 2969 724
1927 3172 1236
1799 3428 1839
1977 3437 2197
2486 3703 3395
2486 3703 3395
2709 3785 3817
2894 3839 3938
2753 809 661
3137 914 1126
2949 931 1429
2945 1097 2162
3106 1187 2856
3218 1357 3424
3379 1507 3803
3581 1657 4037
3700 2058 4095
2753 809 661
2779 880 910
2837 995 1398
2922 1160 2044
3010 1372 2760
3123 1586 3352
3260 1819 3851
3448 2109 3988
3702 2320 4094
2809 1143 588
2804 1162 829
2849 1262 1325
2911 1410 1963
2992 1604 2654
3087 1826 3278
3176 2088 3783
3284 2371 4093
3587 2685 4086
2746 1604 335
2795 1675 734
2830 1746 1211
2894 1835 1902
2972 1981 2578
3054 2159 3192
3145 2364 3684
3251 2606 4063
3464 2935 4094
2714 2156 271
2761 2229 675
2780 2275 1124
2839 2333 1755
2915 2424 2459
3003 2549 3071
3089 2696 3576
3212 2887 3988
3414 3183 4094
2782 2409 397
2742 2693 651
2702 2771 1059
2754 2820 1659
2830 2870 2332
2931 2943 2941
3037 3038 3452
3177 3179 3885
3378 3448 4094
2374 2697 316
2676 2927 847
2458 3162 901
2698 3204 1634
2769 3245 2240
2876 3285 2879
2991 3362 3378
3148 3476 3845
3366 3715 4095
2676 2927 847
2458 3162 901
2458 3162 901
2625 3409 1732
2757 3432 2232
2835 3469 2839
3043 3731 3425
3144 3825 3872
3349 3866 4095
2458 3162 901
2458 3162 901
2625 3409 1732
2625 3409 1732
2757 3432 2232
3043 3731 3425
3043 3731 3425
3144 3825 3872
3444 3886 4095
2956 884 698
3275 1007 1276
3352 1076 1953
3448 1199 2292
3548 1310 2899
3626 1497 3478
3731 1672 3840
3867 1805 4047
3909 2376 4095
3210 1048 779
3245 1044 1097
3320 1149 1543
3417 1306 2125
3481 1493 2815
3556 1707 3413
3646 1932 3884
3764 2209 4012
3895 2595 4094
3256 1360 612
3276 1328 1002
3364 1405 1483
3413 1537 2078
3477 1716 2727
3535 1927 3338
3585 2163 3815
3647 2430 4093
3837 2793 4088
3203 1769 604
3269 1779 920
3364 1845 1367
3404 1930 2005
3445 2062 2657
3492 2231 3244
3549 2428 3719
3615 2653 4073
3758 2970 4094
3179 2304 531
3225 2285 833
3309 2349 1247
3350 2405 1859
3395 2481 2547
3449 2598 3132
3503 2742 3623
3570 2927 4008
3709 3213 4094
3306 2715 644
3175 2768 774
3221 2832 1185
3273 2866 1759
3322 2915 2404
3381 2980 3014
3444 3079 3502
3526 3218 3914
3655 3466 4094
3306 2715 644
3200 2977 996
3191 3215 1261
3226 3235 1748
3276 3271 2338
3341 3314 2929
3411 3383 3421
3530 3492 3859
3694 3719 4094
3306 2715 644
3191 3215 1261
3191 3215 1261
3232 3424 1763
3285 3448 2309
3611 3673 2988
3422 3552 3434
3468 3803 3844
3703 3878 4095
3191 3215 1261
3191 3215 1261
3232 3424 1763
3232 3424 1763
3620 3683 2431
3611 3673 2988
3658 3750 3443
3468 3803 3844
3785 3880 4077
3245 1044 1097
3275 1007 1276
3555 1231 1937
3971 1401 2697
3909 1512 3038
3945 1653 3552
3981 1859 3909
4053 2061 4062
4081 2773 4095
3210 1048 779
3539 1289 1368
3554 1247 1604
3857 1412 2199
3878 1622 2884
3906 1823 3473
3970 2041 3947
4030 2299 4058
4090 2666 4092
3549 1529 906
3518 1404 1116
3834 1606 1693
3814 1665 2209
3858 1830 2807
3904 2021 3379
3950 2239 3870
3990 2482 4095
4090 2789 4095
3549 1529 906
3493 1834 1027
3764 1932 1492
3812 2017 2102
3836 2148 2734
3883 2313 3306
3920 2497 3774
3975 2712 4092
4095 2980 4094
3179 2304 531
3489 2321 904
3754 2425 1394
3774 2466 1964
3799 2545 2628
3837 2666 3202
3872 2805 3683
3932 2976 4063
4080 3229 4095
3390 2832 814
3623 2892 1116
3677 2874 1321
3684 2924 1858
3734 2973 2475
3772 3034 3101
3823 3145 3576
3894 3276 4005
4020 3497 4095
3390 2832 814
3713 3043 1175
3585 3276 1386
3618 3310 1856
3669 3352 2426
3710 3396 2990
3767 3468 3493
3837 3573 3895
3950 3784 4094
3713 3043 1175
3422 3255 1323
3670 3467 1730
3634 3476 1891
3620 3683 2431
3771 3709 2980
3830 3765 3483
3912 3840 3903
4032 3983 4095
3422 3255 1323
3585 3276 1386
3670 3467 1730
3620 3683 2431
3620 3683 2431
3771 3709 2980
3830 3765 3483
3912 3840 3903
4032 3983 4095
3245 1044 1097
3765 1398 1700
3954 1350 2322
3971 1401 2697
4095 1631 3021
4095 1697 3828
4095 1993 4031
4095 2119 4037
4081 2773 4095
3518 1404 1116
3765 1398 1700
3765 1398 1700
4095 1596 2690
4095 1655 2779
4095 1868 3512
4095 2104 4031
4095 2248 4085
4090 2666 4092
3549 1529 906
3834 1606 1693
4034 1673 1825
4079 1687 2092
4082 1912 2894
4092 2066 3406
4095 2295 3910
4095 2400 4095
4090 2789 4095
3549 1529 906
3745 2211 1149
4075 1843 1870
4095 2055 2212
4073 2194 2802
4085 2350 3346
4090 2534 3853
4095 2638 4044
4095 2967 4095
3489 2321 904
3743 2419 1172
4061 2233 1811
4006 2541 1984
4047 2597 2691
4056 2717 3246
4090 2847 3754
4095 3157 4095
4095 3157 4095
3390 2832 814
3959 3027 1339
3959 3027 1339
3934 2962 1920
3950 3016 2488
3990 3099 3121
4049 3192 3630
4095 3379 4070
4095 3463 4095
3713 3043 1175
3713 3043 1175
3825 3350 1720
3841 3372 1930
4095 3507 2510
4095 3595 3039
4095 3666 3698
4095 3722 3863
4089 3796 4095
3713 3043 1175
3585 3276 1386
3825 3350 1720
3829 3533 1964
3900 3716 2511
4095 3892 3118
4095 3885 3696
4095 3989 4012
4073 4003 4095
3585 3276 1386
3670 3467 1730
3670 3467 1730
3900 3716 2511
3900 3716 2511
4095 3892 3118
4095 3885 3696
4095 3989 4012
4073 4003 4095
