Fujifilm XTrans III/Pro Neg Hi.3dl
#Created by: Affinity Photo (Serif Europe Ltd.)
0 128 256 384 512 639 767 895 1023
0 0 0
0 1 32
0 51 846
0 358 1929
559 482 2788
1080 494 3368
1606 448 3778
2080 432 4055
2486 984 4095
0 21 0
0 93 112
15 261 699
27 474 1659
218 699 2622
818 807 3368
1427 775 3756
1987 667 4054
2473 1061 4095
0 541 0
0 551 137
0 702 702
5 889 1607
98 1112 2433
223 1321 3168
392 1538 3750
1089 1738 4003
1771 1772 4090
0 810 0
0 1221 7
0 1373 656
0 1529 1546
15 1679 2323
256 1828 3039
314 1994 3619
399 2194 3984
510 2372 4094
0 1660 0
8 1714 0
0 2130 502
3 2118 1525
12 2235 2249
197 2347 2930
467 2472 3519
489 2636 3958
383 2771 4087
1 1205 0
0 2130 502
0 2341 1216
3 2377 1533
25 2693 2222
187 2818 2835
580 2921 3409
818 3044 3929
705 3194 4091
0 2130 502
73 2274 9
0 2341 1216
21 2614 1936
74 2951 2489
210 3220 2766
634 3286 3325
1171 3407 3932
1397 3617 4095
73 2274 9
16 2579 1525
16 2579 1525
97 3131 1318
100 3189 2414
328 3432 2805
535 3477 3303
1586 3882 3866
1580 3839 4095
73 2274 9
16 2579 1525
16 2579 1525
97 3131 1318
100 3189 2414
328 3432 2805
1586 3882 3866
1586 3882 3866
1586 3882 3866
67 0 0
2 6 38
255 217 793
525 454 1854
1046 501 2824
1468 524 3392
1872 527 3780
2240 533 4054
2578 1054 4095
72 77 4
118 143 132
246 297 683
482 507 1713
869 805 2633
1333 1048 3396
1766 1162 3780
2253 1229 3995
2669 1374 4095
44 558 0
118 521 106
144 704 675
344 919 1670
747 1202 2516
1213 1518 3241
1582 1790 3838
1937 2058 4088
2320 1782 4093
62 1263 0
21 1295 6
33 1390 589
78 1558 1506
465 1733 2350
1097 1929 3108
1514 2135 3710
1864 2360 4088
1211 2476 4094
0 1660 0
28 2084 6
24 2060 532
64 2126 1470
249 2261 2206
863 2381 2958
1393 2533 3568
1805 2714 4061
897 2836 4094
0 1660 0
73 2274 9
26 2316 544
67 2633 1427
212 2720 2170
544 2852 2805
1164 2944 3415
1683 3074 3970
952 3239 4094
0 1660 0
73 2274 9
97 3131 1318
97 3131 1318
199 2930 2155
424 3224 2779
893 3302 3305
1490 3429 3930
1501 3682 4095
28 2084 6
73 2274 9
83 2577 493
97 3131 1318
260 3179 2032
395 3438 2696
848 3489 3321
1389 3632 3892
1888 3897 4095
28 2084 6
73 2274 9
83 2577 493
97 3131 1318
260 3179 2032
395 3438 2696
1167 3729 3571
1360 3781 3761
1888 3897 4095
514 7 0
591 153 219
1289 382 958
1054 520 1906
1547 559 2880
1878 627 3429
2216 694 3787
2513 701 4059
2776 1193 4095
605 135 4
563 251 202
725 406 797
979 604 1815
1311 889 2668
1676 1171 3399
2055 1286 3827
2470 1398 3978
2859 1524 4095
622 548 6
616 625 155
760 782 757
970 977 1731
1265 1249 2549
1587 1551 3253
1886 1827 3843
2195 2100 4092
2683 2275 4078
333 1407 0
406 1383 8
541 1465 601
782 1602 1551
1149 1765 2396
1500 1956 3127
1810 2162 3720
2129 2384 4092
2517 2730 4094
246 1977 1
199 2026 5
264 2111 442
536 2172 1443
937 2282 2242
1348 2400 2978
1705 2546 3581
2057 2726 4062
2418 3033 4094
246 1977 1
189 2288 5
290 2601 473
401 2683 1355
656 2771 2111
1097 2860 2820
1538 2951 3429
1948 3082 3982
1692 3310 4094
246 1977 1
217 2892 543
217 2892 543
237 3151 1289
428 3191 1981
858 3237 2735
1269 3330 3303
1779 3430 3930
2077 3679 4095
217 2892 543
217 2892 543
460 3160 1005
732 3374 1708
557 3389 2113
753 3442 2646
1177 3701 3332
1593 3844 3917
2106 3932 4095
217 2892 543
460 3160 1005
460 3160 1005
732 3374 1708
557 3389 2113
1177 3701 3332
1177 3701 3332
1593 3844 3917
1593 3844 3917
1342 141 98
864 209 277
1526 499 1588
1680 608 2004
2065 740 2887
2327 847 3472
2617 912 3794
2865 915 4061
3057 1403 4095
1417 308 76
1374 388 319
1526 536 977
1684 724 1933
1879 999 2700
2131 1281 3406
2441 1431 3871
2775 1616 3973
3112 1714 4095
1517 777 3
1465 768 236
1559 884 906
1680 1072 1806
1841 1334 2580
2037 1617 3275
2253 1876 3854
2497 2138 4092
2940 2384 4081
1490 1482 0
1456 1470 37
1514 1546 721
1638 1667 1628
1801 1815 2448
2006 1997 3161
2214 2194 3738
2460 2413 4091
2805 2756 4094
1346 2091 0
1356 2089 10
1371 2153 608
1516 2209 1526
1689 2314 2286
1900 2428 3011
2127 2574 3595
2393 2750 4064
2743 3054 4094
1345 2293 0
1297 2336 9
1164 2649 577
1278 2726 1378
1502 2787 2162
1748 2878 2847
2007 2969 3444
2315 3098 3994
2682 3381 4094
1523 2596 24
1449 2940 254
1066 3145 1013
947 3164 1330
1197 3208 2002
1507 3262 2748
1845 3330 3329
2202 3438 3949
2575 3697 4095
1449 2940 254
1449 2940 254
1066 3145 1013
732 3374 1708
1084 3397 2055
1403 3453 2710
2089 3791 3423
1997 3796 3770
2465 3920 4095
1449 2940 254
1066 3145 1013
1066 3145 1013
732 3374 1708
1084 3397 2055
1403 3453 2710
2089 3791 3423
1997 3796 3770
1997 3796 3770
1762 288 165
2202 548 478
2245 652 1712
2411 813 2402
2590 937 2875
2785 1066 3501
3024 1129 3819
3249 1165 4059
3384 1692 4095
2161 501 215
2202 548 478
2274 689 1069
2326 884 2007
2448 1143 2753
2617 1402 3407
2849 1569 3903
3115 1803 3975
3404 1973 4095
2218 941 35
2270 920 398
2285 1029 1072
2337 1209 1896
2424 1451 2618
2547 1690 3298
2698 1940 3865
2882 2190 4093
3254 2481 4083
2230 1490 0
2258 1576 169
2272 1639 873
2316 1743 1745
2404 1893 2513
2516 2056 3188
2661 2245 3752
2841 2460 4092
3124 2795 4094
2253 2106 0
2213 2159 72
2198 2211 802
2244 2269 1611
2338 2360 2336
2461 2466 3051
2612 2603 3621
2802 2778 4073
3077 3072 4094
2488 2683 10
2226 2688 57
2082 2704 725
2121 2761 1457
2220 2817 2209
2354 2903 2874
2512 2996 3451
2733 3124 3987
3017 3399 4094
2226 2688 57
2519 2956 453
1908 3166 1079
1931 3183 1407
2053 3222 2080
2205 3269 2796
2424 3341 3361
2672 3445 3964
2941 3713 4095
2519 2956 453
2519 2956 453
1908 3166 1079
1693 3430 1724
1869 3440 2104
2155 3457 2758
2355 3752 3414
2604 3841 3953
2813 3759 4095
2519 2956 453
2519 2956 453
1908 3166 1079
1693 3430 1724
1869 3440 2104
2355 3752 3414
2355 3752 3414
2604 3841 3953
2810 3903 4095
2876 717 469
3261 837 1037
3021 834 1402
2965 1007 2225
3116 1127 2906
3230 1263 3504
3404 1353 3842
3603 1456 4054
3690 2037 4095
2876 717 469
2885 780 744
2908 903 1349
2950 1081 2098
3003 1318 2807
3106 1532 3418
3260 1714 3933
3469 1958 3987
3693 2289 4095
2950 1118 340
2927 1114 617
2935 1224 1234
2952 1388 1986
2995 1588 2671
3067 1790 3326
3158 2020 3880
3269 2264 4093
3594 2589 4086
2905 1625 61
2926 1702 426
2921 1767 1080
2937 1845 1879
2983 1975 2575
3043 2130 3225
3130 2306 3763
3244 2517 4092
3477 2834 4094
2873 2166 1
2893 2240 342
2874 2281 996
2892 2332 1703
2929 2413 2431
2998 2523 3091
3076 2653 3638
3201 2826 4074
3423 3119 4094
2933 2411 0
2872 2684 344
2793 2761 916
2804 2811 1572
2844 2863 2270
2920 2934 2929
3019 3020 3489
3157 3147 4009
3379 3420 4094
2488 2683 10
2785 2915 649
2534 3153 687
2738 3203 1508
2774 3244 2146
2852 3285 2849
2955 3359 3394
3118 3474 3980
3355 3739 4095
2785 2915 649
2534 3153 687
2534 3153 687
2642 3405 1595
2756 3435 2123
2800 3481 2791
2976 3787 3418
3076 3890 3989
3329 3929 4095
2534 3153 687
2534 3153 687
2642 3405 1595
2642 3405 1595
2756 3435 2123
2976 3787 3418
2976 3787 3418
3076 3890 3989
3426 3956 4095
3101 824 526
3396 957 1221
3420 1038 2006
3501 1177 2342
3582 1288 2933
3650 1428 3542
3759 1541 3872
3893 1632 4060
3911 2367 4095
3382 1027 620
3386 1006 999
3426 1116 1554
3479 1294 2169
3504 1491 2839
3552 1680 3460
3654 1850 3955
3793 2082 4015
3901 2565 4094
3454 1396 440
3435 1341 850
3489 1427 1448
3491 1561 2093
3510 1727 2732
3534 1911 3375
3574 2110 3891
3639 2338 4094
3860 2713 4088
3391 1805 388
3435 1821 735
3499 1882 1310
3491 1957 1990
3486 2072 2647
3502 2214 3269
3548 2382 3779
3620 2576 4092
3795 2882 4094
3389 2315 264
3397 2300 655
3455 2361 1181
3452 2412 1821
3450 2480 2521
3469 2582 3143
3507 2710 3669
3581 2877 4076
3749 3156 4094
3527 2710 465
3356 2757 604
3369 2828 1078
3381 2869 1681
3383 2915 2341
3403 2977 2995
3450 3067 3525
3537 3192 4021
3695 3445 4094
3527 2710 465
3366 2974 858
3341 3207 1126
3336 3235 1636
3338 3272 2246
3366 3317 2890
3419 3386 3429
3548 3497 3971
3733 3746 4094
3527 2710 465
3341 3207 1126
3341 3207 1126
3352 3425 1643
3350 3453 2199
3686 3723 2907
3427 3576 3435
3453 3870 3933
3752 3950 4095
3341 3207 1126
3341 3207 1126
3352 3425 1643
3352 3425 1643
3756 3728 2314
3686 3723 2907
3708 3818 3417
3453 3870 3933
3848 3963 4095
3386 1006 999
3396 957 1221
3646 1225 1995
4084 1429 2726
3967 1521 3066
3974 1611 3611
4004 1764 3940
4068 1916 4068
4085 2753 4095
3382 1027 620
3697 1305 1336
3683 1250 1637
3993 1449 2242
3947 1653 2901
3942 1817 3515
4004 1981 4009
4050 2193 4058
4095 2588 4095
3766 1584 747
3698 1449 1012
4038 1667 1714
3942 1715 2232
3939 1860 2815
3956 2023 3414
3994 2204 3943
4031 2406 4094
4095 2691 4095
3766 1584 747
3678 1882 912
3957 1981 1483
3959 2058 2102
3934 2173 2727
3949 2306 3331
3977 2464 3838
4032 2651 4094
4095 2910 4094
3389 2315 264
3696 2342 790
3971 2446 1365
3942 2483 1942
3913 2552 2605
3922 2660 3214
3941 2784 3723
4009 2938 4094
4095 3183 4095
3602 2826 693
3872 2894 1037
3907 2879 1256
3862 2933 1797
3866 2983 2421
3865 3040 3082
3905 3140 3597
3979 3256 4078
4094 3484 4095
3602 2826 693
4001 3049 1092
3814 3273 1282
3799 3311 1757
3809 3360 2346
3813 3407 2946
3850 3484 3499
3920 3594 3994
4036 3838 4094
4001 3049 1092
3612 3250 1205
3910 3476 1619
3835 3480 1777
3756 3728 2314
3895 3766 2899
3932 3836 3468
4006 3920 3988
4095 4089 4095
3612 3250 1205
3814 3273 1282
3910 3476 1619
3756 3728 2314
3756 3728 2314
3895 3766 2899
3932 3836 3468
4006 3920 3988
4095 4089 4095
3386 1006 999
3939 1446 1742
4095 1385 2369
4084 1429 2726
4095 1670 3050
4095 1619 3879
4095 1910 4042
4095 2027 4028
4085 2753 4095
3698 1449 1012
3939 1446 1742
3939 1446 1742
4095 1650 2722
4095 1707 2807
4095 1873 3560
4095 2059 4093
4095 2184 4061
4095 2588 4095
3766 1584 747
4038 1667 1714
4095 1742 1858
4095 1753 2126
4095 1949 2907
4095 2076 3444
4095 2267 3982
4095 2327 4095
4095 2691 4095
3766 1584 747
3994 2244 1107
4095 1907 1897
4095 2103 2224
4095 2225 2801
4095 2354 3376
4095 2503 3925
4095 2597 4090
4095 2915 4095
3696 2342 790
3996 2441 1131
4095 2272 1820
4095 2561 1971
4095 2611 2675
4094 2717 3258
4095 2833 3806
4095 3118 4095
4095 3118 4095
3602 2826 693
4095 3039 1287
4095 3039 1287
4095 2979 1869
4093 3030 2441
4090 3109 3104
4094 3191 3660
4095 3370 4095
4095 3455 4095
4001 3049 1092
4001 3049 1092
4085 3351 1635
4080 3383 1842
4095 3534 2441
4095 3642 2983
4095 3716 3729
4095 3783 3934
4095 3858 4095
4001 3049 1092
3814 3273 1282
4085 3351 1635
4056 3552 1854
4054 3770 2400
4095 3993 3038
4095 3980 3716
4095 4079 4076
4095 4089 4095
3814 3273 1282
3910 3476 1619
3910 3476 1619
4054 3770 2400
4054 3770 2400
4095 3993 3038
4095 3980 3716
4095 4079 4076
4095 4089 4095
