Fujifilm XTrans III/Pro Neg Hi.3dl
#Created by: Affinity Photo (Serif Europe Ltd.)
0 256 512 767 1023
0 0 0
0 51 846
559 482 2788
1606 448 3778
2486 984 4095
0 541 0
0 702 702
98 1112 2433
392 1538 3750
1771 1772 4090
0 1660 0
0 2130 502
12 2235 2249
467 2472 3519
383 2771 4087
0 2130 502
0 2341 1216
74 2951 2489
634 3286 3325
1397 3617 4095
73 2274 9
16 2579 1525
100 3189 2414
1586 3882 3866
1586 3882 3866
514 7 0
1289 382 958
1547 559 2880
2216 694 3787
2776 1193 4095
622 548 6
760 782 757
1265 1249 2549
1886 1827 3843
2683 2275 4078
246 1977 1
264 2111 442
937 2282 2242
1705 2546 3581
2418 3033 4094
246 1977 1
217 2892 543
428 3191 1981
1269 3330 3303
2077 3679 4095
217 2892 543
460 3160 1005
557 3389 2113
1177 3701 3332
1593 3844 3917
1762 288 165
2245 652 1712
2590 937 2875
3024 1129 3819
3384 1692 4095
2218 941 35
2285 1029 1072
2424 1451 2618
2698 1940 3865
3254 2481 4083
2253 2106 0
2198 2211 802
2338 2360 2336
2612 2603 3621
3077 3072 4094
2226 2688 57
1908 3166 1079
2053 3222 2080
2424 3341 3361
2941 3713 4095
2519 2956 453
1908 3166 1079
1869 3440 2104
2355 3752 3414
2810 3903 4095
3101 824 526
3420 1038 2006
3582 1288 2933
3759 1541 3872
3911 2367 4095
3454 1396 440
3489 1427 1448
3510 1727 2732
3574 2110 3891
3860 2713 4088
3389 2315 264
3455 2361 1181
3450 2480 2521
3507 2710 3669
3749 3156 4094
3527 2710 465
3341 3207 1126
3338 3272 2246
3419 3386 3429
3733 3746 4094
3341 3207 1126
3352 3425 1643
3756 3728 2314
3708 3818 3417
3848 3963 4095
3386 1006 999
4095 1385 2369
4095 1670 3050
4095 1910 4042
4085 2753 4095
3766 1584 747
4095 1742 1858
4095 1949 2907
4095 2267 3982
4095 2691 4095
3696 2342 790
4095 2272 1820
4095 2611 2675
4095 2833 3806
4095 3118 4095
4001 3049 1092
4085 3351 1635
4095 3534 2441
4095 3716 3729
4095 3858 4095
3814 3273 1282
3910 3476 1619
4054 3770 2400
4095 3980 3716
4095 4089 4095
