Fujifilm XTrans III/Pro Neg Std.3dl
#Created by: Affinity Photo (Serif Europe Ltd.)
0 256 512 767 1023
16 21 21
132 279 926
715 592 2625
1748 643 3697
2621 1007 4094
0 702 1
24 858 832
283 1208 2323
628 1636 3592
1883 1894 4083
27 1665 0
1 2132 795
121 2253 2216
630 2520 3371
423 2838 4053
1 2132 795
0 2349 1275
269 2955 2480
858 3290 3235
1530 3610 4091
156 2278 111
42 2592 1560
228 3187 2424
1794 3816 3718
1794 3816 3718
683 132 122
1361 565 1078
1580 696 2743
2264 889 3722
2873 1216 4094
762 716 137
916 934 915
1335 1348 2447
1864 1926 3666
2659 2409 4078
401 1977 12
481 2113 731
1080 2298 2224
1715 2603 3452
2358 3112 4093
401 1977 12
311 2902 767
682 3185 2044
1440 3332 3235
2119 3672 4095
311 2902 767
592 3166 1153
832 3381 2179
1436 3658 3288
1784 3785 3748
1709 434 372
2230 818 1671
2593 1037 2796
3007 1306 3773
3418 1720 4095
2107 989 277
2220 1120 1193
2437 1497 2577
2720 2022 3743
3238 2603 4084
2148 2100 108
2138 2208 987
2352 2375 2353
2637 2655 3537
3063 3145 4094
2136 2702 448
1927 3172 1236
2123 3222 2166
2506 3342 3328
2978 3694 4095
2432 2969 724
1927 3172 1236
1977 3437 2197
2486 3703 3395
2894 3839 3938
2956 884 698
3352 1076 1953
3548 1310 2899
3731 1672 3840
3909 2376 4095
3256 1360 612
3364 1405 1483
3477 1716 2727
3585 2163 3815
3837 2793 4088
3179 2304 531
3309 2349 1247
3395 2481 2547
3503 2742 3623
3709 3213 4094
3306 2715 644
3191 3215 1261
3276 3271 2338
3411 3383 3421
3694 3719 4094
3191 3215 1261
3232 3424 1763
3620 3683 2431
3658 3750 3443
3785 3880 4077
3245 1044 1097
3954 1350 2322
4095 1631 3021
4095 1993 4031
4081 2773 4095
3549 1529 906
4034 1673 1825
4082 1912 2894
4095 2295 3910
4090 2789 4095
3489 2321 904
4061 2233 1811
4047 2597 2691
4090 2847 3754
4095 3157 4095
3713 3043 1175
3825 3350 1720
4095 3507 2510
4095 3666 3698
4089 3796 4095
3585 3276 1386
3670 3467 1730
3900 3716 2511
4095 3885 3696
4073 4003 4095
