Fujifilm XTrans III/Pro Neg Hi.3dl
#Created by: Affinity Photo (Serif Europe Ltd.)
0 64 128 192 256 320 384 448 512 575 639 703 767 831 895 959 1023
0 0 0
0 0 6
0 1 32
0 1 458
0 51 846
0 217 1380
0 358 1929
295 447 2405
559 482 2788
811 493 3116
1080 494 3368
1348 482 3578
1606 448 3778
1848 412 3945
2080 432 4055
2295 618 4092
2486 984 4095
0 1 0
0 7 20
0 19 61
0 11 323
0 112 786
4 293 1317
14 403 1802
139 492 2295
467 544 2729
759 555 3106
1039 548 3367
1325 533 3577
1582 498 3776
1829 464 3949
2077 477 4060
2301 657 4093
2499 1016 4095
0 21 0
0 67 18
0 93 112
1 164 306
15 261 699
16 366 1155
27 474 1659
68 587 2169
218 699 2622
527 780 3042
818 807 3368
1114 810 3588
1427 775 3756
1706 722 3919
1987 667 4054
2248 757 4094
2473 1061 4095
0 151 0
0 203 16
0 253 140
0 357 351
5 433 697
15 519 1145
26 635 1631
62 756 2086
121 874 2521
208 997 2914
385 1108 3277
643 1194 3585
968 1252 3786
1307 1274 3885
1639 1250 3990
1943 1200 4080
2243 1307 4094
0 541 0
0 450 8
0 551 137
0 603 365
0 702 702
0 789 1148
5 889 1607
33 1004 2034
98 1112 2433
166 1215 2809
223 1321 3168
275 1430 3485
392 1538 3750
680 1643 3924
1089 1738 4003
1453 1770 4046
1771 1772 4090
0 810 0
0 792 1
0 855 36
0 885 381
0 1001 682
0 1108 1114
0 1198 1589
4 1291 1997
52 1389 2379
161 1478 2741
241 1566 3096
278 1657 3403
294 1752 3674
332 1859 3873
498 1983 4008
768 2090 4072
1114 2165 4093
0 810 0
1 1205 0
0 1221 7
0 1385 143
0 1373 656
0 1442 1080
0 1529 1546
0 1607 1947
15 1679 2323
114 1753 2687
256 1828 3039
311 1907 3347
314 1994 3619
337 2088 3834
399 2194 3984
421 2289 4063
510 2372 4094
1 1205 0
1 1205 0
8 1714 0
0 1385 143
0 1724 607
1 1760 1088
0 1830 1524
0 1897 1914
8 1962 2273
73 2028 2638
249 2094 2987
364 2161 3297
381 2238 3570
384 2323 3803
414 2418 3967
419 2500 4055
412 2562 4091
0 1660 0
8 1714 0
8 1714 0
5 2036 32
0 2130 502
1 2105 1119
3 2118 1525
1 2166 1909
12 2235 2249
58 2291 2586
197 2347 2930
410 2404 3244
467 2472 3519
469 2549 3768
489 2636 3958
451 2716 4048
383 2771 4087
1 1205 0
28 2084 6
0 2130 502
0 2130 502
0 2130 502
0 2341 1216
3 2377 1533
4 2429 1895
21 2476 2239
72 2537 2550
174 2590 2875
384 2643 3193
561 2700 3466
617 2765 3722
610 2843 3946
553 2927 4049
466 2988 4086
1 1205 0
28 2084 6
0 2130 502
0 2130 502
0 2341 1216
0 2341 1216
3 2377 1533
21 2614 1936
25 2693 2222
100 2751 2539
187 2818 2835
353 2871 3138
580 2921 3409
754 2974 3674
818 3044 3929
807 3126 4060
705 3194 4091
0 2130 502
73 2274 9
73 2274 9
0 2341 1216
0 2341 1216
0 2341 1216
21 2614 1936
21 2614 1936
74 2951 2489
74 2951 2489
241 3002 2826
376 3066 3095
601 3116 3357
867 3164 3638
1031 3223 3918
1091 3303 4078
1110 3387 4094
0 2130 502
73 2274 9
73 2274 9
0 2341 1216
0 2341 1216
21 2614 1936
21 2614 1936
99 2934 2179
74 2951 2489
74 2951 2489
210 3220 2766
406 3241 3086
634 3286 3325
899 3340 3614
1171 3407 3932
1336 3505 4092
1397 3617 4095
0 2130 502
73 2274 9
73 2274 9
16 2579 1525
0 2341 1216
97 3131 1318
97 3131 1318
99 2934 2179
100 3189 2414
328 3432 2805
328 3432 2805
406 3559 3070
535 3477 3303
819 3537 3579
1214 3619 3904
1456 3715 4093
1580 3839 4095
73 2274 9
73 2274 9
16 2579 1525
16 2579 1525
16 2579 1525
97 3131 1318
97 3131 1318
99 2934 2179
100 3189 2414
328 3432 2805
328 3432 2805
406 3559 3070
535 3477 3303
819 3537 3579
1586 3882 3866
1586 3882 3866
1580 3839 4095
73 2274 9
73 2274 9
16 2579 1525
16 2579 1525
16 2579 1525
97 3131 1318
97 3131 1318
100 3189 2414
100 3189 2414
406 3559 3070
328 3432 2805
406 3559 3070
535 3477 3303
1586 3882 3866
1586 3882 3866
1586 3882 3866
1580 3839 4095
73 2274 9
73 2274 9
16 2579 1525
16 2579 1525
16 2579 1525
97 3131 1318
97 3131 1318
100 3189 2414
100 3189 2414
406 3559 3070
328 3432 2805
406 3559 3070
1586 3882 3866
1586 3882 3866
1586 3882 3866
1586 3882 3866
1586 3882 3866
2 0 1
1 2 9
2 6 38
0 1 458
0 51 846
224 300 1286
358 419 1794
678 463 2435
881 491 2807
1104 503 3138
1324 511 3380
1540 512 3581
1761 493 3776
1977 470 3946
2175 492 4054
2365 673 4092
2538 1025 4095
11 3 1
10 13 22
17 34 64
49 92 226
147 209 855
224 300 1286
358 419 1794
601 546 2320
857 622 2751
1092 657 3118
1336 683 3397
1584 716 3588
1846 727 3761
2097 734 3929
2318 761 4055
2516 896 4093
2589 1198 4095
1 23 0
31 69 34
35 107 117
53 180 306
102 266 636
190 365 1132
319 485 1682
497 628 2189
723 787 2633
978 932 3025
1215 999 3386
1431 1062 3639
1695 1118 3768
1950 1159 3867
2201 1169 4006
2417 1203 4089
2599 1245 4095
0 169 0
23 201 39
39 247 168
50 331 351
83 409 669
143 515 1123
266 643 1659
437 791 2140
647 946 2562
890 1127 2948
1123 1303 3287
1323 1431 3608
1528 1522 3878
1762 1606 3968
2029 1664 3959
2268 1688 4036
2475 1379 4094
2 519 0
17 469 27
26 509 166
32 595 377
41 679 701
53 779 1130
132 900 1632
324 1035 2096
583 1185 2504
828 1338 2868
1076 1490 3231
1284 1628 3549
1463 1761 3831
1638 1897 4048
1843 2024 4083
2070 2138 4054
2076 1761 4094
43 817 0
10 813 4
10 874 62
8 927 376
10 1019 656
15 1103 1125
31 1215 1587
139 1328 2021
424 1457 2426
751 1586 2809
1028 1699 3162
1256 1817 3495
1431 1930 3775
1599 2057 4011
1787 2190 4083
1978 2323 4088
1497 2198 4094
62 1263 0
8 1143 0
7 1346 3
4 1280 220
4 1371 587
6 1467 1065
9 1542 1546
46 1632 1934
235 1720 2335
610 1822 2732
966 1923 3104
1220 2019 3433
1408 2125 3704
1588 2232 3962
1757 2345 4083
1942 2475 4088
871 2428 4094
0 1660 0
8 1714 0
8 1714 0
4 1715 75
7 1734 596
11 1770 1064
5 1837 1512
29 1914 1890
144 1991 2264
459 2067 2657
854 2147 3030
1156 2231 3369
1365 2321 3632
1566 2418 3901
1749 2527 4081
1933 2644 4092
715 2605 4094
0 1660 0
8 1714 0
8 1714 0
5 2036 32
12 2065 565
12 2093 1076
20 2119 1498
33 2177 1881
113 2249 2225
338 2318 2581
697 2376 2951
1047 2447 3284
1301 2524 3568
1521 2609 3831
1719 2704 4057
1919 2818 4092
647 2804 4094
0 1660 0
28 2084 6
28 2084 6
5 2036 32
26 2316 544
8 2335 1090
17 2397 1522
36 2427 1869
105 2484 2215
249 2560 2524
530 2616 2867
891 2671 3208
1199 2733 3497
1452 2805 3760
1678 2892 4022
1897 2997 4092
652 3017 4094
0 1660 0
73 2274 9
73 2274 9
41 2323 28
8 2335 1090
8 2335 1090
16 2579 1525
44 2651 1877
97 2700 2188
241 2767 2520
407 2840 2810
708 2894 3127
1050 2943 3416
1349 2999 3689
1603 3071 3965
1876 3162 4092
779 3223 4094
0 1660 0
73 2274 9
73 2274 9
41 2323 28
16 2579 1525
16 2579 1525
16 2579 1525
99 2934 2179
99 2934 2179
182 2961 2509
386 3015 2814
582 3087 3073
880 3141 3345
1218 3189 3636
1520 3236 3927
1816 3317 4093
1219 3416 4094
0 1660 0
73 2274 9
73 2274 9
41 2323 28
16 2579 1525
16 2579 1525
97 3131 1318
99 2934 2179
100 3189 2414
100 3189 2414
311 3229 2781
561 3245 3078
788 3292 3311
1085 3355 3595
1395 3427 3921
1692 3529 4094
1494 3660 4095
0 1660 0
73 2274 9
73 2274 9
41 2323 28
16 2579 1525
97 3131 1318
97 3131 1318
100 3189 2414
100 3189 2414
328 3432 2805
328 3432 2805
491 3480 3016
745 3479 3326
1001 3531 3574
1295 3635 3888
1667 3690 4095
1743 3895 4095
73 2274 9
73 2274 9
73 2274 9
16 2579 1525
16 2579 1525
97 3131 1318
97 3131 1318
100 3189 2414
100 3189 2414
328 3432 2805
328 3432 2805
491 3480 3016
745 3479 3326
1001 3531 3574
1295 3635 3888
1667 3690 4095
1743 3895 4095
73 2274 9
73 2274 9
73 2274 9
16 2579 1525
16 2579 1525
97 3131 1318
97 3131 1318
100 3189 2414
100 3189 2414
491 3480 3016
328 3432 2805
491 3480 3016
745 3479 3326
1586 3882 3866
1586 3882 3866
1586 3882 3866
1743 3895 4095
73 2274 9
73 2274 9
16 2579 1525
16 2579 1525
16 2579 1525
97 3131 1318
97 3131 1318
100 3189 2414
100 3189 2414
491 3480 3016
328 3432 2805
491 3480 3016
745 3479 3326
1586 3882 3866
1586 3882 3866
1586 3882 3866
1743 3895 4095
67 0 0
45 7 9
2 6 38
148 124 307
255 217 793
345 312 1275
525 454 1854
865 497 2526
1046 501 2824
1263 511 3160
1468 524 3392
1673 534 3593
1872 527 3780
2065 513 3947
2240 533 4054
2416 708 4092
2578 1054 4095
77 6 2
73 31 31
82 65 93
148 124 307
255 217 793
345 312 1275
525 454 1854
768 569 2329
1008 648 2754
1225 690 3132
1435 728 3405
1668 768 3596
1915 803 3756
2151 830 3917
2374 821 4053
2563 946 4092
2657 1244 4095
72 77 4
89 105 47
118 143 132
169 215 330
246 297 683
346 392 1170
482 507 1713
652 648 2201
869 805 2633
1110 961 3030
1333 1048 3396
1533 1084 3653
1766 1162 3780
2021 1213 3866
2253 1229 3995
2479 1232 4088
2669 1374 4095
12 290 0
105 228 54
128 279 139
163 355 347
224 437 687
312 541 1160
446 660 1693
610 809 2172
808 965 2583
1024 1142 2951
1246 1320 3293
1445 1463 3615
1632 1556 3890
1848 1641 3982
2093 1700 3962
2328 1718 4032
2631 1488 4094
44 558 0
93 473 46
118 521 106
127 596 365
144 704 675
217 802 1137
344 919 1670
526 1052 2113
747 1202 2516
974 1361 2883
1213 1518 3241
1412 1652 3560
1582 1790 3838
1750 1920 4053
1937 2058 4088
2144 2172 4062
2320 1782 4093
80 893 0
44 848 4
63 843 47
68 926 311
76 1022 663
98 1126 1080
191 1230 1592
368 1346 2039
634 1470 2437
904 1596 2810
1162 1720 3177
1370 1835 3499
1551 1956 3777
1716 2076 4021
1892 2205 4090
2062 2339 4090
1823 2208 4094
62 1263 0
17 1324 0
21 1295 6
24 1327 171
33 1390 589
50 1469 1056
78 1558 1506
223 1643 1950
465 1733 2350
802 1832 2744
1097 1929 3108
1328 2032 3440
1514 2135 3710
1691 2245 3969
1864 2360 4088
2041 2489 4091
1211 2476 4094
0 1660 0
17 1662 1
15 1723 5
18 1735 68
29 1734 556
38 1785 1041
51 1846 1483
128 1926 1872
350 2001 2275
672 2075 2676
996 2153 3036
1260 2239 3369
1468 2330 3644
1654 2423 3907
1839 2534 4085
2019 2651 4093
966 2649 4094
0 1660 0
28 2084 6
28 2084 6
25 2046 31
24 2060 532
38 2082 1037
64 2126 1470
130 2186 1855
249 2261 2206
530 2320 2594
863 2381 2958
1161 2453 3292
1393 2533 3568
1605 2618 3834
1805 2714 4061
1999 2824 4093
897 2836 4094
0 1660 0
28 2084 6
28 2084 6
41 2323 28
26 2316 544
35 2346 1051
56 2395 1463
117 2437 1840
231 2494 2191
400 2568 2512
703 2622 2877
1026 2672 3214
1300 2743 3498
1534 2807 3758
1753 2894 4022
1967 3000 4093
900 3041 4094
0 1660 0
73 2274 9
73 2274 9
41 2323 28
26 2316 544
41 2579 1100
67 2633 1427
99 2671 1818
212 2720 2170
361 2778 2501
544 2852 2805
853 2896 3132
1164 2944 3415
1436 3002 3692
1683 3074 3970
1944 3164 4092
952 3239 4094
0 1660 0
73 2274 9
73 2274 9
73 2528 79
26 2316 544
41 2579 1100
67 2633 1427
72 3028 1515
199 2930 2155
305 2970 2487
497 3029 2797
704 3097 3061
1004 3144 3346
1322 3185 3640
1605 3240 3938
1885 3320 4093
1349 3434 4094
0 1660 0
73 2274 9
73 2274 9
73 2528 79
97 3131 1318
97 3131 1318
97 3131 1318
74 3146 1547
199 2930 2155
231 3189 2439
424 3224 2779
685 3250 3079
893 3302 3305
1174 3365 3599
1490 3429 3930
1761 3530 4094
1501 3682 4095
0 1660 0
73 2274 9
73 2274 9
73 2528 79
16 2579 1525
97 3131 1318
97 3131 1318
74 3146 1547
260 3179 2032
231 3189 2439
395 3438 2696
622 3462 3057
848 3489 3321
1100 3547 3571
1389 3632 3892
1720 3716 4095
1888 3897 4095
28 2084 6
73 2274 9
73 2274 9
73 2528 79
83 2577 493
97 3131 1318
97 3131 1318
74 3146 1547
260 3179 2032
395 3438 2696
395 3438 2696
622 3462 3057
848 3489 3321
1167 3729 3571
1389 3632 3892
1720 3716 4095
1888 3897 4095
28 2084 6
73 2274 9
73 2274 9
73 2528 79
83 2577 493
97 3131 1318
97 3131 1318
74 3146 1547
260 3179 2032
395 3438 2696
395 3438 2696
622 3462 3057
1167 3729 3571
1167 3729 3571
1360 3781 3761
1360 3781 3761
1888 3897 4095
28 2084 6
73 2274 9
73 2274 9
73 2528 79
83 2577 493
97 3131 1318
97 3131 1318
74 3146 1547
260 3179 2032
395 3438 2696
395 3438 2696
622 3462 3057
1167 3729 3571
1167 3729 3571
1360 3781 3761
1360 3781 3761
1888 3897 4095
217 0 0
200 51 38
273 100 145
316 135 323
483 253 825
624 326 1221
1191 495 2577
1191 495 2577
1281 520 2847
1471 542 3172
1656 558 3411
1850 584 3603
2042 598 3788
2204 594 3946
2359 606 4056
2517 775 4093
2658 1114 4095
238 15 3
200 51 38
273 100 145
316 135 323
483 253 825
624 326 1221
738 466 1863
979 597 2341
1207 691 2782
1398 748 3147
1588 797 3424
1797 854 3615
2028 902 3757
2247 932 3909
2452 922 4043
2631 1020 4093
