Fujifilm XTrans III/Provia.3dl
#Created by: Affinity Photo (Serif Europe Ltd.)
0 256 512 767 1023
0 0 2
0 77 1014
675 423 2820
1812 208 3781
2667 761 4095
0 676 0
0 806 824
75 1138 2539
362 1495 3784
1887 1688 4092
0 1755 0
0 2215 598
0 2299 2371
143 2493 3589
430 2768 4094
0 2215 598
0 2436 1266
0 3020 2615
30 3324 3424
759 3602 4095
20 2374 4
0 2684 1568
2 3255 2529
1103 3845 3876
1103 3845 3876
736 6 0
1535 350 1031
1718 451 2873
2408 488 3778
2943 981 4095
698 639 0
836 866 834
1330 1257 2597
1937 1755 3863
2774 2191 4078
99 2066 0
118 2193 445
579 2333 2327
1533 2559 3628
2345 3017 4094
99 2066 0
60 3013 296
82 3262 2043
678 3365 3390
1695 3654 4095
60 3013 296
120 3261 857
137 3458 2177
544 3710 3426
1077 3814 3920
2000 224 14
2489 591 1646
2817 801 2826
3198 939 3795
3524 1485 4095
2390 943 0
2467 1030 1025
2618 1381 2622
2876 1841 3832
3378 2390 4083
2240 2150 0
2172 2249 646
2354 2376 2352
2660 2591 3617
3112 3044 4094
2076 2765 0
1588 3234 886
1800 3267 2087
2277 3360 3394
2866 3673 4095
2401 3019 73
1588 3234 886
1504 3490 2109
2096 3733 3460
2667 3847 4027
3373 717 265
3708 855 1824
3797 1069 2827
3879 1336 3824
4002 2180 4095
3655 1298 49
3747 1307 1249
3766 1581 2666
3792 1982 3792
3969 2616 4088
3469 2321 0
3564 2345 906
3571 2452 2459
3627 2669 3620
3795 3114 4093
3556 2735 0
3295 3240 786
3311 3293 2183
3414 3384 3415
3691 3692 4094
3295 3240 786
3273 3459 1450
3662 3703 2224
3649 3764 3412
3772 3878 4085
3659 877 772
4095 1163 2182
4095 1446 2913
4095 1715 3992
4089 2471 4095
4070 1468 431
4095 1569 1616
4095 1778 2799
4095 2119 3820
4095 2578 4095
3819 2318 354
4095 2185 1588
4095 2557 2567
4095 2764 3707
4095 3061 4095
3982 3057 683
4009 3365 1370
4095 3515 2307
4095 3658 3637
4095 3767 4095
3762 3293 937
3812 3486 1367
3975 3735 2292
4095 3888 3653
4087 3987 4095
