Fujifilm XTrans III/Provia.3dl
#Created by: Affinity Photo (Serif Europe Ltd.)
0 64 128 192 256 320 384 448 512 575 639 703 767 831 895 959 1023
0 0 2
0 3 16
0 6 59
0 6 603
0 77 1014
0 241 1513
33 360 2011
399 423 2458
675 423 2820
953 400 3130
1245 366 3374
1534 311 3581
1812 208 3781
2067 80 3946
2297 44 4055
2498 288 4092
2667 761 4095
0 6 2
0 16 36
0 32 103
0 32 445
0 144 953
6 320 1471
23 419 1910
217 487 2363
566 503 2771
887 474 3123
1194 431 3374
1504 372 3580
1782 265 3776
2045 129 3947
2295 83 4058
2506 332 4093
2679 799 4095
0 52 0
0 101 32
0 130 166
0 209 416
7 302 875
12 402 1333
34 504 1794
93 604 2260
271 694 2688
599 738 3084
923 734 3387
1252 708 3596
1595 626 3760
1899 503 3920
2195 368 4053
2450 473 4093
2654 854 4095
0 256 0
0 285 22
0 335 187
0 434 439
0 499 849
3 581 1312
19 686 1760
64 791 2192
128 888 2609
212 989 2987
390 1075 3329
671 1139 3615
1041 1179 3801
1418 1182 3895
1785 1127 3997
2113 1047 4082
2410 1160 4094
0 676 0
0 574 3
0 670 160
0 716 439
0 806 824
0 878 1291
0 963 1721
16 1055 2139
75 1138 2539
139 1220 2904
191 1309 3243
244 1402 3539
362 1495 3784
659 1589 3944
1114 1671 4016
1525 1688 4054
1887 1688 4092
0 976 0
0 956 1
0 1013 27
0 1024 445
0 1125 795
0 1210 1241
0 1275 1692
0 1343 2103
18 1418 2496
90 1491 2853
165 1565 3188
211 1646 3471
244 1731 3721
292 1829 3904
441 1943 4027
707 2042 4081
1128 2121 4094
0 976 0
0 1364 0
0 1366 11
0 1500 244
0 1474 792
0 1525 1212
0 1593 1653
0 1653 2061
1 1711 2448
24 1774 2814
108 1839 3146
181 1910 3426
220 1989 3673
263 2075 3869
336 2174 4009
377 2264 4077
599 2350 4094
0 1364 0
0 1364 0
4 1805 0
0 1500 244
0 1804 760
0 1835 1206
0 1897 1621
0 1954 2025
0 2008 2400
3 2063 2772
33 2119 3104
122 2178 3386
203 2247 3632
254 2323 3838
310 2412 3989
339 2489 4071
516 2554 4094
0 1755 0
4 1805 0
4 1805 0
2 2128 53
0 2215 598
0 2187 1199
0 2196 1606
0 2238 2008
0 2299 2371
0 2345 2723
5 2388 3054
44 2436 3339
143 2493 3589
236 2560 3807
316 2640 3976
327 2714 4062
430 2768 4094
0 1364 0
20 2183 3
0 2215 598
0 2215 598
0 2215 598
0 2436 1266
0 2471 1591
0 2517 1979
0 2555 2353
0 2605 2682
0 2645 3001
12 2684 3293
74 2730 3544
196 2784 3767
313 2853 3960
351 2931 4060
404 2988 4092
0 1364 0
20 2183 3
0 2215 598
0 2215 598
0 2436 1266
0 2436 1266
0 2471 1591
0 2708 2023
0 2779 2333
0 2823 2664
0 2876 2956
5 2915 3246
32 2952 3499
125 2995 3728
295 3057 3941
410 3132 4066
454 3196 4093
0 2215 598
20 2374 4
20 2374 4
0 2436 1266
0 2436 1266
0 2436 1266
0 2708 2023
0 2708 2023
0 3020 2615
0 3020 2615
0 3056 2945
2 3111 3205
23 3150 3455
91 3190 3698
252 3243 3927
448 3311 4078
569 3387 4094
0 2215 598
20 2374 4
20 2374 4
0 2436 1266
0 2436 1266
0 2708 2023
0 2708 2023
14 3017 2286
0 3020 2615
0 3020 2615
0 3277 2888
2 3288 3198
30 3324 3424
112 3366 3677
258 3428 3934
575 3509 4090
759 3602 4095
0 2215 598
20 2374 4
20 2374 4
0 2684 1568
0 2436 1266
24 3231 1282
24 3231 1282
14 3017 2286
2 3255 2529
0 3486 2917
0 3486 2917
1 3590 3191
23 3507 3412
90 3557 3653
409 3624 3917
646 3696 4091
956 3794 4095
20 2374 4
20 2374 4
0 2684 1568
0 2684 1568
0 2684 1568
24 3231 1282
24 3231 1282
14 3017 2286
2 3255 2529
0 3486 2917
0 3486 2917
1 3590 3191
23 3507 3412
90 3557 3653
1103 3845 3876
1103 3845 3876
956 3794 4095
20 2374 4
20 2374 4
0 2684 1568
0 2684 1568
0 2684 1568
24 3231 1282
24 3231 1282
2 3255 2529
2 3255 2529
1 3590 3191
0 3486 2917
1 3590 3191
23 3507 3412
1103 3845 3876
1103 3845 3876
1103 3845 3876
956 3794 4095
20 2374 4
20 2374 4
0 2684 1568
0 2684 1568
0 2684 1568
24 3231 1282
24 3231 1282
2 3255 2529
2 3255 2529
1 3590 3191
0 3486 2917
1 3590 3191
1103 3845 3876
1103 3845 3876
1103 3845 3876
1103 3845 3876
1103 3845 3876
10 3 3
5 8 19
8 13 65
0 6 603
0 77 1014
288 314 1476
454 436 1903
797 431 2474
1011 418 2827
1258 394 3142
1498 370 3380
1731 333 3580
1967 257 3776
2190 157 3945
2385 128 4054
2564 357 4092
2715 805 4095
24 9 5
18 21 35
23 46 93
59 107 316
167 227 1065
288 314 1476
454 436 1903
715 547 2373
971 581 2784
1223 577 3130
1493 572 3396
1760 579 3586
2038 554 3758
2295 513 3926
2516 502 4053
2706 639 4093
2757 1005 4095
1 55 0
33 91 44
32 135 150
45 215 405
91 303 812
210 400 1328
375 521 1809
585 658 2264
822 800 2681
1064 909 3069
1312 930 3404
1554 972 3642
1843 1012 3768
2112 1034 3868
2371 1015 4008
2589 1026 4089
2766 1059 4095
0 272 0
14 269 33
24 314 200
29 402 433
45 476 825
108 580 1303
262 704 1773
474 841 2212
707 978 2624
942 1129 3014
1156 1269 3344
1359 1368 3640
1591 1445 3888
1852 1520 3970
2143 1568 3963
2397 1575 4039
2636 1224 4094
5 642 0
7 591 10
10 625 168
10 709 443
9 789 824
19 878 1276
76 986 1727
274 1100 2165
578 1217 2584
832 1336 2957
1065 1459 3307
1272 1580 3600
1467 1699 3859
1657 1829 4057
1883 1953 4084
2130 2064 4056
2205 1667 4094
22 957 0
2 972 2
2 1027 50
2 1066 429
2 1144 760
1 1209 1248
9 1296 1673
71 1380 2104
323 1478 2528
669 1581 2918
946 1680 3257
1179 1785 3558
1379 1888 3816
1574 2010 4021
1780 2141 4085
1988 2273 4090
1544 2148 4094
36 1380 0
3 1291 0
5 1478 3
2 1403 288
1 1470 712
1 1544 1191
0 1600 1643
7 1674 2034
91 1744 2451
383 1831 2856
758 1921 3212
1052 2007 3508
1280 2106 3755
1503 2206 3974
1702 2316 4084
1906 2444 4090
904 2402 4094
0 1755 0
4 1805 0
4 1805 0
3 1801 147
2 1812 731
2 1842 1174
0 1901 1600
1 1968 1990
10 2032 2383
131 2096 2786
460 2167 3147
844 2242 3453
1141 2323 3693
1407 2413 3915
1635 2515 4075
1847 2627 4092
810 2596 4094
0 1755 0
4 1805 0
4 1805 0
2 2128 53
5 2149 657
3 2173 1151
3 2196 1571
0 2248 1973
2 2312 2339
26 2370 2711
192 2415 3070
547 2479 3374
939 2544 3636
1270 2619 3859
1538 2705 4046
1781 2811 4092
744 2800 4094
0 1755 0
20 2183 3
20 2183 3
2 2128 53
15 2416 541
0 2429 1126
2 2491 1573
1 2514 1948
0 2563 2325
2 2627 2650
42 2670 2986
268 2713 3302
668 2764 3573
1066 2826 3798
1416 2900 4009
1697 2997 4092
709 3016 4094
0 1755 0
20 2374 4
20 2374 4
27 2429 22
0 2429 1126
0 2429 1126
0 2684 1568
3 2747 1952
1 2784 2293
1 2838 2640
8 2898 2926
104 2939 3230
399 2974 3503
818 3020 3739
1235 3085 3959
1605 3170 4089
712 3222 4094
0 1755 0
20 2374 4
20 2374 4
27 2429 22
0 2684 1568
0 2684 1568
0 2684 1568
14 3017 2286
14 3017 2286
1 3027 2631
14 3068 2930
41 3132 3179
192 3176 3440
559 3215 3695
1005 3258 3923
1456 3331 4089
811 3412 4094
0 1755 0
20 2374 4
20 2374 4
27 2429 22
0 2684 1568
0 2684 1568
24 3231 1282
14 3017 2286
2 3255 2529
2 3255 2529
8 3285 2900
32 3291 3186
119 3329 3407
345 3382 3659
718 3448 3922
1196 3533 4092
924 3639 4095
0 1755 0
20 2374 4
20 2374 4
27 2429 22
0 2684 1568
24 3231 1282
24 3231 1282
2 3255 2529
2 3255 2529
0 3486 2917
0 3486 2917
39 3522 3133
110 3507 3427
245 3552 3645
541 3639 3902
1117 3673 4095
1249 3841 4095
20 2374 4
20 2374 4
20 2374 4
0 2684 1568
0 2684 1568
24 3231 1282
24 3231 1282
2 3255 2529
2 3255 2529
0 3486 2917
0 3486 2917
39 3522 3133
110 3507 3427
245 3552 3645
541 3639 3902
1117 3673 4095
1249 3841 4095
20 2374 4
20 2374 4
20 2374 4
0 2684 1568
0 2684 1568
24 3231 1282
24 3231 1282
2 3255 2529
2 3255 2529
39 3522 3133
0 3486 2917
39 3522 3133
110 3507 3427
1103 3845 3876
1103 3845 3876
1103 3845 3876
1249 3841 4095
20 2374 4
20 2374 4
0 2684 1568
0 2684 1568
0 2684 1568
24 3231 1282
24 3231 1282
2 3255 2529
2 3255 2529
39 3522 3133
0 3486 2917
39 3522 3133
110 3507 3427
1103 3845 3876
1103 3845 3876
1103 3845 3876
1249 3841 4095
130 0 0
81 11 11
8 13 65
198 134 400
333 226 992
436 321 1458
647 469 1947
991 455 2557
1186 420 2838
1426 392 3159
1648 375 3388
1868 351 3590
2077 297 3778
2274 217 3946
2447 188 4053
2612 400 4092
2754 836 4095
129 10 2
112 38 37
110 76 115
198 134 400
333 226 992
436 321 1458
647 469 1947
895 569 2375
1129 607 2783
1362 607 3140
1593 619 3402
1844 637 3592
2103 643 3752
2343 635 3913
2568 578 4051
2750 700 4092
2821 1053 4095
101 102 0
105 131 50
138 170 154
194 248 411
282 331 849
416 424 1354
577 539 1824
761 676 2265
979 817 2676
1205 938 3071
1432 980 3414
1661 993 3653
1913 1057 3778
2180 1091 3866
2419 1081 3997
2649 1056 4089
2824 1198 4095
3 394 0
91 291 42
108 347 147
145 423 413
215 502 829
335 601 1326
495 717 1793
680 857 2231
887 995 2636
1089 1144 3012
1288 1285 3349
1486 1397 3645
1698 1476 3899
1938 1553 3983
2205 1604 3964
2456 1605 4034
2784 1331 4094
36 682 0
49 588 22
59 636 88
67 709 413
83 812 785
163 898 1273
313 999 1753
523 1112 2175
771 1231 2591
995 1354 2968
1214 1483 3316
1411 1599 3610
1593 1725 3867
1773 1848 4061
1976 1985 4088
2203 2098 4063
2450 1678 4093
50 1026 0
10 1001 1
20 993 31
25 1064 341
31 1144 759
44 1227 1199
131 1306 1672
300 1393 2117
576 1487 2534
851 1589 2913
1096 1697 3268
1308 1800 3560
1509 1912 3819
1699 2027 4030
1890 2154 4091
2075 2288 4091
1891 2151 4094
36 1380 0
8 1452 0
10 1419 6
11 1438 234
17 1481 710
27 1542 1177
35 1613 1598
125 1681 2044
320 1754 2460
622 1839 2862
926 1924 3211
1183 2019 3513
1405 2113 3760
1617 2218 3978
1817 2329 4088
2013 2457 4091
1223 2445 4094
0 1755 0
11 1756 0
10 1811 4
13 1818 122
13 1810 675
15 1853 1141
15 1907 1563
38 1978 1964
129 2039 2388
361 2101 2799
672 2171 3148
995 2248 3449
1274 2331 3702
1512 2416 3919
1737 2521 4078
1945 2634 4093
1030 2636 4094
0 1755 0
20 2183 3
20 2183 3
17 2134 41
11 2145 605
15 2162 1102
17 2202 1533
16 2257 1938
42 2324 2312
149 2370 2717
398 2419 3073
736 2484 3378
1079 2552 3633
1381 2627 3859
1641 2714 4050
1875 2816 4093
961 2830 4094
0 1755 0
20 2183 3
20 2183 3
27 2429 22
15 2416 541
13 2442 1072
16 2488 1502
15 2524 1912
17 2572 2293
39 2634 2632
175 2674 2990
464 2714 3304
837 2772 3571
1195 2826 3795
1516 2902 4007
1783 3000 4092
928 3039 4094
0 1755 0
20 2374 4
20 2374 4
27 2429 22
15 2416 541
14 2687 1074
21 2737 1445
16 2766 1880
16 2801 2269
25 2848 2616
62 2908 2918
253 2939 3232
579 2975 3500
970 3022 3739
1353 3088 3961
1694 3172 4089
901 3237 4094
0 1755 0
20 2374 4
20 2374 4
30 2649 23
15 2416 541
14 2687 1074
21 2737 1445
21 3134 1537
31 3010 2252
18 3035 2605
56 3081 2910
122 3141 3165
342 3178 3438
735 3211 3696
1149 3261 3930
1554 3333 4089
1043 3429 4094
0 1755 0
20 2374 4
20 2374 4
30 2649 23
24 3231 1282
24 3231 1282
24 3231 1282
0 3238 1560
31 3010 2252
13 3255 2555
35 3278 2893
104 3294 3183
237 3339 3400
480 3392 3660
898 3449 3927
1306 3534 4089
907 3658 4095
0 1755 0
20 2374 4
20 2374 4
30 2649 23
0 2684 1568
24 3231 1282
24 3231 1282
0 3238 1560
41 3254 2109
13 3255 2555
33 3492 2803
95 3502 3171
193 3516 3422
397 3564 3638
718 3636 3901
1201 3696 4092
1457 3841 4095
20 2183 3
20 2374 4
20 2374 4
30 2649 23
34 2699 363
24 3231 1282
24 3231 1282
0 3238 1560
41 3254 2109
33 3492 2803
33 3492 2803
95 3502 3171
193 3516 3422
500 3725 3642
718 3636 3901
1201 3696 4092
1457 3841 4095
20 2183 3
20 2374 4
20 2374 4
30 2649 23
34 2699 363
24 3231 1282
24 3231 1282
0 3238 1560
41 3254 2109
33 3492 2803
33 3492 2803
95 3502 3171
500 3725 3642
500 3725 3642
726 3762 3798
726 3762 3798
1457 3841 4095
20 2183 3
20 2374 4
20 2374 4
30 2649 23
34 2699 363
24 3231 1282
24 3231 1282
0 3238 1560
41 3254 2109
33 3492 2803
33 3492 2803
95 3502 3171
500 3725 3642
500 3725 3642
726 3762 3798
726 3762 3798
1457 3841 4095
380 0 0
311 57 36
391 106 161
433 142 393
627 253 991
786 321 1376
1339 427 2590
1339 427 2590
1434 426 2851
1643 413 3164
1844 402 3402
2046 400 3596
2242 377 3782
2405 324 3943
2559 291 4054
2708 481 4093
2830 899 4095
384 17 1
311 57 36
391 106 161
433 142 393
627 253 991
786 321 1376
899 470 1932
1124 590 2374
1340 644 2803
1541 663 3152
1750 689 3417
1972 728 3608
2210 755 3752
2431 756 3905
2639 703 4041
2812 787 4092
