Fujifilm XTrans III/Provia.3dl
#Created by: Affinity Photo (Serif Europe Ltd.)
0 128 256 384 512 639 767 895 1023
0 0 2
0 6 59
0 77 1014
33 360 2011
675 423 2820
1245 366 3374
1812 208 3781
2297 44 4055
2667 761 4095
0 52 0
0 130 166
7 302 875
34 504 1794
271 694 2688
923 734 3387
1595 626 3760
2195 368 4053
2654 854 4095
0 676 0
0 670 160
0 806 824
0 963 1721
75 1138 2539
191 1309 3243
362 1495 3784
1114 1671 4016
1887 1688 4092
0 976 0
0 1366 11
0 1474 792
0 1593 1653
1 1711 2448
108 1839 3146
220 1989 3673
336 2174 4009
599 2350 4094
0 1755 0
4 1805 0
0 2215 598
0 2196 1606
0 2299 2371
5 2388 3054
143 2493 3589
316 2640 3976
430 2768 4094
0 1364 0
0 2215 598
0 2436 1266
0 2471 1591
0 2779 2333
0 2876 2956
32 2952 3499
295 3057 3941
454 3196 4093
0 2215 598
20 2374 4
0 2436 1266
0 2708 2023
0 3020 2615
0 3277 2888
30 3324 3424
258 3428 3934
759 3602 4095
20 2374 4
0 2684 1568
0 2684 1568
24 3231 1282
2 3255 2529
0 3486 2917
23 3507 3412
1103 3845 3876
956 3794 4095
20 2374 4
0 2684 1568
0 2684 1568
24 3231 1282
2 3255 2529
0 3486 2917
1103 3845 3876
1103 3845 3876
1103 3845 3876
130 0 0
8 13 65
333 226 992
647 469 1947
1186 420 2838
1648 375 3388
2077 297 3778
2447 188 4053
2754 836 4095
101 102 0
138 170 154
282 331 849
577 539 1824
979 817 2676
1432 980 3414
1913 1057 3778
2419 1081 3997
2824 1198 4095
36 682 0
59 636 88
83 812 785
313 999 1753
771 1231 2591
1214 1483 3316
1593 1725 3867
1976 1985 4088
2450 1678 4093
36 1380 0
10 1419 6
17 1481 710
35 1613 1598
320 1754 2460
926 1924 3211
1405 2113 3760
1817 2329 4088
1223 2445 4094
0 1755 0
20 2183 3
11 2145 605
17 2202 1533
42 2324 2312
398 2419 3073
1079 2552 3633
1641 2714 4050
961 2830 4094
0 1755 0
20 2374 4
15 2416 541
21 2737 1445
16 2801 2269
62 2908 2918
579 2975 3500
1353 3088 3961
901 3237 4094
0 1755 0
20 2374 4
24 3231 1282
24 3231 1282
31 3010 2252
35 3278 2893
237 3339 3400
898 3449 3927
907 3658 4095
20 2183 3
20 2374 4
34 2699 363
24 3231 1282
41 3254 2109
33 3492 2803
193 3516 3422
718 3636 3901
1457 3841 4095
20 2183 3
20 2374 4
34 2699 363
24 3231 1282
41 3254 2109
33 3492 2803
500 3725 3642
726 3762 3798
1457 3841 4095
736 6 0
784 149 218
1535 350 1031
1245 514 1945
1718 451 2873
2069 469 3413
2408 488 3778
2706 412 4057
2943 981 4095
782 153 0
732 267 191
898 423 921
1150 623 1869
1446 887 2691
1794 1099 3411
2203 1180 3820
2626 1260 3977
3008 1354 4095
698 639 0
679 724 112
836 866 834
1061 1035 1773
1330 1257 2597
1630 1504 3313
1937 1755 3863
2257 2024 4092
2774 2191 4078
266 1495 0
283 1478 6
451 1534 685
713 1641 1614
1075 1774 2479
1432 1940 3214
1773 2132 3756
2128 2350 4091
2523 2691 4094
99 2066 0
84 2113 3
118 2193 445
262 2241 1473
579 2333 2327
1061 2432 3073
1533 2559 3628
1959 2724 4044
2345 3017 4094
99 2066 0
52 2392 1
72 2714 306
84 2780 1335
198 2844 2187
554 2910 2915
1166 2977 3502
1732 3092 3962
1621 3306 4094
99 2066 0
60 3013 296
60 3013 296
43 3246 1233
82 3262 2043
297 3287 2835
678 3365 3390
1371 3446 3917
1695 3654 4095
60 3013 296
60 3013 296
120 3261 857
204 3448 1701
137 3458 2177
216 3491 2740
544 3710 3426
1077 3814 3920
1757 3870 4095
60 3013 296
120 3261 857
120 3261 857
204 3448 1701
137 3458 2177
544 3710 3426
544 3710 3426
1077 3814 3920
1077 3814 3920
1612 82 4
1110 187 257
1746 469 1618
1878 577 1980
2261 624 2862
2516 695 3442
2798 721 3778
3043 657 4056
3212 1195 4095
1647 283 11
1610 378 245
1730 526 1025
1862 717 1908
2042 968 2692
2294 1188 3403
2604 1317 3854
2925 1482 3969
3252 1546 4095
1645 822 0
1612 826 147
1689 929 926
1797 1095 1795
1956 1308 2608
2150 1549 3316
2374 1792 3855
2614 2054 4093
3044 2298 4080
1482 1536 0
1456 1523 19
1518 1579 744
1647 1678 1636
1825 1802 2500
2044 1965 3222
2270 2151 3747
2520 2372 4088
2850 2711 4094
1119 2159 0
1140 2155 3
1159 2213 535
1339 2259 1514
1551 2348 2338
1814 2445 3074
2084 2575 3619
2380 2738 4034
2720 3033 4094
1005 2377 0
941 2423 1
688 2746 346
810 2808 1320
1129 2847 2208
1480 2917 2918
1844 2985 3496
2212 3103 3954
2583 3374 4094
1125 2691 8
929 3034 26
494 3230 843
371 3239 1252
639 3269 2039
1046 3305 2825
1506 3359 3393
1972 3447 3911
2412 3664 4095
929 3034 26
929 3034 26
494 3230 843
204 3448 1701
506 3458 2090
864 3495 2783
1757 3769 3483
1637 3769 3777
2234 3852 4095
929 3034 26
494 3230 843
494 3230 843
204 3448 1701
506 3458 2090
864 3495 2783
1757 3769 3483
1637 3769 3777
1637 3769 3777
2000 224 14
2430 514 340
2489 591 1646
2656 719 2341
2817 801 2826
2983 906 3447
3198 939 3795
3409 920 4050
3524 1485 4095
2395 458 37
2430 514 340
2503 647 1046
2555 838 1928
2680 1070 2717
2836 1280 3383
3034 1440 3867
3273 1664 3970
3534 1810 4095
2390 943 0
2447 935 250
2467 1030 1025
2529 1184 1835
2618 1381 2622
2740 1594 3312
2876 1841 3832
3041 2097 4093
3378 2390 4083
2314 1508 0
2341 1584 59
2365 1637 816
2428 1723 1706
2528 1854 2529
2648 2004 3215
2786 2191 3736
2952 2408 4084
3211 2741 4094
2240 2150 0
2177 2200 7
2172 2249 646
2244 2294 1551
2354 2376 2352
2499 2468 3080
2660 2591 3617
2851 2756 4035
3112 3044 4094
2402 2750 0
2076 2765 0
1901 2776 432
1968 2821 1361
2114 2858 2224
2282 2927 2917
2471 3003 3478
2705 3121 3930
2985 3386 4094
2076 2765 0
2401 3019 73
1588 3234 886
1622 3242 1301
1800 3267 2087
2005 3301 2841
2277 3360 3394
2566 3447 3898
2866 3673 4095
2401 3019 73
2401 3019 73
1588 3234 886
1235 3490 1678
1504 3490 2109
1891 3488 2800
2096 3733 3460
2410 3798 3909
2698 3718 4091
2401 3019 73
2401 3019 73
1588 3234 886
1235 3490 1678
1504 3490 2109
2096 3733 3460
2096 3733 3460
2410 3798 3909
2667 3847 4027
3151 631 231
3549 704 840
3307 713 1267
3259 897 2102
3359 949 2830
3434 1084 3419
3566 1159 3807
3742 1211 4042
3809 1833 4095
3151 631 231
3160 701 557
3186 811 1244
3231 986 1972
3280 1190 2746
3362 1378 3368
3461 1569 3867
3627 1809 3984
3806 2141 4094
3179 1066 64
3166 1073 413
3180 1167 1110
3203 1304 1882
3242 1475 2644
3299 1670 3299
3361 1906 3809
3451 2162 4093
3723 2493 4086
3042 1605 0
3092 1664 171
3096 1722 940
3124 1788 1787
3167 1910 2556
3217 2061 3217
3290 2237 3724
3384 2455 4078
3586 2772 4094
2923 2189 0
2967 2253 43
2956 2290 780
2982 2333 1596
3025 2406 2408
3095 2505 3084
3174 2627 3613
3291 2794 4029
3478 3085 4094
2961 2444 0
2858 2733 9
2768 2809 603
2787 2848 1442
2848 2885 2254
2933 2943 2940
3042 3017 3489
3189 3135 3931
3385 3397 4094
2402 2750 0
2724 2969 169
2387 3211 236
2636 3242 1370
2685 3275 2114
2784 3308 2857
2906 3367 3402
3090 3466 3897
3319 3690 4095
2724 2969 169
2387 3211 236
2387 3211 236
2484 3454 1462
2623 3468 2076
2685 3500 2801
2879 3751 3445
2992 3832 3931
3270 3851 4095
2387 3211 236
2387 3211 236
2484 3454 1462
2484 3454 1462
2623 3468 2076
2879 3751 3445
2879 3751 3445
2992 3832 3931
3368 3877 4095
3373 717 265
3671 809 1019
3708 855 1824
3784 988 2186
3797 1069 2827
3816 1225 3426
3879 1336 3824
3990 1361 4046
4002 2180 4095
3654 916 337
3659 877 772
3706 980 1369
3763 1137 2005
3793 1312 2755
3814 1501 3377
3848 1687 3856
3918 1924 4008
3989 2432 4094
3655 1298 49
3681 1239 601
3747 1307 1249
3756 1420 1958
3766 1581 2666
3771 1770 3306
3792 1982 3792
3827 2226 4092
3969 2616 4088
3547 1750 0
3628 1747 433
3700 1799 1091
3691 1870 1849
3683 1983 2590
3691 2125 3230
3718 2299 3716
3762 2504 4070
3896 2810 4094
3469 2321 0
3502 2289 212
3564 2345 906
3564 2392 1673
3571 2452 2459
3591 2550 3101
3627 2669 3620
3677 2833 4022
3795 3114 4093
3556 2735 0
3376 2788 56
3391 2852 754
3414 2882 1525
3426 2919 2291
3455 2971 2974
3500 3055 3494
3579 3174 3930
3694 3414 4094
3556 2735 0
3356 3002 384
3295 3240 786
3297 3258 1463
3311 3293 2183
3354 3327 2872
3414 3384 3415
3540 3477 3876
3691 3692 4094
3556 2735 0
3295 3240 786
3295 3240 786
3273 3459 1450
3293 3473 2124
3619 3689 2898
3397 3560 3428
3406 3804 3876
3680 3859 4095
3295 3240 786
3295 3240 786
3273 3459 1450
3273 3459 1450
3662 3703 2224
3619 3689 2898
3649 3764 3412
3406 3804 3876
3772 3878 4085
3659 877 772
3671 809 1019
3955 1047 1793
4095 1197 2586
4078 1298 2945
4035 1404 3461
4056 1566 3867
4089 1713 4055
4089 2471 4095
3654 916 337
3987 1161 1101
3982 1089 1418
4095 1247 2051
4093 1449 2792
4091 1625 3403
4078 1803 3882
4080 2027 4054
4095 2387 4092
4070 1468 431
3968 1318 750
4095 1506 1472
4093 1542 2071
4088 1691 2719
4089 1863 3309
4091 2061 3810
4094 2279 4094
4095 2578 4095
4070 1468 431
3887 1793 606
4095 1875 1226
4088 1948 1930
4073 2062 2643
4070 2205 3257
4071 2367 3734
4089 2564 4087
4095 2825 4095
3469 2321 0
3819 2318 354
4057 2411 1075
4035 2441 1765
4013 2507 2514
4010 2610 3140
4019 2727 3651
4058 2880 4055
4095 3127 4095
3631 2851 97
3893 2900 631
3931 2881 936
3886 2929 1620
3892 2970 2334
3896 3018 3030
3924 3118 3536
3983 3230 3985
4090 3436 4095
3631 2851 97
3982 3057 683
3762 3293 937
3753 3328 1558
3767 3366 2251
3777 3402 2908
3815 3466 3458
3885 3556 3890
3988 3753 4094
3982 3057 683
3571 3276 851
3812 3486 1367
3756 3496 1580
3662 3703 2224
3807 3724 2876
3856 3772 3445
3928 3837 3899
4058 3969 4095
3571 3276 851
3762 3293 937
3812 3486 1367
3662 3703 2224
3662 3703 2224
3807 3724 2876
3856 3772 3445
3928 3837 3899
4058 3969 4095
3659 877 772
4095 1262 1503
4095 1163 2182
4095 1197 2586
4095 1446 2913
4095 1447 3732
4095 1715 3992
4095 1839 4022
4089 2471 4095
3968 1318 750
4095 1262 1503
4095 1262 1503
4095 1432 2574
4095 1493 2669
4095 1675 3425
4095 1877 3926
4095 2021 4076
4095 2387 4092
4070 1468 431
4095 1506 1472
4095 1569 1616
4095 1569 1925
4095 1778 2799
4095 1909 3319
4095 2119 3820
4095 2175 4095
4095 2578 4095
4070 1468 431
4095 2185 768
4095 1755 1659
4095 1979 2043
4095 2101 2702
4095 2239 3281
4095 2397 3794
4095 2496 3990
4095 2818 4095
3819 2318 354
4079 2409 781
4095 2185 1588
4095 2514 1780
4095 2557 2567
4095 2659 3168
4095 2764 3707
4095 3061 4095
4095 3061 4095
3631 2851 97
4095 3034 929
4095 3034 929
4095 2963 1678
4091 3011 2334
4089 3084 3037
4093 3162 3575
4095 3337 4056
4095 3410 4095
3982 3057 683
3982 3057 683
4009 3365 1370
3998 3389 1633
4095 3515 2307
4095 3604 2922
4095 3658 3637
4095 3711 3810
4095 3767 4095
3982 3057 683
3762 3293 937
4009 3365 1370
3974 3550 1647
3975 3735 2292
4095 3903 2988
4095 3888 3653
4095 3987 3984
4087 3987 4095
3762 3293 937
3812 3486 1367
3812 3486 1367
3975 3735 2292
3975 3735 2292
4095 3903 2988
4095 3888 3653
4095 3987 3984
4087 3987 4095
