Fujifilm XTrans III/Sepia.3dl
#Created by: Affinity Photo (Serif Europe Ltd.)
0 256 512 767 1023
158 0 0
575 96 0
1219 898 678
1850 1472 1262
2505 2022 1722
701 223 12
990 513 184
1565 1082 735
2195 1698 1409
2746 2248 1930
1552 1044 689
1955 1484 1126
2305 1785 1471
2705 2211 1893
3101 2588 2251
1955 1484 1126
2176 1691 1357
2842 2353 2038
3262 2753 2428
3650 3094 2728
2097 1589 1251
2418 1917 1601
3001 2492 2164
3899 3296 2935
3899 3296 2935
491 60 0
1135 647 324
1513 1129 875
2099 1676 1434
2652 2159 1847
945 473 142
1265 779 457
1838 1351 1003
2467 1963 1649
3059 2545 2210
1879 1380 1035
2085 1559 1228
2465 1958 1642
2911 2417 2099
3407 2886 2534
1879 1380 1035
2593 2071 1742
3015 2488 2151
3379 2858 2526
3783 3220 2848
2593 2071 1742
2873 2340 1998
3191 2637 2286
3641 3071 2716
3855 3261 2901
1086 602 274
1613 1121 771
2019 1508 1175
2480 2018 1732
2972 2462 2131
1595 1112 770
1785 1306 956
2256 1728 1416
2727 2234 1917
3258 2745 2406
2372 1890 1587
2492 1988 1673
2788 2294 1977
3144 2651 2334
3558 3045 2695
2759 2270 1955
3128 2592 2251
3317 2785 2447
3599 3079 2749
3936 3393 3029
3045 2526 2194
3128 2592 2251
3458 2892 2538
3902 3302 2942
4095 3528 3173
1777 1305 948
2148 1638 1310
2451 1954 1644
2852 2370 2062
3315 2799 2459
2254 1730 1418
2348 1822 1513
2647 2153 1835
3040 2545 2228
3470 2961 2621
2799 2291 1961
2905 2410 2092
3130 2636 2318
3413 2920 2602
3737 3236 2891
3090 2578 2250
3443 2926 2597
3621 3103 2775
3816 3310 2988
4052 3584 3238
3443 2926 2597
3673 3117 2772
4030 3429 3078
4095 3604 3252
4095 3771 3425
2023 1505 1170
2480 1969 1652
2788 2276 1948
3127 2615 2288
3510 2988 2646
2400 1868 1556
2669 2170 1849
2943 2436 2111
3280 2766 2439
3583 3064 2725
2902 2397 2073
3057 2544 2215
3393 2868 2536
3669 3133 2798
3922 3371 3031
3458 2928 2592
3755 3209 2872
4029 3444 3094
4095 3692 3343
4095 3778 3431
3607 3071 2735
3795 3240 2897
4081 3521 3172
4095 3799 3465
4095 3909 3624
