Fujifilm XTrans III/Sepia.3dl
#Created by: Affinity Photo (Serif Europe Ltd.)
0 64 128 192 256 320 384 448 512 575 639 703 767 831 895 959 1023
158 0 0
177 0 0
228 1 0
429 8 0
575 96 0
717 306 6
903 513 232
1083 729 476
1219 898 678
1358 1046 857
1507 1188 1006
1673 1331 1138
1850 1472 1262
2026 1611 1379
2198 1754 1497
2364 1897 1616
2505 2022 1722
180 0 0
221 3 1
286 12 3
388 7 0
578 110 0
750 319 22
911 478 170
1082 676 397
1239 881 628
1382 1052 846
1525 1196 1006
1689 1341 1145
1864 1483 1269
2042 1626 1390
2214 1770 1511
2377 1910 1628
2517 2034 1733
308 6 0
357 29 3
421 53 6
521 103 9
664 222 23
811 358 66
973 502 177
1129 672 369
1309 871 561
1484 1078 790
1636 1246 1003
1783 1395 1173
1941 1540 1315
2099 1674 1431
2252 1805 1541
2399 1932 1647
2529 2047 1745
462 39 1
501 84 7
564 128 14
657 213 27
774 325 60
939 465 144
1099 611 290
1251 771 448
1412 946 615
1578 1129 803
1762 1304 993
1940 1468 1184
2095 1631 1368
2238 1783 1516
2386 1924 1643
2505 2030 1733
2602 2115 1806
701 223 12
680 227 22
772 325 51
864 406 103
990 513 184
1129 641 316
1270 782 455
1420 932 589
1565 1082 735
1705 1239 894
1877 1390 1065
2040 1542 1238
2195 1698 1409
2341 1855 1563
2505 2024 1723
2654 2167 1857
2746 2248 1930
932 458 115
950 477 144
1023 541 215
1093 609 292
1211 723 406
1340 850 520
1472 981 639
1595 1109 761
1726 1248 897
1876 1384 1037
2035 1519 1187
2172 1653 1340
2296 1789 1491
2419 1930 1628
2576 2089 1780
2730 2236 1919
2846 2341 2014
932 458 115
1239 733 408
1257 761 443
1390 896 565
1445 953 617
1545 1054 713
1667 1182 835
1786 1304 954
1922 1418 1076
2059 1539 1205
2193 1667 1348
2314 1791 1480
2425 1915 1605
2534 2042 1730
2668 2179 1865
2800 2304 1985
2905 2394 2061
1239 733 408
1239 733 408
1581 1069 714
1390 896 565
1667 1171 823
1751 1269 920
1869 1377 1031
1997 1483 1145
2117 1594 1266
2240 1714 1398
2352 1831 1519
2453 1945 1630
2557 2060 1743
2669 2176 1859
2792 2299 1983
2906 2410 2089
2987 2474 2139
1552 1044 689
1581 1069 714
1581 1069 714
1841 1360 1001
1955 1484 1126
2012 1512 1167
2091 1579 1243
2191 1673 1350
2305 1785 1471
2405 1891 1576
2502 2001 1684
2601 2105 1787
2705 2211 1893
2812 2319 2002
2924 2431 2113
3026 2528 2206
3101 2588 2251
1239 733 408
1875 1382 1028
1955 1484 1126
1955 1484 1126
1955 1484 1126
2176 1691 1357
2275 1776 1456
2374 1874 1561
2464 1970 1656
2561 2068 1751
2662 2169 1851
2764 2270 1951
2859 2366 2048
2953 2460 2142
3054 2560 2242
3159 2659 2335
3232 2715 2373
1239 733 408
1875 1382 1028
1955 1484 1126
1955 1484 1126
2176 1691 1357
2176 1691 1357
2275 1776 1456
2502 2022 1712
2604 2126 1817
2712 2228 1916
2820 2330 2014
2916 2422 2104
3003 2508 2190
3091 2596 2278
3191 2694 2375
3297 2793 2466
3372 2850 2503
1955 1484 1126
2097 1589 1251
2097 1589 1251
2176 1691 1357
2176 1691 1357
2176 1691 1357
2502 2022 1712
2502 2022 1712
2842 2353 2038
2842 2353 2038
2946 2457 2141
3048 2554 2235
3139 2640 2320
3228 2727 2405
3322 2818 2495
3423 2909 2577
3505 2970 2616
1955 1484 1126
2097 1589 1251
2097 1589 1251
2176 1691 1357
2176 1691 1357
2502 2022 1712
2502 2022 1712
2781 2281 1959
2842 2353 2038
2842 2353 2038
3087 2571 2241
3171 2664 2340
3262 2753 2428
3360 2846 2518
3471 2947 2616
3577 3041 2698
3650 3094 2728
1955 1484 1126
2097 1589 1251
2097 1589 1251
2418 1917 1601
2176 1691 1357
2808 2272 1930
2808 2272 1930
2781 2281 1959
3001 2492 2164
3246 2714 2377
3246 2714 2377
3380 2834 2490
3377 2849 2515
3486 2947 2608
3627 3078 2735
3721 3160 2804
3780 3207 2832
2097 1589 1251
2097 1589 1251
2418 1917 1601
2418 1917 1601
2418 1917 1601
2808 2272 1930
2808 2272 1930
2781 2281 1959
3001 2492 2164
3246 2714 2377
3246 2714 2377
3380 2834 2490
3377 2849 2515
3486 2947 2608
3899 3296 2935
3899 3296 2935
3780 3207 2832
2097 1589 1251
2097 1589 1251
2418 1917 1601
2418 1917 1601
2418 1917 1601
2808 2272 1930
2808 2272 1930
3001 2492 2164
3001 2492 2164
3380 2834 2490
3246 2714 2377
3380 2834 2490
3377 2849 2515
3899 3296 2935
3899 3296 2935
3899 3296 2935
3780 3207 2832
2097 1589 1251
2097 1589 1251
2418 1917 1601
2418 1917 1601
2418 1917 1601
2808 2272 1930
2808 2272 1930
3001 2492 2164
3001 2492 2164
3380 2834 2490
3246 2714 2377
3380 2834 2490
3899 3296 2935
3899 3296 2935
3899 3296 2935
3899 3296 2935
3899 3296 2935
177 1 0
194 2 1
243 5 2
429 8 0
575 96 0
837 376 67
1018 537 202
1167 796 532
1293 955 726
1436 1106 908
1579 1243 1051
1735 1378 1178
1905 1516 1298
2078 1656 1417
2243 1794 1531
2399 1930 1645
2532 2048 1746
213 3 2
243 7 3
314 23 6
470 73 4
701 244 20
837 376 67
1018 537 202
1203 753 446
1365 961 674
1513 1138 894
1668 1294 1076
1831 1445 1227
2007 1597 1365
2191 1753 1499
2362 1903 1625
2508 2034 1737
2589 2097 1788
319 11 1
374 42 7
448 75 12
564 147 20
690 258 39
864 402 100
1054 565 238
1241 751 426
1442 960 617
1636 1177 839
1810 1358 1058
1982 1523 1254
2134 1689 1433
2297 1844 1575
2462 1994 1705
2597 2115 1810
2606 2115 1805
480 57 1
527 125 24
597 181 37
692 265 53
812 366 89
980 504 186
1157 669 351
1344 856 519
1534 1046 697
1728 1256 902
1939 1435 1095
2121 1600 1276
2290 1777 1479
2434 1947 1647
2590 2109 1805
2734 2243 1930
2650 2157 1843
692 233 11
731 288 56
804 357 87
910 448 141
1034 554 233
1168 682 365
1326 839 507
1498 1009 663
1671 1192 839
1853 1364 1015
2054 1532 1199
2225 1699 1386
2380 1860 1552
2523 2025 1709
2678 2185 1868
2840 2344 2025
2777 2275 1952
912 449 100
999 517 191
1070 583 255
1151 666 352
1253 768 448
1380 892 557
1514 1026 682
1655 1174 824
1820 1336 987
2013 1495 1158
2178 1652 1332
2333 1808 1499
2465 1959 1646
2610 2115 1797
2769 2274 1957
2917 2420 2100
2908 2398 2067
1278 786 461
1207 718 409
1352 851 519
1366 873 543
1460 970 634
1584 1095 754
1699 1220 870
1834 1345 998
1996 1479 1142
2159 1634 1311
2314 1788 1478
2441 1930 1617
2570 2074 1756
2713 2220 1903
2859 2365 2047
3004 2506 2185
2970 2453 2113
1552 1044 689
1581 1069 714
1581 1069 714
1632 1130 778
1696 1207 860
1776 1294 945
1903 1404 1061
2040 1519 1184
2174 1646 1325
2313 1786 1476
2438 1927 1614
2560 2064 1746
2691 2196 1878
2831 2338 2020
2969 2475 2157
3105 2607 2286
3039 2518 2175
1552 1044 689
1581 1069 714
1581 1069 714
1841 1360 1001
1934 1444 1094
2021 1516 1175
2110 1592 1261
2223 1700 1383
2341 1817 1505
2455 1943 1627
2569 2070 1751
2696 2200 1881
2822 2327 2008
2945 2452 2134
3073 2579 2261
3208 2709 2386
3149 2628 2283
1552 1044 689
1875 1382 1028
1875 1382 1028
1841 1360 1001
2148 1643 1309
2193 1697 1367
2304 1797 1481
2388 1883 1570
2488 1989 1672
2601 2103 1783
2719 2220 1900
2838 2342 2023
2950 2455 2136
3063 2569 2251
3185 2691 2373
3314 2815 2491
3275 2752 2403
1552 1044 689
2097 1589 1251
2097 1589 1251
2096 1588 1246
2193 1697 1367
2193 1697 1367
2418 1917 1601
2529 2046 1734
2626 2142 1829
2747 2256 1940
2860 2365 2045
2968 2470 2150
3070 2573 2254
3175 2680 2361
3292 2796 2476
3419 2916 2590
3409 2881 2527
1552 1044 689
2097 1589 1251
2097 1589 1251
2096 1588 1246
2418 1917 1601
2418 1917 1601
2418 1917 1601
2781 2281 1959
2781 2281 1959
2873 2381 2064
2975 2481 2163
3083 2584 2264
3187 2684 2361
3291 2787 2463
3395 2890 2567
3517 3004 2673
3543 3004 2644
1552 1044 689
2097 1589 1251
2097 1589 1251
2096 1588 1246
2418 1917 1601
2418 1917 1601
2808 2272 1930
2781 2281 1959
3001 2492 2164
3001 2492 2164
3110 2592 2261
3192 2684 2359
3282 2771 2445
3396 2877 2546
3524 2993 2658
3653 3108 2762
3686 3127 2756
1552 1044 689
2097 1589 1251
2097 1589 1251
2096 1588 1246
2418 1917 1601
2808 2272 1930
2808 2272 1930
3001 2492 2164
3001 2492 2164
3246 2714 2377
3246 2714 2377
3330 2802 2467
3411 2882 2548
3507 2967 2627
3652 3098 2754
3744 3185 2831
3833 3255 2877
2097 1589 1251
2097 1589 1251
2097 1589 1251
2418 1917 1601
2418 1917 1601
2808 2272 1930
2808 2272 1930
3001 2492 2164
3001 2492 2164
3246 2714 2377
3246 2714 2377
3330 2802 2467
3411 2882 2548
3507 2967 2627
3652 3098 2754
3744 3185 2831
3833 3255 2877
2097 1589 1251
2097 1589 1251
2097 1589 1251
2418 1917 1601
2418 1917 1601
2808 2272 1930
2808 2272 1930
3001 2492 2164
3001 2492 2164
3330 2802 2467
3246 2714 2377
3330 2802 2467
3411 2882 2548
3899 3296 2935
3899 3296 2935
3899 3296 2935
3833 3255 2877
2097 1589 1251
2097 1589 1251
2418 1917 1601
2418 1917 1601
2418 1917 1601
2808 2272 1930
2808 2272 1930
3001 2492 2164
3001 2492 2164
3330 2802 2467
3246 2714 2377
3330 2802 2467
3411 2882 2548
3899 3296 2935
3899 3296 2935
3899 3296 2935
3833 3255 2877
256 2 0
249 7 5
243 5 2
549 113 5
713 267 26
875 409 87
1088 598 267
1241 864 594
1340 993 759
1484 1145 942
1623 1277 1080
1781 1414 1208
1947 1550 1327
2115 1687 1443
2272 1820 1554
2424 1952 1665
2552 2067 1763
280 9 2
321 25 6
404 46 4
549 113 5
713 267 26
875 409 87
1088 598 267
1256 795 480
1412 996 699
1563 1174 920
1716 1326 1098
1873 1475 1250
2051 1632 1394
2232 1789 1529
2395 1934 1651
2536 2059 1759
2623 2131 1819
415 53 6
455 71 6
516 109 11
623 198 25
757 317 62
930 458 145
1106 616 294
1289 799 469
1483 999 653
1674 1214 873
1860 1394 1088
2011 1546 1275
2165 1711 1448
2330 1873 1600
2491 2021 1729
2622 2138 1832
2659 2160 1844
573 130 5
583 161 18
639 220 37
736 304 66
871 417 122
1038 557 242
1206 718 399
1392 905 563
1575 1089 740
1760 1285 933
1968 1456 1119
2150 1627 1307
2313 1797 1496
2455 1967 1665
2610 2127 1822
2753 2261 1947
2704 2205 1887
753 308 43
779 334 77
840 391 116
944 479 178
1074 594 281
1215 730 412
1376 889 552
1541 1053 705
1707 1232 878
1897 1397 1052
2087 1564 1233
2249 1722 1411
2401 1883 1574
2535 2039 1723
2699 2206 1889
2860 2364 2045
2809 2303 1977
1013 538 206
1067 579 257
1089 602 288
1182 696 380
1288 804 479
1415 928 589
1553 1065 720
1696 1219 867
1862 1372 1024
2042 1521 1186
2208 1682 1365
2354 1830 1521
2485 1983 1669
2628 2133 1816
2784 2290 1972
2932 2435 2114
2951 2438 2103
1278 786 461
1357 858 519
1362 869 533
1422 930 589
1503 1014 673
1612 1127 781
1729 1250 900
1877 1380 1036
2035 1514 1179
2191 1665 1346
2334 1809 1499
2462 1955 1640
2588 2093 1775
2733 2239 1921
2877 2383 2065
3021 2523 2202
3029 2508 2165
1552 1044 689
1564 1060 707
1625 1126 774
1670 1176 825
1717 1232 885
1814 1327 980
1938 1429 1089
2071 1547 1215
2208 1680 1363
2342 1818 1508
2460 1951 1637
2581 2085 1767
2714 2220 1902
2846 2352 2034
2983 2489 2171
3119 2622 2300
3092 2566 2217
1552 1044 689
1875 1382 1028
1875 1382 1028
1886 1403 1048
1962 1460 1116
2040 1524 1188
2141 1618 1292
2254 1727 1413
2368 1845 1533
2478 1970 1654
2592 2095 1776
2719 2223 1905
2843 2348 2030
2965 2471 2153
3092 2598 2280
3222 2723 2400
3191 2664 2313
1552 1044 689
1875 1382 1028
1875 1382 1028
2096 1588 1246
2148 1643 1309
2228 1721 1398
2324 1813 1497
2414 1904 1589
2513 2011 1692
2625 2126 1805
2744 2246 1925
2856 2360 2040
2971 2476 2158
3077 2584 2266
3198 2705 2387
3327 2828 2504
3311 2784 2430
1552 1044 689
2097 1589 1251
2097 1589 1251
2096 1588 1246
2148 1643 1309
2386 1890 1575
2468 1972 1657
2557 2069 1753
2661 2171 1854
2772 2277 1959
2886 2388 2067
2987 2489 2169
3087 2590 2271
3191 2696 2377
3309 2812 2493
3431 2929 2603
3433 2902 2545
1552 1044 689
2097 1589 1251
2097 1589 1251
2299 1779 1461
2148 1643 1309
2386 1890 1575
2468 1972 1657
2725 2186 1849
2805 2310 1991
2899 2403 2084
3000 2503 2183
3104 2603 2281
3204 2701 2378
3304 2800 2477
3413 2907 2584
3531 3017 2686
3567 3028 2665
1552 1044 689
2097 1589 1251
2097 1589 1251
2299 1779 1461
2808 2272 1930
2808 2272 1930
2808 2272 1930
2862 2314 1965
2805 2310 1991
3030 2506 2170
3126 2611 2282
3213 2703 2377
3303 2790 2462
3418 2896 2564
3540 3010 2675
3665 3121 2776
3710 3144 2768
1552 1044 689
2097 1589 1251
2097 1589 1251
2299 1779 1461
2418 1917 1601
2808 2272 1930
2808 2272 1930
2862 2314 1965
2977 2450 2112
3030 2506 2170
3255 2724 2387
3350 2815 2478
3431 2898 2561
3532 2993 2654
3668 3113 2769
3771 3209 2853
3861 3277 2896
1875 1382 1028
2097 1589 1251
2097 1589 1251
2299 1779 1461
2354 1824 1506
2808 2272 1930
2808 2272 1930
2862 2314 1965
2977 2450 2112
3255 2724 2387
3255 2724 2387
3350 2815 2478
3431 2898 2561
3668 3109 2762
3668 3113 2769
3771 3209 2853
3861 3277 2896
1875 1382 1028
2097 1589 1251
2097 1589 1251
2299 1779 1461
2354 1824 1506
2808 2272 1930
2808 2272 1930
2862 2314 1965
2977 2450 2112
3255 2724 2387
3255 2724 2387
3350 2815 2478
3668 3109 2762
3668 3109 2762
3751 3186 2838
3751 3186 2838
3861 3277 2896
1875 1382 1028
2097 1589 1251
2097 1589 1251
2299 1779 1461
2354 1824 1506
2808 2272 1930
2808 2272 1930
2862 2314 1965
2977 2450 2112
3255 2724 2387
3255 2724 2387
3350 2815 2478
3668 3109 2762
3668 3109 2762
3751 3186 2838
3751 3186 2838
3861 3277 2896
352 15 0
420 60 8
525 113 16
609 166 12
810 355 65
957 479 135
1323 947 681
1323 947 681
1413 1051 810
1557 1199 985
1694 1331 1124
1851 1469 1254
2020 1609 1377
2176 1740 1488
2328 1870 1596
2472 1997 1703
2594 2105 1797
395 33 0
420 60 8
525 113 16
609 166 12
810 355 65
957 479 135
1146 654 329
1327 854 526
1487 1058 750
1639 1228 959
1792 1380 1138
1945 1529 1292
2114 1684 1437
2287 1838 1571
2443 1977 1690
2580 2099 1796
