Fujifilm XTrans III/Sepia.3dl
#Created by: Affinity Photo (Serif Europe Ltd.)
0 128 256 384 512 639 767 895 1023
158 0 0
228 1 0
575 96 0
903 513 232
1219 898 678
1507 1188 1006
1850 1472 1262
2198 1754 1497
2505 2022 1722
308 6 0
421 53 6
664 222 23
973 502 177
1309 871 561
1636 1246 1003
1941 1540 1315
2252 1805 1541
2529 2047 1745
701 223 12
772 325 51
990 513 184
1270 782 455
1565 1082 735
1877 1390 1065
2195 1698 1409
2505 2024 1723
2746 2248 1930
932 458 115
1257 761 443
1445 953 617
1667 1182 835
1922 1418 1076
2193 1667 1348
2425 1915 1605
2668 2179 1865
2905 2394 2061
1552 1044 689
1581 1069 714
1955 1484 1126
2091 1579 1243
2305 1785 1471
2502 2001 1684
2705 2211 1893
2924 2431 2113
3101 2588 2251
1239 733 408
1955 1484 1126
2176 1691 1357
2275 1776 1456
2604 2126 1817
2820 2330 2014
3003 2508 2190
3191 2694 2375
3372 2850 2503
1955 1484 1126
2097 1589 1251
2176 1691 1357
2502 2022 1712
2842 2353 2038
3087 2571 2241
3262 2753 2428
3471 2947 2616
3650 3094 2728
2097 1589 1251
2418 1917 1601
2418 1917 1601
2808 2272 1930
3001 2492 2164
3246 2714 2377
3377 2849 2515
3899 3296 2935
3780 3207 2832
2097 1589 1251
2418 1917 1601
2418 1917 1601
2808 2272 1930
3001 2492 2164
3246 2714 2377
3899 3296 2935
3899 3296 2935
3899 3296 2935
256 2 0
243 5 2
713 267 26
1088 598 267
1340 993 759
1623 1277 1080
1947 1550 1327
2272 1820 1554
2552 2067 1763
415 53 6
516 109 11
757 317 62
1106 616 294
1483 999 653
1860 1394 1088
2165 1711 1448
2491 2021 1729
2659 2160 1844
753 308 43
840 391 116
1074 594 281
1376 889 552
1707 1232 878
2087 1564 1233
2401 1883 1574
2699 2206 1889
2809 2303 1977
1278 786 461
1362 869 533
1503 1014 673
1729 1250 900
2035 1514 1179
2334 1809 1499
2588 2093 1775
2877 2383 2065
3029 2508 2165
1552 1044 689
1875 1382 1028
1962 1460 1116
2141 1618 1292
2368 1845 1533
2592 2095 1776
2843 2348 2030
3092 2598 2280
3191 2664 2313
1552 1044 689
2097 1589 1251
2148 1643 1309
2468 1972 1657
2661 2171 1854
2886 2388 2067
3087 2590 2271
3309 2812 2493
3433 2902 2545
1552 1044 689
2097 1589 1251
2808 2272 1930
2808 2272 1930
2805 2310 1991
3126 2611 2282
3303 2790 2462
3540 3010 2675
3710 3144 2768
1875 1382 1028
2097 1589 1251
2354 1824 1506
2808 2272 1930
2977 2450 2112
3255 2724 2387
3431 2898 2561
3668 3113 2769
3861 3277 2896
1875 1382 1028
2097 1589 1251
2354 1824 1506
2808 2272 1930
2977 2450 2112
3255 2724 2387
3668 3109 2762
3751 3186 2838
3861 3277 2896
491 60 0
680 239 36
1135 647 324
1263 774 444
1513 1129 875
1788 1401 1181
2099 1676 1434
2401 1936 1653
2652 2159 1847
641 183 4
739 304 58
995 516 196
1300 812 480
1633 1151 799
2002 1496 1176
2280 1805 1526
2592 2115 1815
2771 2267 1944
945 473 142
1055 573 259
1265 779 457
1536 1050 704
1838 1351 1003
2185 1659 1339
2467 1963 1649
2763 2270 1953
3059 2545 2210
1460 972 633
1520 1032 688
1658 1178 831
1891 1393 1050
2161 1636 1313
2416 1902 1590
2663 2169 1851
2935 2442 2125
3240 2719 2373
1879 1380 1035
1934 1425 1081
2085 1559 1228
2265 1736 1422
2465 1958 1642
2680 2185 1866
2911 2417 2099
3146 2653 2335
3407 2886 2534
1879 1380 1035
2134 1610 1280
2427 1909 1592
2576 2072 1750
2764 2261 1938
2961 2464 2143
3150 2654 2335
3363 2866 2547
3546 3013 2648
1879 1380 1035
2593 2071 1742
2593 2071 1742
2861 2335 1997
3015 2488 2151
3194 2675 2343
3379 2858 2526
3591 3060 2726
3783 3220 2848
2593 2071 1742
2593 2071 1742
2873 2340 1998
3154 2615 2270
3191 2637 2286
3312 2771 2428
3641 3071 2716
3855 3261 2901
3923 3333 2949
2593 2071 1742
2873 2340 1998
2873 2340 1998
3154 2615 2270
3191 2637 2286
3641 3071 2716
3641 3071 2716
3855 3261 2901
3855 3261 2901
864 407 65
810 358 66
1332 840 508
1476 981 632
1755 1307 1006
2019 1578 1325
2283 1837 1572
2569 2092 1793
2795 2293 1972
996 517 175
1080 592 274
1289 802 474
1541 1052 703
1830 1348 996
2174 1651 1334
2433 1944 1643
2733 2249 1942
2905 2393 2062
1293 811 489
1351 864 530
1518 1031 687
1741 1266 914
2040 1519 1185
2328 1802 1493
2577 2082 1766
2860 2366 2049
3151 2637 2300
1758 1273 922
1763 1284 934
1900 1401 1059
2105 1582 1255
2325 1801 1491
2539 2042 1725
2780 2287 1969
3029 2536 2218
3312 2793 2446
2157 1650 1324
2180 1659 1338
2292 1765 1454
2433 1920 1606
2608 2112 1794
2813 2319 2000
3016 2523 2205
3235 2742 2424
3476 2958 2607
2301 1792 1481
2342 1827 1516
2588 2084 1762
2742 2237 1913
2905 2406 2085
3079 2584 2265
3248 2753 2435
3448 2952 2633
3657 3143 2790
2543 2050 1733
2807 2289 1958
2957 2428 2090
2997 2463 2122
3153 2615 2273
3318 2788 2451
3478 2957 2627
3677 3146 2813
3854 3304 2938
2807 2289 1958
2807 2289 1958
2957 2428 2090
3154 2615 2270
3274 2719 2366
3442 2888 2541
3888 3278 2913
3890 3300 2944
3990 3399 3017
2807 2289 1958
2957 2428 2090
2957 2428 2090
3154 2615 2270
3274 2719 2366
3442 2888 2541
3888 3278 2913
3890 3300 2944
3890 3300 2944
1086 602 274
1399 908 564
1613 1121 771
1800 1329 972
2019 1508 1175
2263 1779 1493
2480 2018 1732
2758 2271 1961
2972 2462 2131
1315 833 505
1399 908 564
1575 1087 738
1793 1316 963
2091 1568 1237
2358 1835 1527
2598 2106 1791
2874 2388 2077
3064 2547 2209
1595 1112 770
1640 1159 809
1785 1306 956
2014 1494 1159
2256 1728 1416
2480 1976 1661
2727 2234 1917
2982 2489 2173
3258 2745 2406
1989 1484 1148
2046 1525 1192
2157 1633 1311
2320 1796 1486
2499 2000 1685
2702 2209 1892
2922 2429 2111
3146 2653 2335
3403 2887 2540
2372 1890 1587
2404 1897 1586
2492 1988 1673
2618 2122 1804
2788 2294 1977
2965 2471 2154
3144 2651 2334
3344 2852 2534
3558 3045 2695
2798 2324 2017
2759 2270 1955
2805 2305 1983
2928 2427 2104
3065 2567 2247
3218 2723 2404
3370 2875 2557
3550 3055 2737
3736 3231 2880
2759 2270 1955
3045 2526 2194
3128 2592 2251
3186 2652 2312
3317 2785 2447
3457 2927 2592
3599 3079 2749
3769 3240 2909
3936 3393 3029
3045 2526 2194
3045 2526 2194
3128 2592 2251
3358 2801 2448
3458 2892 2538
3596 3034 2684
3902 3302 2942
4052 3443 3082
4002 3433 3076
3045 2526 2194
3045 2526 2194
3128 2592 2251
3358 2801 2448
3458 2892 2538
3902 3302 2942
3902 3302 2942
4052 3443 3082
4095 3528 3173
1661 1176 822
1876 1390 1040
1867 1384 1033
2069 1550 1216
2269 1755 1445
2466 1977 1669
2672 2199 1900
2949 2458 2146
3155 2640 2303
1661 1176 822
1728 1251 896
1884 1392 1045
2099 1579 1248
2325 1804 1495
2525 2030 1715
2776 2283 1966
3020 2529 2215
3236 2717 2376
1933 1430 1087
1957 1445 1104
2098 1573 1243
2274 1747 1437
2456 1949 1635
2658 2163 1844
2890 2396 2079
3118 2626 2310
3367 2855 2515
2259 1741 1428
2303 1777 1467
2397 1882 1570
2518 2022 1706
2687 2196 1880
2877 2385 2069
3065 2573 2256
3272 2781 2464
3499 2989 2646
2570 2090 1779
2618 2130 1816
2707 2212 1894
2823 2328 2009
2965 2471 2154
3122 2629 2312
3280 2787 2469
3463 2972 2654
3653 3147 2800
2735 2272 1970
2919 2434 2122
3009 2511 2191
3112 2615 2295
3231 2736 2417
3363 2870 2553
3496 3004 2687
3659 3166 2848
3822 3329 2986
2798 2324 2017
3087 2578 2251
3198 2666 2328
3370 2841 2506
3485 2953 2617
3604 3075 2742
3721 3201 2874
3877 3347 3017
4022 3500 3142
3087 2578 2251
3198 2666 2328
3198 2666 2328
3491 2954 2614
3617 3067 2724
3749 3179 2829
4059 3443 3083
4095 3571 3201
4093 3588 3214
3198 2666 2328
3198 2666 2328
3491 2954 2614
3491 2954 2614
3617 3067 2724
4059 3443 3083
4059 3443 3083
4095 3571 3201
4095 3666 3303
1777 1305 948
2021 1505 1169
2148 1638 1310
2290 1779 1470
2451 1954 1644
2648 2163 1851
2852 2370 2062
3092 2600 2287
3315 2799 2459
1999 1478 1140
2023 1505 1170
2158 1637 1313
2336 1819 1510
2509 2015 1700
2717 2226 1910
2936 2443 2126
3150 2657 2340
3382 2867 2525
2254 1730 1418
2227 1698 1384
2348 1822 1513
2477 1972 1657
2647 2153 1835
2847 2354 2036
3040 2545 2228
3247 2753 2435
3470 2961 2621
2469 1978 1665
2494 1991 1675
2598 2102 1784
2722 2228 1910
2876 2382 2065
3037 2544 2227
3208 2715 2398
3394 2901 2583
3588 3082 2741
2799 2291 1961
2799 2308 1992
2905 2410 2092
3007 2513 2195
3130 2636 2318
3268 2776 2459
3413 2920 2602
3577 3083 2765
3737 3236 2891
3090 2578 2250
3091 2597 2279
3188 2692 2373
3280 2786 2468
3385 2891 2573
3498 3007 2690
3622 3131 2814
3760 3268 2950
3895 3410 3069
3090 2578 2250
3257 2759 2440
3443 2926 2597
3523 3006 2678
3621 3103 2775
3722 3207 2881
3816 3310 2988
3966 3450 3126
4052 3584 3238
3090 2578 2250
3443 2926 2597
3443 2926 2597
3673 3117 2772
3768 3211 2867
4079 3493 3153
3984 3420 3081
4095 3637 3283
4095 3706 3343
3443 2926 2597
3443 2926 2597
3673 3117 2772
3673 3117 2772
4030 3429 3078
4079 3493 3153
4095 3604 3252
4095 3637 3283
4095 3771 3425
2023 1505 1170
2021 1505 1169
2299 1790 1482
2556 2054 1735
2657 2163 1845
2825 2330 2012
3006 2508 2189
3215 2712 2392
3510 2988 2646
1999 1478 1140
2299 1767 1458
2290 1762 1453
2491 1980 1663
2695 2198 1879
2886 2389 2070
3082 2582 2262
3287 2780 2457
3515 2997 2660
2400 1868 1556
2349 1818 1508
2579 2076 1757
2664 2161 1840
2833 2333 2012
3006 2506 2185
3188 2685 2362
3377 2870 2546
3583 3064 2725
2400 1868 1556
2591 2093 1773
2776 2266 1940
2899 2392 2067
3041 2539 2218
3196 2694 2373
3357 2851 2528
3538 3024 2697
3737 3198 2848
2799 2291 1961
2902 2397 2073
3085 2571 2242
3171 2660 2334
3287 2779 2454
3422 2918 2597
3561 3052 2728
3721 3199 2871
3885 3354 3000
3202 2690 2361
3330 2811 2480
3356 2834 2503
3446 2928 2599
3547 3031 2704
3658 3143 2817
3777 3260 2934
3923 3389 3059
4059 3527 3171
3202 2690 2361
3458 2928 2592
3607 3071 2735
3687 3158 2826
3780 3252 2922
3867 3345 3017
3981 3457 3130
4080 3579 3253
4094 3707 3356
3458 2928 2592
3540 3013 2682
3795 3240 2897
3812 3260 2921
4030 3429 3078
4094 3553 3206
4095 3663 3326
4095 3777 3434
4095 3882 3590
3540 3013 2682
3607 3071 2735
3795 3240 2897
4030 3429 3078
4030 3429 3078
4094 3553 3206
4095 3663 3326
4095 3777 3434
4095 3882 3590
2023 1505 1170
2444 1927 1613
2480 1969 1652
2556 2054 1735
2788 2276 1948
2979 2470 2145
3127 2615 2288
3214 2706 2381
3510 2988 2646
2349 1818 1508
2444 1927 1613
2444 1927 1613
2699 2198 1876
2763 2257 1933
2972 2466 2141
3181 2666 2338
3258 2751 2428
3515 2997 2660
2400 1868 1556
2579 2076 1757
2669 2170 1849
2715 2210 1887
2943 2436 2111
3096 2584 2257
3280 2766 2439
3385 2865 2535
3583 3064 2725
2400 1868 1556
2916 2404 2076
2823 2307 1977
2987 2468 2137
3134 2620 2292
3287 2770 2441
3443 2922 2592
3534 3005 2672
3837 3259 2903
2902 2397 2073
3055 2539 2210
3057 2544 2215
3273 2754 2423
3393 2868 2536
3523 3001 2672
3669 3133 2798
3922 3371 3031
3922 3371 3031
3202 2690 2361
3532 2985 2642
3532 2985 2642
3548 3009 2670
3647 3107 2770
3767 3227 2892
3885 3338 3003
4086 3519 3177
4095 3582 3230
3458 2928 2592
3458 2928 2592
3755 3209 2872
3804 3248 2906
4029 3444 3094
4095 3567 3213
4095 3692 3343
4095 3741 3403
4095 3778 3431
3458 2928 2592
3607 3071 2735
3755 3209 2872
3900 3338 2996
4081 3521 3172
4095 3713 3343
4095 3799 3465
4095 3910 3598
4095 3909 3624
3607 3071 2735
3795 3240 2897
3795 3240 2897
4081 3521 3172
4081 3521 3172
4095 3713 3343
4095 3799 3465
4095 3910 3598
4095 3909 3624
