Fujifilm XTrans III/Velvia.3dl
#Created by: Affinity Photo (Serif Europe Ltd.)
0 256 512 767 1023
0 0 0
0 0 1200
306 76 3315
1545 0 3912
2454 897 4095
0 679 0
0 767 799
24 1034 2995
212 1305 4016
1735 1431 4094
0 1972 0
0 2389 118
0 2344 2457
116 2412 3881
946 2652 4095
0 2389 118
0 2568 1106
0 3031 2567
0 3332 3530
396 3623 4095
15 2566 0
0 2768 1495
0 3311 2406
0 4044 4095
0 4044 4095
671 0 0
1618 154 1096
1732 8 3312
2320 2 3879
2789 1046 4095
629 604 0
763 797 755
1375 1088 3080
2030 1557 4093
2758 1888 4079
52 2283 0
54 2353 87
389 2356 2367
1561 2447 3938
2353 2794 4094
52 2283 0
47 3118 52
44 3325 1896
402 3378 3453
1566 3676 4095
47 3118 52
83 3367 553
45 3587 1961
60 3880 3419
476 3996 4095
2197 51 0
2689 250 1947
2900 381 3251
3235 314 3861
3462 1467 4095
2580 926 0
2665 914 850
2701 1213 2966
2884 1639 4093
3392 2088 4082
2267 2255 0
2183 2331 165
2335 2355 2331
2621 2457 3903
3118 2806 4094
2039 2838 0
1378 3296 528
1603 3297 1877
2066 3351 3448
2677 3694 4094
2332 3068 2
1378 3296 528
1150 3610 1827
1677 3900 3440
2283 3989 4095
3614 567 0
3861 557 1982
3875 747 3090
3927 785 3890
3997 2118 4095
3800 1309 0
3922 1224 976
3874 1445 2835
3914 1770 4088
4045 2365 4088
3571 2381 0
3634 2375 351
3618 2390 2360
3710 2504 3843
3999 2872 4094
3661 2765 0
3278 3277 175
3284 3299 1875
3419 3357 3420
3818 3681 4094
3278 3277 175
3202 3552 1026
3750 3894 1712
3695 3898 3268
3862 3981 4095
3908 723 319
4095 953 2323
4095 1250 3071
4095 1299 3990
4089 2145 4095
4095 1472 0
4095 1507 1387
4095 1647 2861
4095 1897 4091
4095 2236 4095
3980 2362 0
4095 2156 1272
4095 2456 2399
4095 2562 3977
4095 2788 4095
4095 3038 34
4095 3395 859
4095 3571 1796
4095 3691 3642
4095 3800 4095
3957 3322 326
4023 3588 811
4088 3918 1720
4095 4018 3589
4095 4079 4095
