Fujifilm XTrans III/Velvia.3dl
#Created by: Affinity Photo (Serif Europe Ltd.)
0 64 128 192 256 320 384 448 512 575 639 703 767 831 895 959 1023
0 0 0
0 0 4
0 0 20
0 0 645
0 0 1200
0 75 1878
0 152 2567
23 145 3062
306 76 3315
698 5 3448
1028 0 3571
1306 0 3731
1545 0 3912
1754 0 4049
1994 236 4094
2252 672 4095
2454 897 4095
0 0 0
0 1 12
0 3 62
0 0 452
0 31 1105
0 186 1823
2 254 2445
20 260 2994
164 203 3332
612 93 3476
977 25 3572
1284 5 3722
1521 0 3901
1736 0 4048
1993 236 4094
2260 682 4095
2468 908 4095
0 15 0
0 47 7
0 60 116
0 118 373
0 186 938
0 278 1583
4 359 2245
25 427 2849
70 480 3326
235 483 3625
648 420 3700
1045 319 3745
1369 190 3864
1624 95 4011
1902 220 4090
2207 665 4095
2441 904 4095
0 189 0
0 226 0
0 261 109
0 360 375
0 410 889
0 466 1526
0 558 2159
13 652 2698
52 735 3171
95 820 3560
161 883 3841
388 913 3929
819 901 3917
1228 820 3944
1556 680 4037
1893 791 4091
2203 975 4095
0 679 0
0 544 0
0 647 56
0 680 308
0 767 799
0 818 1444
0 883 2048
0 962 2564
24 1034 2995
70 1104 3374
108 1176 3706
148 1246 3925
212 1305 4016
451 1358 4036
900 1388 4038
1355 1383 4078
1735 1431 4094
0 1019 0
0 991 1
0 1055 3
0 1051 212
0 1154 672
0 1230 1285
0 1266 1920
0 1310 2434
2 1365 2862
36 1418 3234
100 1470 3582
134 1528 3843
172 1582 3991
228 1644 4057
353 1724 4087
698 1819 4094
1065 1899 4095
0 1019 0
0 1492 0
0 1495 3
0 1647 20
0 1589 545
0 1618 1164
0 1657 1765
0 1686 2275
0 1713 2710
4 1743 3104
59 1778 3466
124 1820 3763
157 1869 3957
204 1922 4048
328 1997 4090
692 2104 4094
924 2197 4095
0 1492 0
0 1492 0
5 2017 0
0 1647 20
0 1967 386
0 1968 1089
0 2000 1649
0 2024 2143
0 2044 2564
0 2063 2966
14 2084 3341
88 2112 3676
152 2151 3926
201 2196 4031
282 2260 4083
673 2348 4094
972 2434 4095
0 1972 0
5 2017 0
5 2017 0
0 2329 0
0 2389 118
0 2332 1024
0 2307 1579
0 2314 2062
0 2344 2457
0 2356 2835
1 2366 3207
30 2382 3568
116 2412 3881
194 2452 4027
271 2506 4077
593 2579 4094
946 2652 4095
0 1492 0
22 2404 1
0 2389 118
0 2389 118
0 2389 118
0 2568 1106
0 2572 1527
0 2584 1986
0 2592 2384
0 2615 2726
0 2626 3081
5 2636 3455
59 2657 3810
164 2690 4023
266 2739 4076
534 2810 4094
900 2874 4095
0 1492 0
22 2404 1
0 2389 118
0 2389 118
0 2568 1106
0 2568 1106
0 2572 1527
0 2760 2001
0 2807 2322
0 2828 2661
0 2859 2979
1 2873 3342
19 2888 3720
95 2916 4014
226 2968 4077
474 3036 4094
860 3098 4095
0 2389 118
15 2566 0
15 2566 0
0 2568 1106
0 2568 1106
0 2568 1106
0 2760 2001
0 2760 2001
0 3031 2567
0 3031 2567
0 3048 2926
0 3088 3248
4 3109 3619
43 3134 3994
148 3182 4087
333 3254 4094
756 3327 4094
0 2389 118
15 2566 0
15 2566 0
0 2568 1106
0 2568 1106
0 2760 2001
0 2760 2001
9 3046 2227
0 3031 2567
0 3031 2567
0 3318 2795
0 3309 3192
0 3332 3530
17 3363 3944
63 3419 4094
187 3516 4094
396 3623 4095
0 2389 118
15 2566 0
15 2566 0
0 2768 1495
0 2568 1106
20 3325 1120
20 3325 1120
9 3046 2227
0 3311 2406
0 3613 2757
0 3613 2757
0 3748 3086
0 3601 3456
0 3641 3853
30 3706 4092
101 3789 4095
144 3914 4095
15 2566 0
15 2566 0
0 2768 1495
0 2768 1495
0 2768 1495
20 3325 1120
20 3325 1120
9 3046 2227
0 3311 2406
0 3613 2757
0 3613 2757
0 3748 3086
0 3601 3456
0 3641 3853
0 4044 4095
0 4044 4095
144 3914 4095
15 2566 0
15 2566 0
0 2768 1495
0 2768 1495
0 2768 1495
20 3325 1120
20 3325 1120
0 3311 2406
0 3311 2406
0 3748 3086
0 3613 2757
0 3748 3086
0 3601 3456
0 4044 4095
0 4044 4095
0 4044 4095
144 3914 4095
15 2566 0
15 2566 0
0 2768 1495
0 2768 1495
0 2768 1495
20 3325 1120
20 3325 1120
0 3311 2406
0 3311 2406
0 3748 3086
0 3613 2757
0 3748 3086
0 4044 4095
0 4044 4095
0 4044 4095
0 4044 4095
0 4044 4095
0 0 0
0 0 7
0 0 26
0 0 645
0 0 1200
169 136 1768
316 195 2407
627 73 3080
845 14 3303
1107 0 3431
1346 0 3558
1555 0 3717
1750 0 3900
1929 0 4048
2121 236 4093
2338 693 4095
2515 922 4095
3 0 0
2 3 12
4 11 45
21 39 280
94 105 1173
169 136 1768
316 195 2407
588 245 3036
848 234 3390
1105 179 3529
1382 125 3593
1641 79 3698
1894 27 3851
2119 3 4016
2325 201 4091
2532 705 4095
2564 985 4095
0 13 0
12 40 12
12 71 98
16 128 353
40 186 839
109 242 1544
258 314 2243
495 408 2878
767 515 3403
1018 618 3741
1253 631 3844
1492 651 3815
1766 631 3821
2009 550 3918
2236 433 4057
2450 732 4095
2576 996 4095
0 208 0
6 202 4
8 234 115
9 313 355
16 366 844
40 439 1496
132 531 2180
355 639 2780
642 753 3280
922 900 3672
1166 1041 3991
1380 1138 4079
1611 1198 4018
1852 1234 3974
2103 1213 3972
2328 1201 4051
2444 1044 4095
3 649 0
6 555 0
5 579 65
6 661 299
3 729 790
4 798 1417
17 880 2070
124 970 2652
460 1068 3116
791 1177 3485
1062 1295 3837
1286 1408 4066
1507 1509 4091
1710 1614 4090
1930 1704 4080
2148 1769 4048
2035 1416 4094
5 1037 0
2 1011 1
2 1068 5
1 1101 164
1 1176 601
0 1222 1288
0 1284 1900
13 1338 2459
163 1414 2924
554 1497 3319
923 1575 3664
1192 1658 3997
1406 1734 4088
1617 1822 4090
1828 1919 4092
2025 2021 4093
1432 1913 4094
10 1542 0
3 1413 0
4 1635 0
0 1525 33
1 1590 416
1 1641 1121
0 1668 1746
0 1711 2245
16 1748 2715
229 1801 3141
683 1860 3516
1061 1917 3863
1312 1981 4082
1550 2039 4092
1753 2113 4093
1947 2209 4093
1089 2234 4095
0 1972 0
5 2017 0
5 2017 0
1 1989 11
2 1976 360
2 1977 1033
0 2005 1619
0 2043 2095
0 2073 2536
35 2097 2966
363 2131 3356
832 2171 3725
1173 2216 4038
1457 2261 4092
1689 2323 4092
1894 2406 4094
1157 2473 4095
0 1972 0
5 2017 0
5 2017 0
0 2329 0
5 2321 225
3 2319 952
2 2307 1531
0 2324 2016
0 2357 2413
4 2379 2807
101 2388 3201
495 2416 3574
968 2442 3958
1322 2476 4092
1588 2527 4094
1821 2603 4093
1145 2685 4095
0 1972 0
22 2404 1
22 2404 1
0 2329 0
12 2575 102
1 2564 919
2 2588 1505
0 2579 1947
0 2598 2347
0 2635 2680
14 2646 3048
205 2654 3439
658 2668 3847
1103 2695 4087
1454 2735 4092
1723 2811 4094
1106 2902 4095
0 1972 0
15 2566 0
15 2566 0
25 2619 8
1 2564 919
1 2564 919
0 2768 1495
1 2798 1914
0 2811 2273
0 2840 2629
0 2878 2935
44 2891 3306
337 2895 3715
786 2910 4052
1217 2950 4093
1581 3022 4094
1071 3124 4094
0 1972 0
15 2566 0
15 2566 0
25 2619 8
0 2768 1495
0 2768 1495
0 2768 1495
9 3046 2227
9 3046 2227
0 3034 2580
1 3059 2903
6 3110 3204
82 3133 3587
410 3149 3994
882 3171 4094
1347 3240 4094
1045 3349 4094
0 1972 0
15 2566 0
15 2566 0
25 2619 8
0 2768 1495
0 2768 1495
20 3325 1120
9 3046 2227
0 3311 2406
0 3311 2406
0 3325 2805
0 3310 3171
8 3337 3499
109 3380 3912
317 3439 4094
800 3535 4094
729 3662 4095
0 1972 0
15 2566 0
15 2566 0
25 2619 8
0 2768 1495
20 3325 1120
20 3325 1120
0 3311 2406
0 3311 2406
0 3613 2757
0 3613 2757
0 3646 3024
3 3595 3477
13 3629 3838
77 3726 4090
450 3750 4095
369 3984 4095
15 2566 0
15 2566 0
15 2566 0
0 2768 1495
0 2768 1495
20 3325 1120
20 3325 1120
0 3311 2406
0 3311 2406
0 3613 2757
0 3613 2757
0 3646 3024
3 3595 3477
13 3629 3838
77 3726 4090
450 3750 4095
369 3984 4095
15 2566 0
15 2566 0
15 2566 0
0 2768 1495
0 2768 1495
20 3325 1120
20 3325 1120
0 3311 2406
0 3311 2406
0 3646 3024
0 3613 2757
0 3646 3024
3 3595 3477
0 4044 4095
0 4044 4095
0 4044 4095
369 3984 4095
15 2566 0
15 2566 0
0 2768 1495
0 2768 1495
0 2768 1495
20 3325 1120
20 3325 1120
0 3311 2406
0 3311 2406
0 3646 3024
0 3613 2757
0 3646 3024
3 3595 3477
0 4044 4095
0 4044 4095
0 4044 4095
369 3984 4095
52 0 0
26 2 2
0 0 26
127 58 374
234 107 1067
343 137 1740
572 209 2462
894 59 3159
1082 4 3304
1316 0 3433
1528 0 3560
1722 0 3720
1892 0 3897
2047 0 4045
2207 226 4093
2400 705 4095
2561 942 4095
60 0 0
54 10 12
53 28 63
127 58 374
234 107 1067
343 137 1740
572 209 2462
846 244 3034
1072 240 3397
1288 200 3553
1512 173 3610
1751 137 3701
1989 82 3836
2199 25 3993
2398 187 4091
2588 713 4095
2643 1023 4095
45 53 0
54 71 11
77 103 92
123 160 357
200 209 881
322 255 1575
501 319 2266
721 413 2879
980 518 3392
1216 636 3755
1420 677 3883
1624 670 3828
1860 692 3827
2100 639 3908
2306 516 4042
2522 749 4094
2651 1034 4095
0 345 0
43 221 4
54 271 71
83 337 331
134 391 844
234 454 1526
400 535 2206
617 642 2805
876 756 3293
1120 903 3672
1353 1046 4002
1555 1161 4083
1747 1230 4034
1956 1270 3982
2181 1255 3969
2398 1224 4049
2615 1101 4095
24 693 0
20 543 1
25 592 17
30 659 261
33 756 726
75 817 1402
189 886 2101
409 973 2659
711 1074 3117
998 1189 3490
1261 1314 3842
1475 1422 4074
1670 1534 4093
1848 1634 4093
2039 1741 4084
2234 1807 4055
2288 1420 4094
25 1117 0
4 1047 0
9 1026 2
10 1097 104
14 1172 586
13 1245 1204
44 1290 1886
156 1345 2462
450 1416 2921
790 1501 3308
1113 1589 3667
1358 1672 3995
1575 1758 4093
1766 1839 4092
1955 1933 4092
2125 2037 4093
1771 1909 4094
10 1542 0
6 1615 0
7 1570 0
6 1573 18
11 1600 396
12 1636 1089
7 1683 1672
35 1711 2247
152 1752 2717
499 1804 3140
894 1861 3509
1220 1926 3861
1463 1986 4084
1686 2050 4093
1884 2125 4092
2066 2220 4092
1289 2261 4095
0 1972 0
11 1970 0
9 2021 0
9 2008 7
11 1974 285
11 1990 972
5 2012 1561
7 2050 2056
42 2075 2533
222 2097 2975
600 2132 3352
1002 2175 3717
1324 2220 4043
1576 2263 4093
1802 2328 4093
1998 2410 4094
1306 2503 4094
0 1972 0
22 2404 1
22 2404 1
16 2331 2
9 2315 190
14 2307 886
13 2312 1475
5 2330 1970
11 2366 2376
77 2374 2809
307 2388 3200
707 2418 3576
1114 2448 3950
1437 2482 4092
1696 2533 4094
1920 2606 4093
1298 2714 4095
0 1972 0
22 2404 1
22 2404 1
25 2619 8
12 2575 102
12 2572 838
13 2584 1414
8 2585 1900
4 2605 2307
12 2639 2656
98 2646 3048
411 2652 3439
835 2675 3841
1234 2693 4084
1555 2735 4092
1810 2811 4094
1264 2925 4095
0 1972 0
15 2566 0
15 2566 0
25 2619 8
12 2575 102
12 2797 876
18 2818 1337
12 2815 1828
8 2825 2240
7 2848 2598
26 2885 2920
158 2889 3306
526 2893 3709
944 2910 4049
1337 2950 4093
1669 3022 4093
1205 3141 4094
0 1972 0
15 2566 0
15 2566 0
25 2798 0
12 2575 102
12 2797 876
18 2818 1337
16 3214 1419
21 3034 2187
5 3040 2546
16 3071 2874
45 3119 3180
206 3133 3582
597 3141 3996
1037 3172 4094
1449 3240 4094
1203 3366 4094
0 1972 0
15 2566 0
15 2566 0
25 2798 0
20 3325 1120
20 3325 1120
20 3325 1120
0 3328 1412
21 3034 2187
4 3303 2433
6 3313 2796
21 3311 3166
51 3349 3484
221 3392 3910
545 3438 4094
957 3537 4095
821 3682 4095
0 1972 0
15 2566 0
15 2566 0
25 2798 0
0 2768 1495
20 3325 1120
20 3325 1120
0 3328 1412
24 3317 1976
4 3303 2433
6 3620 2615
9 3609 3080
24 3606 3462
53 3648 3821
132 3721 4092
670 3787 4095
769 3968 4095
22 2404 1
15 2566 0
15 2566 0
25 2798 0
27 2831 61
20 3325 1120
20 3325 1120
0 3328 1412
24 3317 1976
6 3620 2615
6 3620 2615
9 3609 3080
24 3606 3462
52 3892 3782
132 3721 4092
670 3787 4095
769 3968 4095
22 2404 1
15 2566 0
15 2566 0
25 2798 0
27 2831 61
20 3325 1120
20 3325 1120
0 3328 1412
24 3317 1976
6 3620 2615
6 3620 2615
9 3609 3080
52 3892 3782
52 3892 3782
89 3930 4028
89 3930 4028
769 3968 4095
22 2404 1
15 2566 0
15 2566 0
25 2798 0
27 2831 61
20 3325 1120
20 3325 1120
0 3328 1412
24 3317 1976
6 3620 2615
6 3620 2615
9 3609 3080
52 3892 3782
52 3892 3782
89 3930 4028
89 3930 4028
769 3968 4095
270 0 0
218 19 7
302 46 107
346 61 356
551 118 1068
731 128 1622
1326 0 3143
1326 0 3143
1395 2 3305
1581 0 3434
1760 0 3564
1941 0 3716
2106 0 3893
2229 0 4038
2360 222 4093
2521 731 4095
2654 984 4095
279 1 0
218 19 7
302 46 107
346 61 356
551 118 1068
731 128 1622
864 192 2447
1131 242 3018
1342 257 3407
1519 253 3588
1708 251 3639
1914 246 3713
2133 183 3825
2326 95 3973
2503 168 4084
2673 710 4095
