Fujifilm XTrans III/Velvia.3dl
#Created by: Affinity Photo (Serif Europe Ltd.)
0 128 256 384 512 639 767 895 1023
0 0 0
0 0 20
0 0 1200
0 152 2567
306 76 3315
1028 0 3571
1545 0 3912
1994 236 4094
2454 897 4095
0 15 0
0 60 116
0 186 938
4 359 2245
70 480 3326
648 420 3700
1369 190 3864
1902 220 4090
2441 904 4095
0 679 0
0 647 56
0 767 799
0 883 2048
24 1034 2995
108 1176 3706
212 1305 4016
900 1388 4038
1735 1431 4094
0 1019 0
0 1495 3
0 1589 545
0 1657 1765
0 1713 2710
59 1778 3466
157 1869 3957
328 1997 4090
924 2197 4095
0 1972 0
5 2017 0
0 2389 118
0 2307 1579
0 2344 2457
1 2366 3207
116 2412 3881
271 2506 4077
946 2652 4095
0 1492 0
0 2389 118
0 2568 1106
0 2572 1527
0 2807 2322
0 2859 2979
19 2888 3720
226 2968 4077
860 3098 4095
0 2389 118
15 2566 0
0 2568 1106
0 2760 2001
0 3031 2567
0 3318 2795
0 3332 3530
63 3419 4094
396 3623 4095
15 2566 0
0 2768 1495
0 2768 1495
20 3325 1120
0 3311 2406
0 3613 2757
0 3601 3456
0 4044 4095
144 3914 4095
15 2566 0
0 2768 1495
0 2768 1495
20 3325 1120
0 3311 2406
0 3613 2757
0 4044 4095
0 4044 4095
0 4044 4095
52 0 0
0 0 26
234 107 1067
572 209 2462
1082 4 3304
1528 0 3560
1892 0 3897
2207 226 4093
2561 942 4095
45 53 0
77 103 92
200 209 881
501 319 2266
980 518 3392
1420 677 3883
1860 692 3827
2306 516 4042
2651 1034 4095
24 693 0
25 592 17
33 756 726
189 886 2101
711 1074 3117
1261 1314 3842
1670 1534 4093
2039 1741 4084
2288 1420 4094
10 1542 0
7 1570 0
11 1600 396
7 1683 1672
152 1752 2717
894 1861 3509
1463 1986 4084
1884 2125 4092
1289 2261 4095
0 1972 0
22 2404 1
9 2315 190
13 2312 1475
11 2366 2376
307 2388 3200
1114 2448 3950
1696 2533 4094
1298 2714 4095
0 1972 0
15 2566 0
12 2575 102
18 2818 1337
8 2825 2240
26 2885 2920
526 2893 3709
1337 2950 4093
1205 3141 4094
0 1972 0
15 2566 0
20 3325 1120
20 3325 1120
21 3034 2187
6 3313 2796
51 3349 3484
545 3438 4094
821 3682 4095
22 2404 1
15 2566 0
27 2831 61
20 3325 1120
24 3317 1976
6 3620 2615
24 3606 3462
132 3721 4092
769 3968 4095
22 2404 1
15 2566 0
27 2831 61
20 3325 1120
24 3317 1976
6 3620 2615
52 3892 3782
89 3930 4028
769 3968 4095
671 0 0
728 74 151
1618 154 1096
1269 220 2455
1732 8 3312
2029 12 3573
2320 2 3879
2552 217 4092
2789 1046 4095
740 73 0
666 183 99
863 275 961
1163 379 2337
1523 577 3367
1873 792 3945
2202 834 3866
2575 758 4009
2871 1182 4095
629 604 0
589 682 11
763 797 755
1034 902 2102
1375 1088 3080
1720 1326 3800
2030 1557 4093
2320 1777 4089
2758 1888 4079
166 1669 0
133 1619 0
250 1635 321
494 1683 1657
988 1753 2705
1466 1865 3485
1838 1999 4079
2184 2142 4093
2552 2424 4094
52 2283 0
45 2316 0
54 2353 87
129 2332 1371
389 2356 2367
1015 2389 3185
1561 2447 3938
1993 2537 4093
2353 2794 4094
52 2283 0
30 2580 0
46 2828 50
49 2844 1191
123 2858 2130
453 2877 2907
1113 2886 3707
1698 2949 4093
1762 3203 4094
52 2283 0
47 3118 52
47 3118 52
32 3345 1045
44 3325 1896
145 3318 2716
402 3378 3453
1118 3430 4094
1566 3676 4095
47 3118 52
47 3118 52
83 3367 553
83 3589 1468
45 3587 1961
88 3612 2535
60 3880 3419
476 3996 4095
1282 4000 4095
47 3118 52
83 3367 553
83 3367 553
83 3589 1468
45 3587 1961
60 3880 3419
60 3880 3419
476 3996 4095
476 3996 4095
1732 0 0
1106 96 163
1860 179 1965
2003 227 2470
2338 151 3316
2544 184 3636
2787 103 3857
2972 205 4089
3105 1218 4095
1791 158 0
1727 251 85
1871 330 1051
2007 436 2367
2173 665 3285
2390 887 3934
2633 983 3914
2930 1029 3983
3153 1408 4095
1772 809 0
1743 767 8
1821 827 803
1917 939 2071
2064 1130 3033
2237 1371 3745
2429 1593 4094
2634 1803 4090
3037 1992 4080
1492 1658 0
1461 1625 0
1514 1649 341
1661 1693 1643
1861 1761 2684
2086 1878 3456
2299 2009 4073
2529 2156 4093
2851 2439 4094
928 2321 0
961 2309 0
980 2332 120
1221 2316 1390
1500 2349 2347
1807 2386 3166
2082 2453 3910
2365 2546 4093
2701 2800 4094
747 2526 0
724 2561 0
482 2830 64
632 2848 1141
987 2840 2125
1391 2868 2893
1780 2885 3687
2139 2954 4093
2491 3249 4095
956 2795 0
737 3113 3
286 3309 519
232 3312 1032
420 3313 1861
782 3330 2681
1251 3361 3452
1741 3426 4094
2159 3694 4095
737 3113 3
737 3113 3
286 3309 519
83 3589 1468
207 3574 1852
528 3602 2560
1287 3959 3472
1121 3932 3995
1856 3983 4095
737 3113 3
286 3309 519
286 3309 519
83 3589 1468
207 3574 1852
528 3602 2560
1287 3959 3472
1121 3932 3995
1121 3932 3995
2197 51 0
2706 335 61
2689 250 1947
2772 330 2801
2900 381 3251
3044 429 3696
3235 314 3861
3405 303 4079
3462 1467 4095
2650 297 0
2706 335 61
2747 424 976
2723 566 2296
2787 788 3216
2899 999 3870
3071 1113 3960
3318 1234 3973
3477 1713 4095
2580 926 0
2696 850 7
2665 914 850
2664 1031 2033
2701 1213 2966
2779 1422 3674
2884 1639 4093
3027 1839 4091
3392 2088 4082
2403 1586 0
2483 1657 0
2473 1676 395
2489 1715 1675
2558 1800 2663
2652 1908 3417
2769 2039 4058
2931 2185 4094
3231 2463 4094
2267 2255 0
2213 2313 0
2183 2331 165
2232 2326 1394
2335 2355 2331
2469 2394 3145
2621 2457 3903
2802 2556 4093
3118 2806 4094
2388 2821 0
2039 2838 0
1838 2828 73
1894 2836 1149
2039 2832 2109
2204 2863 2871
2389 2891 3654
2620 2966 4093
2935 3255 4094
2039 2838 0
2332 3068 2
1378 3296 528
1420 3291 1046
1603 3297 1877
1806 3312 2678
2066 3351 3448
2354 3420 4092
2677 3694 4094
2332 3068 2
2332 3068 2
1378 3296 528
836 3625 1395
1150 3610 1827
1583 3576 2556
1677 3900 3440
2013 3939 4063
2409 3794 4095
2332 3068 2
2332 3068 2
1378 3296 528
836 3625 1395
1150 3610 1827
1677 3900 3440
1677 3900 3440
2013 3939 4063
2283 3989 4095
3410 458 0
3797 488 507
3505 458 1224
3379 611 2437
3439 592 3179
3512 660 3719
3630 579 3870
3779 576 4066
3782 1787 4095
3410 458 0
3411 522 159
3380 594 1169
3351 745 2238
3342 940 3145
3400 1121 3782
3519 1250 3993
3715 1376 3983
3789 2055 4095
3377 1021 0
3371 996 19
3331 1067 871
3292 1171 2001
3278 1325 2904
3312 1503 3601
3367 1700 4092
3474 1896 4093
3788 2233 4085
3147 1672 0
3206 1725 0
3171 1750 501
3151 1771 1723
3167 1848 2634
3204 1954 3374
3276 2071 4035
3406 2218 4093
3700 2487 4094
2973 2272 0
3002 2336 0
2967 2344 265
2966 2342 1409
2988 2365 2351
3053 2417 3112
3138 2478 3863
3295 2579 4093
3585 2840 4094
2989 2515 0
2843 2782 0
2727 2836 131
2728 2841 1197
2776 2843 2102
2859 2866 2867
2976 2896 3642
3156 2974 4091
3450 3262 4094
2388 2821 0
2665 3004 0
2270 3270 9
2501 3275 1067
2531 3293 1860
2626 3308 2667
2749 3352 3437
2971 3436 4089
3301 3694 4095
2665 3004 0
2270 3270 9
2270 3270 9
2261 3554 1105
2395 3566 1750
2443 3582 2526
2569 3907 3376
2725 3975 4076
3187 3939 4095
2270 3270 9
2270 3270 9
2261 3554 1105
2261 3554 1105
2395 3566 1750
2569 3907 3376
2569 3907 3376
2725 3975 4076
3254 4012 4095
3614 567 0
3916 599 734
3861 557 1982
3943 713 2426
3875 747 3090
3881 822 3716
3927 785 3890
4019 741 4066
3997 2118 4095
3918 807 0
3908 723 319
3910 791 1256
3931 933 2179
3911 1096 3041
3939 1264 3717
3953 1368 4019
3987 1489 4014
3996 2304 4094
3800 1309 0
3891 1184 46
3922 1224 976
3887 1307 2005
3874 1445 2835
3883 1603 3545
3914 1770 4088
3965 1952 4094
4045 2365 4088
3678 1811 0
3754 1796 4
3817 1816 660
3782 1842 1732
3761 1910 2607
3775 2004 3339
3823 2117 4017
3905 2253 4093
4057 2524 4094
3571 2381 0
3571 2349 0
3634 2375 351
3618 2376 1448
3618 2390 2360
3650 2443 3091
3710 2504 3843
3810 2603 4092
3999 2872 4094
3661 2765 0
3414 2814 0
3416 2858 213
3437 2855 1235
3446 2859 2093
3488 2877 2870
3566 2919 3632
3688 3003 4093
3867 3277 4094
3661 2765 0
3375 3014 9
3278 3277 175
3271 3279 1105
3284 3299 1875
3340 3319 2639
3419 3357 3420
3597 3439 4070
3818 3681 4094
3661 2765 0
3278 3277 175
3278 3277 175
3202 3552 1026
3219 3555 1740
3669 3838 2490
3362 3611 3384
3331 3926 4058
3784 3929 4094
3278 3277 175
3278 3277 175
3202 3552 1026
3202 3552 1026
3750 3894 1712
3669 3838 2490
3695 3898 3268
3331 3926 4058
3862 3981 4095
3908 723 319
3916 599 734
4095 827 1871
4073 966 2758
4063 1055 3154
4045 1068 3758
4070 1121 3957
4092 1154 4067
4089 2145 4095
3918 807 0
4095 1048 751
4087 926 1275
4095 1068 2154
4093 1262 2981
4091 1404 3674
4082 1497 4062
4084 1601 4054
4095 2026 4087
4095 1472 0
4092 1269 147
4095 1445 1208
4094 1440 2063
4093 1560 2812
4093 1698 3485
4094 1840 4087
4094 1991 4094
4095 2236 4095
4095 1472 0
4048 1834 5
4095 1874 807
4094 1903 1769
4094 1972 2601
4093 2064 3322
4094 2166 4025
4094 2293 4094
4095 2505 4094
3571 2381 0
3980 2362 0
4095 2408 580
4093 2398 1508
4092 2422 2367
4091 2480 3092
4093 2539 3889
4094 2628 4094
4095 2853 4094
3752 2864 0
4095 2892 36
4087 2860 404
4066 2876 1296
4065 2893 2090
4070 2906 2898
4083 2968 3670
4094 3051 4094
4095 3281 4094
3752 2864 0
4095 3038 34
3957 3322 326
3932 3352 1127
3945 3384 1861
3954 3408 2615
3978 3455 3440
4038 3540 4065
4093 3773 4094
4095 3038 34
3664 3311 241
4023 3588 811
3922 3594 1072
3750 3894 1712
3962 3884 2435
3991 3897 3309
4059 3940 4024
4095 4077 4095
3664 3311 241
3957 3322 326
4023 3588 811
3750 3894 1712
3750 3894 1712
3962 3884 2435
3991 3897 3309
4059 3940 4024
4095 4077 4095
3908 723 319
4095 1137 1327
4095 953 2323
4073 966 2758
4095 1250 3071
4095 1072 3924
4095 1299 3990
4095 1432 3971
4089 2145 4095
4092 1269 147
4095 1137 1327
4095 1137 1327
4095 1258 2708
4095 1326 2800
4095 1460 3680
4095 1587 4094
4088 1696 4018
4095 2026 4087
4095 1472 0
4095 1445 1208
4095 1507 1387
4095 1479 1827
4095 1647 2861
4094 1744 3461
4095 1897 4091
4095 1853 4055
4095 2236 4095
4095 1472 0
4095 2214 104
4095 1713 1401
4095 1924 1884
4095 2004 2637
4094 2090 3325
4094 2181 4079
4095 2250 4095
4095 2511 4095
3980 2362 0
4095 2422 150
4095 2156 1272
4095 2459 1498
4095 2456 2399
4094 2517 3104
4095 2562 3977
4095 2788 4095
4095 2788 4095
3752 2864 0
4095 3002 323
4095 3002 323
4095 2900 1339
4095 2921 2056
4095 2966 2872
4095 3008 3721
4095 3181 4095
4095 3257 4095
4095 3038 34
4095 3038 34
4095 3395 859
4095 3422 1167
4095 3571 1796
4095 3678 2504
4095 3691 3642
4095 3751 3920
4095 3800 4095
4095 3038 34
3957 3322 326
4095 3395 859
4095 3667 1096
4088 3918 1720
4095 4077 2487
4095 4018 3589
4095 4079 4071
4095 4079 4095
3957 3322 326
4023 3588 811
4023 3588 811
4088 3918 1720
4088 3918 1720
4095 4077 2487
4095 4018 3589
4095 4079 4071
4095 4079 4095
